P3
200 200
255
  0   0   0     0   0   0     0   0   0     0   0   0     0   0   1     2   0   0     2   8   0     0   0   0     0   0   0     0   0   0     0   0   0     0   0   0     0   0   0     0   4   0     0  12   0     0   0   0     0   0   0     0   0   0     0   2   0     5  33   0     4   6   8     0  42   1     0   2   0     0  16   0     0  16   0     0  16   0     0   0   0     0   0   8     0   0   0     1   1   0     0   0   0     0   0   0     8   0   0     2   0   0     6   8   0     0   0   0     0   0   0     0   0   2     0   0   0     0   0   4     8  24   0    26  10   0    26  16   2     0   0   1     0   0   0     0   4  17    16   4  16    16   2   4     1   3   6     0   0   0     0   0   0     0   2   2     2   0   8     2   0   0     0   0   0     0   0   0    16  16   0     0   0  16     0   0   0     1   1   1     0   0  16     0   0   0     0   0   0     0   0  16     0   0   0     0   0   0     0   0   0     0   0   0     0   0   0     0   0   0     0   0   0    16   1   0     0   1   0     0   4   0     8   0   0     0   0  16     0   4   0     0   0   0     0   0   0     0   0   0    20   0   0     0   0  16     0   0  16     0   0  16     8   0   0     8   0   5     0   1   0     0   0   0     0   1   0     0   1   4     0   2   4     0   0   0     0   2   0     0   0   4     0   2   8     0   0   0     0   0   0     0   0   0     4   0  17     0   2   2     0   0   0     0   0   0     0   0   6     0   0   4     0   0   0     0   0   0     0   0  16     0   2   0     0   2   0     0   2   3     0   0   1     0   0   1     0   2   0     4   0   0     0   2   0     0   4   0     0   0   4     0   0   4     0   0   4     0   0   4     0   0   0     0   0   0     0   0   0     0   0   0     0   1   0     0   2   4     0   0   0     0   0   0     0   0   0     0   0   0     2   0   0     0   0  16     0   0   0     0   0   0     0   0   0     0   0  11    16   0   5     0   0  14    16  16  22    16  16  16     0   0   0     4   0   0     0   2   0     0   0   0     0   2  16     0   1  16     2   0   2     2   0   6     0   0   0     4   0   0     4   1   0     0   1   0     4   1  16     0   0   0     4   0   0     2   0   0     0   0   0     0   0   0     0   0   0     0   2  16     0   0   0     0   2   0     0   0   0     0   0   0     0   8   0     0   0  16     0   0  16     4   0   0     4   0  16     0   0   0     0   0   0     0   0   0     0   0   0     0   0   0     2   0   0     1   0   0     2   0   0     3   0   2     2   0   2     0   0   0     0   0   0     0   0   0     0   0   4     0   8   4     0   8   0     0   0   0     4   0   0     4   0   0     4   0   0     4   0   0     1   0   5     0   1   4     0   0   0     0   0   0     0   0   0     8   0   0     0   0   0     8   0   0     1   0   1     1   0   0
  0   0   0     0   0   0     0   0   0     0   0   0     0   0   0     0   0   0     0   0   0     2   0   0    16   0   0     2   0   0     0   0   0     0   0   0     0   0   0     6   0   0     7   0   0     0   0   5     0  16   0     8   8   8     0  18   0     1   3   8     4  10   0     4   8   0     0   0   0     0   0   0     0   8   0     2   8   0     2   0   0     2   0   0     0   0   0     1   1  16     0   4  16     1   1   0     0   0   0     4   0   0     0   0   0     0   2   0     0   0  16     0   0   0     0   8   2     0   0   4     8  24  16    24  16   0    16   4   0     2   0   0    16   0  16    16   0   0     2   0   0    16   0   0     0   0   4     0   2   4     0   0  10     0   0   0     2   0   0     0   0  16     2   0  16     0   0  16     0   0   0     0   0   0     0   0   0     1   1  16     1   1  16     1   1  16     0   0   2     0   1   0     0   0   0     0   0   0     0   0   0     0   4   0    16   1   0    16   1   0     0   0   0     0   0   0     0   1   0     0   0  18     0   4   0     0   0   0     0   0   0     0   2   0     0   2   0     0   0   0     0   0   0     0   0   0     0   0   0     0   0   0    16   0   0     0   0   5     0   0   5     0   0   5     0   0   0     2   4   0     0   6   1     0   0   1     0   0   0     0   0   0     0   0   0     0   0   4     0   0   0     0   0  16     2   0  16     2   4   0     0   0   0     0   0   0    16   0   5     0   0   4     0   0   1     4   0   0     0   2   0     0   0   0     0   2  16     0   0   0     0   0   0     0   0   0     0   0   0     0   0   0     0   2   0     4   0   6     1   0   4     0   0   0     0   0   4     0   0   4     0   0   0     0   4   0     0   0   0     0   0   0     0   1   0     0   3   0     0   0   0     0   0   0     0   0   0     0   1   0     2   0   0     0  12   0     2   0   0     0   0   0     0   0   0     0   0   9     0   0   1     0   0   9     0   0   0     0   0   0     0   0   0     4   0   0     0   0   0     0   0  17     0   0   0     0   0   2     2   1   6     0   1   0     0   0   0     0   5   0     0   0   0     4   0  16     0   0   0     0   0   0     0   0   1     0   0   1     0   0   1     0   0   0     4   0   0     0   0   0     4   0   0     0   0   2     0   0   0     0   0   0     0   8   0     0   0  16     0   0  16     0   0  16     0   0  17     4   0   0     4   0   0     4   0   0     4   0   0     4   0   0     0   0   0     0   0   2     0   0   2     2   0   0     2   0   2     2   0   2     0   0   4     0   2   0     0   8   4     0   8   0     0   8   0     0   0   0     4   4   0     4   0   0     2   0   2     4   0   0     1   0   1     0   0   0     0   0   0     0   8   0     0   8   0     0   0   0     0   0   0     0   0   0     1   8   1     0   0   0
  0   0   0     0   0   0     0   0   1     0   0   0     0   0   0     0   0   0     0   0   0     0   0   1     2   0  16     2   0   0     1   1   4     0   0   0     2   0   2     4   0   0     6   0   0     4   0   0     0   0  12     4  26   8     5  11   8     1  11   0     1   9   0     8   8   0     2   8   0     2  16   0     2   8   0    11  25   4     2   4   0     0   0   0     1   1   0     1   3   0     1   1   0     1   1   0     0   0   0     4   0   0     0   0   0     0   2   0     0   0   0     1   1  16     0   0   2     8   8   4     8   0   0     0   4   1     0   0   0     0   0   0     1   1   0     2   0   0     2   0   0     0   0   0     0   0   0     0   0   0     0   0   0     0   0   0     1   1  16     2   0  16     0   0   0     0   0   0     0   0   4     0   0   0     0   0   0     4   0   0     4   0  18     0   0   0     0   0   0     0   1   0     1   0   0     0   0   0     0   0   0     0   0   0     1   1   0     1   0   0     1   0   0     0   1   0     0   1   0     0   0   0     4   0   0     0   0   0     0   0   0     0   2   0     0   2   0     0   0   0     0   0   0     0   0   8    16   0   0     0   0   0    24   0   1     0   0   5    16   3   1     0  18   1     0   2   0     2   2   0     0   0   0     0   0   0     2   0   0     0   0   0     0   0   0     0   2   4     0   0   0     0   0   0     4   4  17     0   4   0     0   0   0     2   0   1     0   0   1     0   0  16     0   0   1     0   0   1     0   0   4     0   2   0     0   0   0     0   0   0     0   0   0     0   0   0     0   0   0     0   2   0    17   0   0    16   4   0     0   4  12     0   0   4     0   1   0     0   4   8    16   4   0     1   4  16     0   0  16     0   0   0     0   0   0     0   2   0     0   0   0     1   0   0     5   0   0     3   0   2     0   0   0     0   0  16     2   0   0     0   0   0     2   0   0    16   0   0    16   0   8     0   0   8     0   0   0     0   0   0     0   0   0     0   0   0     4   0   1     0   1   1     0   1   0     0   1   4     2   0   6     0   2   0     0   0   0     0   1   0     0   1   0     0   1   0     0   0   0     4   0   0     4   0   0     0   0   0     0   0   0     4   0   0     4   0   0     0   0   0     0   2   0     1   2   0     0   0   0     1   1   0     0   0   0     0   0   0     0   0   0     0   0   2     0   0   0     0   0  12     4   0   0     4   0   0     0   0   0     0   0   0     2   0   1     2   0   4     0   0   0     0   0   4     0   0   4     2   0  10     0   0   0     0   0   0     0   8   4     0   8   0     0   0  16     4   0   0     6   0  18     4   0  16     6   0   2     4   0   0     1   0   1     1   0   1     2   0   2     4   1   0     4   8   0     4   0   0     0   0   0     2   0   2     4   0   0     0   0   0
  0   0   0     0   2   0     0   0   0     0   0   0     0   0   0     0   0   0     0   0   0     0   0   1     2   0   2     2   0   0     1   1   4     1   1   0     5   1   0     0   0   2     5   1   2     4  16   4     0   0   0    12  26   8     8  10   8     0   8   0     8   0   4     8   0   0     2   0   0     2   0   4     0   0   8     8  16   0     1   9   0     1   1   0     0   0   0     0   2   0     1   1   0     1   1   0     4   0   2     0   0   0     0   0   1     0   2   0     0   0   0     2   0   0     9   1   0     0   0   0    24   0   0     0   4   0     0   0   0     1   1   0     0   0   0     2  16   0     0   0   0     0   0   0     0   0  12     0   0   0     0   0   0     1   1   0     1   1   0     1   1   0     1   1   0     1   1   0     1   1   0     0   0   0     0   0   0     0   0   0     1   1   2     0   0   2     1   0   2     0   0   0     1   1   2     0   0   0     0   2   0     0   0   0     0   0   0     1   0   0     1   0   0     0   3   0     0   2   0     0   2   0     4   0   0     0   0   0     0   0   0     0   2   0     0   0   0     0   0   0     0   4   8     4   0   0     0   5   0     4   0   5     0   0   5     0   0   0     0   1   1     0   0   0     0   0   0     0   0   0     0   2   1     0   0   0     0   0   0     0   0   0     0   0   0     0   0   0     0   4   4     0   0   0     0   4  16     4   4   0    18   0   0     0   0   3     0   2   1     0   6   0     0   6  17     0   4   0     0   0   0     0   0   0     0   0   0     0   0   0     0   0   8     0   0   0     0   0   0     1   0   1     1   0   0     0   0   0     0   0   4     0   0   4     0   5   0     2   0   0     0   0   0     0   0  16     0   4   0     0   0   0     0   0   0     0   0  16     0   0   0     1   0   0     1   0  10     1   0   0     1   0   0     0   1   2     0   0   0     0   0   0     0   0   0     0   0   0     0   0   0     0   0   0     0   0   0     0   0   0     4   0   0     0   0   0     0   1   1     0   1   1     0   0   2     0   1  14     2   0   2     0   0   0     0   0   0     0   0   0     0   4   0     0   0   0     0   0   0     0   0   0     0   0   0     4   0   0     4   0   0     4   0   0     0   0   0     4   0   0     0   2   0     1   0   0     0   0   0     0   0   0     0   0   0     0   0   0     0   0   0     0   0   0     0   0  14     0   2  12     0   0  14     0   0  12     0   0  12     0   0  12     0   0  14     0   0   8     0   0  12     0   0  12     0   0   4     0   0   0     0   0   0     0   2   8     0   8  20     0   0  16     0   0   0     4   0  16     7   0  19     6   0  18     0   0   0     4   0   0     3   0   3     0   0   0     0   0   0     4   0   0     0   0   0     4   1   0     4   0   0     6   0   2     4   4   0     4   0   0
  0   0   0     0   2   0     0   6   0     0   0   0     0   0   0     0   0   0     0   8   0     2   0   0     0   0   1     0   0   0     0   0   4     1   1   4     4   0   2     4   8   2     4   0   0     0   2   0     8   0   0     4  10   8     8   2   8     8   0   0     0   0   4     8   0   0    10   0   4    16   0  12     8   0   8     8   8   0     0   0   0     5   9   0     0   0   0     0   0   0     0   0   0     8   0   0     8   0   0     8   0   0    12   0   1     0   0   8    10   0   9     2  16   8    14  16   0     4   0   0     0   0   0     0   4   1     0   0   0    32  32   0     8   0   0     0   0   0     0   0   0     0   0   0     0   0   0     0   0   0     1   1   0     1   1   0     1   1   0     0   0   0     0   0   0     1   1   0     0   0   0     0   0   0     0   0  12     0   0  12     0   0  12     0   0   0     0   4   0     0   0   0     0   0   0     0   0   0     0   0   0     0   0   0     1   0   0     1   1   0     0   0   0     0   0   0     0   2   0     0   2   0     4   0   0     4   0   0     0   0   0     0   0   0     0   0   0     0   0   0     0   0   1     4   0   9     0   1   0     0   0  20     0   1  21     0   1   1     0   1   1     0   1   1     0   0   0     0   0   0     0   0   0     0   0   8     0   0   0     0   0   0     0   0   8     0   0   4     0   4   4     4   4   0     0   0   0     0   0  16     1   0   0     6   0   2     0   0   1     0   2  17     0   2   5     0   0   4     0   0  12     0   0   0     0   0   4     0   0   4     0   0   0     1   0   0     0   0   1     0   0   1     0   0   0     0   0   0     0   1   0     0   1   4    16   1   4     0   1   0     0   0   0     0   0  16     0   0   0     0   0   1     0   0  17     0   0   1     2   0   0     0   0   2     2   0   0     4   0   0    16   0   0     1   0   2     0   0   0     0   4   0     2   0   1    16   0   0     2   0   1     0   0   0     0   4   0     0   4   0     0   0   0     0   0   0     0   1   0     0   0   0     0   0   0     0   0   0     0   5   0     0   0   0     0   0   0     0   0   0     0   4   0     0   4   0     2   0   2     2   0   2     6   0   2     0   0   0     0   0   0     0   0   0     1   0   0     0   0   0     0   0   0     0   0   0     0   0   0     1   1   0     4   0   0     1   1   0     0   0   0     0   0   2     0   0  14     0   2  14     0   0  12     0   0  12     0   0  12     0   0  12     0   0   0     0   0  12     0   0  12     0   0   0     0   0   0     0   0   0     0   0   0     2   2   2     0   0  20     0   0  16     0   0   0     4   0  16     7   0  19     6   0  18     0   0   0     4   0   0     1   8   1     0   0   0     0   0   0     2   1   2     0   0   0     4   4   0     4   0   0     6   4   2     4   0   0     0   0   0
  0   0   0     0   0   0     0   0   0     0   0   0     0   0   0     0   0   0     2   8   0     0   0   1     0   0   2     0   0   0     0   0   0     8   0   4     8   0   4     1   1   0     1   1   0     0  24   0     0  26   0     0   8   0     8   0   0     0   0   4     8   8   0     8  16   4     8   0   4     8   0  12     8   0   0     8   0   0     0   0   0     1   9   0     0   0   0     0   2   0     8   0   4     0   0   0     8   0   0    12   0   0     0   0   0     8   0   0     8   0   8     8  16   0     8  24   0     8   0   0     0   0   0     0   2   0     0   0   0     4   0   0     0   0   0     0   0   0     0   0   0     0   0   0     0   0   0     1   1  16     2   0  16     1   1  16     0   0   0     0   0   0     0   0   0    17   1   0     0   0   0     0   0   0     0   0   0     0   0   0     0   0   2     0   0   0     0   0  12     0   0  12     0   0   0     0   0   0     0   0   0     4   0   0     1   0   4     0   1   0     0   1   0     0   3   0    16   0   0    16   0   0    16   0   0     0   1   0     4   0   0     0   0   0     4   0   0    12   0   5     4   0   0    12   0   1     0   0   0     0   0   0     0   1   1     0   1   1     1   0   0     0   0   1     0   0   0     0   0   0     0   0   0     0   0   0     0   0   0     0   0   8     0   0   0     2   4   0     0   0   4     0   4   0     0   4   0     8   0   0     2   8   0     3   0   0     3   8   0     2   0   0     0   0   1     0   0   0     0   0   0     4   0   0     4   0   9     1   0   0     0   0   8     0   0   0     2   0   0     0   0   0     0   0   0     0   0   0     0   0   0     0   0   0     2   0   2     0   1   2     0   0   0     0   4   0     0   0  16     0   4  17     0   0   1     0   0   3     2   4   8     2   0   2     0   0   1     1   0   2    17   1   8    16   0  10     0   0   0     0   2   0     0   0   0    18   0   0     0   0   0     0   0   0     0   4   0     0   4   0     4   0   0     0   4   4     0   1   0     0   0   2     0   0   0     0   0   0     0   4   0     0   5   0     0   4   0     0   0   0     0   0   4     0   4   4     1   0   1     2   0   2     6   0   2     4   0   0     4   4   0     0   0  16     0   0   0     0   0   0     0   0   0     0   0   0     0   0   0     0   0   0     0   0   0     0   0   0     0   0   0     0   4  12     0   0  14     0   2  12     0   0  17     0   0   0     0   0   0     0   4   0     0   4   2     0   4   0     0   4   0     0   0   0     4   0   0     0   0   0     0   0   0     0   0  16     0   1  16     0   1  16     4   0   0     4   0   0     6   0  18     4   0  16     6   0   2     4   0   0     0   0   0     1   0   1     0   0   0     0   0   0     0   0   0     0   4   0     4   0   0     4   4   0     4   0   0     4   0   1
  0   0   0     0   0   0     0   0   0     0   0   0     0   0   0     0   4   0     0   8   0     0   8   0     0   0   0     0   0   2     8   0   2     0   0   0     8   0   0     8   0   0     0  16   0    16  16   0     0  24   1     0  16   1     0   0  18     0   0  22     0   0   4    10   0   0     8   0   4     0   0   4     0   0   0     0   0   0     0   0   0     4   0   0     0   0   0     0   0   0     0   0   0     0   0   0     0   0   0     0   0   0    12   0   0     0   0   8     0   0   0     8   0   0     0  24   0     0   8   0     8   8   0     8   2   0     0   2   0     0   0   0     0   0   0     0   0   0     0   0   0     0   0  16     0   0  16     2   0  16     0   0  16     2   0   0     0   0   0     0   0   2     0   0   0     0   0   0     0   0   0     0   0   0     0   0   0     0   0   0     0   0   0     0   0   0     0   0  12     0   0   0     0   0  12     0   0   8     1   4   0     0   0   8     5   0   0     0   3   0    12  17   0     2  16   0    16  16   0    16   0   8    16   0   8     4   0   8     0   0   0    16   0   0     4   2   0     8   0   4     4   2   0     4   0   0     4   2  16     0   0   0     0   1   0     1   0   1     0   8   0     1  13   0     0   1   1     0   4   0     0   1   0     1   0   0     0   1   8     0   0   8     2   0   8     2  16   3    16   0   3     0  20   0     8   4  16     0   0   0     0   0   4    11   8   4     3   8   4     1  24   0    18  16   4     2   2   4     4   0   0     4   0   0     4   3   0     0   0   0     1   0   0     2   0   0     0   0   0     0   0   0     0   0   0     0   0   0     2   0   0    16   0   0     2   1   0     0   4   6     0   4   2     0   4   0     4   0   0    16   4   0     0   0   0    18   0   0     2   0   8     0   0   8     0   0   8     8   0   0     1   0   4    17   0   2    16   0   0     0   0   3     0   0   0    20   4  11    16   0   0     0   1   0     0   0   1     1   0   0     0   0   0     0   0   0     0   0   0     0   0   0     0   0   0     0   4   0     0   0   0     0   5   0     0   0   0     0   0   0     0   0   4     0   4  12     1   0   5     2   0   2     2   0   2     0   0  16     0   0   0     0   0   0     0   0   0     1   4  16     0   0   0     0   0   0     0   0   0     0   0   0     0   0   0     0   0   0     0   0   0     0   0   0     2   0   1     0   0   1     0   0  17     0   0  16     0   4   0     0   4   4     2   4   4     2   4   0     1   0   0     1   0   0     0   0   0     1   0   1     0   4  16     0   0   0     0   0   0     0   0  16     0   0  16     4   0   0     0   0   0     0   0  16     6   0   2     0   0   0     0   0   0     0   1   0     0   1   0     0   0   0     0   0   0     0   4   0     1   4   1     0   0   0     1   0   0     4   0   0
  0   0   0     0   0   0     0   0  16     0   0   0     0   0   0     0   0   1     0   0   0     0   8   0     0   8   0     0   0   2     0   0   0     8   0   0     0   0   0     0   0   0    16   0   0    16  16  16     0   8   3     0   8   3     0   0   6     2   0  16     2   0   8     8   0   0     0   0   8     0   0   4     0   2   0     0   2   0     4   0   0     0   0   0     1   1   0     0   0   0     1   1   0     0   0   0     0   0   0     0   0   0     0   0   0     0   0   0     0   0   0     8   0   0     1   1   0     1   1   0     0   0   0     0   2   0     0   2   0     0   0   0     0   0   0     0   0   0     2   0   0     0   0   0     1   1   0     2   0  16     0   0   0     2   0   0     0   0   0     0   0   2     0   0   0     0   0   0     0   0   0     0   0   0     0   0   0     1   1   0     0   0  16     0   0   0     0   0   0     0   0   4     0   0   0     0   0   8     4   4   8     0   0   8     0   1   0     0   0   0     4  17   0     0   0   0    16  16   0     0   0   8    17   0   8     0  16   0    20   0   0     4   1   0    20   1   0     0   0   4     4   2   4     4   0   0    32   0   0    32   0   0     0   0   0     0   0   0     1   1   1     0   4   0     0   0   0     0   0   0     0   0   0    16   0   0     5   1   1     0   0   1     0   0   1     2   0   1     2   0   0     0   4   0     0   0   0     0   1   0     0   0   4     0   0   0    17   0   4    16   0   4    20   0   4    16   2   0    16   2   0     0   0   0     4   1   0     4   1   0     0   0   0     0   0   0     8   0   0     0   0   0     0   0   0     0   0   0     0   1   0     0   0   0     0   1   1     0   0   7     0   4   0    20   0   8    20   4   0     0   0   0    16  20   8     1   0   8     2   4   0    18   0   8     0   4   8     0  17   0    17   1   0     1   0   0     0   0   0    16   0   3     0   4   2     0   4   2     0   0   0     0  16   1     0   0   1    20   0   0    16   0   0     0   0   0     0   0   0     1   0   0     0   0   0     0   0   0     0   0   0     0   4   0     0   2   0    16   0   0    16  17   0     0   0   0     0   0   0     0   0   8     0   0   0     0   0   0     0   2  16     0   0   0     0   0  16     0   0  16     0   0   0     0   0   0     2   0   0     0   0   0     0   2   0     0   0   0     0   0  12     0   4  12     2   0   0     0   0   0     0   0   1     0   0   1     0   4   0     0   0   4     0   0   4     2   0   4     2   0   4     0   8  16     0   0   0     0   0   0     0   0   0     0   0  16     0   8  16     0   0  16     0   0   0     4   0   0     4   0  16     4   0  16     0   0   0     0   0   0     0   0   0     0   0   0     0   0   0     0   0   0     4   0   0     5   2   1     0   0   0     1   0   1     1   0   1     4   0   0
  4   0  16     4   0   0     2   0  16     0   0   0     0   0   0     0   0   0     0   8   0     8   0   0     0   0   0     8   0   1     0   0   1     0   0   1     0   0   0     0   0   0     0   0   0     0   0   0     0   0   0     2   0   1     2   0   0     2   0   4     6   0   8     0   0   4     0   0  12     0   0   4     0   0   0     0   0   0     0   0   0     2   0   0     3   1   0     2   0   0     0   0   0     8   0   0     0   8   0     0   0   0     0   0   0     4   0   0     0   0   2     0   0   2     0   0   0     0   0   0     0   0   0     1   1   6     0   0   6     0   0   2     0   0   0     0   0   0     0   0   0     0   0   0     2   0   0     0   0   0     2   0   0     2   0   0     2   0   0     0   0   0     0   0   0     0   0   0     0   0   1     0   0   0     0   2   0     0   2   0     0   0   0     0   2   0     0   2   0     0   2   8     0   0   8    16   0   8    16   0   8     0   0   0    16   0   0     0   1   1    18  16   0     0   0   0     0   0   0     0   0   8     0   0   8     8   0   0     0   8   0     1   1   0     0  16   0    16   0   0    18   0   4    32   0   0    36   0   0    40   0   0     0   0   0     0   0   0     0   4   0     0   4   1     0   0   0     0   2   0     0   0   0     0   0   0    16   1   0    16   0   0     2   0   1     2  16   0     0  16   0     0   8   0     1   8   0     0   0   8     8   0   4    16   0   4     8   0   0     1   0   0    16   0   4     0   0   4    16   2   2    16   2   0     2   8   0     2   0   0     0   0   0     0   0   0     8   0   0     0   0   0    16   0   0     0   0   0     0   1   0     0   1   0     1   3   4     0   0   6     0   4   0    16  17   8    20   4   0    20   1   0     8  17   0    16   1   0     0   4   8     0   0   0     0   0   0     0   0   0     0   0   0     0   0   0     0   0   0     0   0   0     0   4   0     2   0   0     0   0   1     0   0   1     0   0   0     0   0   0     0   0   0     1   0   0     1   0   0     1   0   5     1   0   5     2   0  14     0   4   0     0   4   0     0   6   0     0   2   0    20   0   0     0   4   0     0   4   4     0   0   8     0   0   0     0   0   0     0   0  16     4   0   0     0   0   0     1   0  16     0   0   0     3   1  12     0   0   0     0   4   0     0   0   1     0   0   0     0   0   0     0   0   2     0   0   0     0   0   2     0   0   7     0   0   4     0   0   0     0   0   4     0   0   4     2   0   0     0   0  16     0   8   0     0   0   0    16  16   0     0   0   0     0   0  16     0   0  16     0   2   0     0   2   0     0   2   0     4   0  16     0   0   0     0   0   0     0   2   0     0   0   0     0   0   0     0   2   0     0   0   0     1   0   1     1   0   1     1   4   1     0   0   0     0   0   1     1   0   0
  5   0  16     0   0   0     0   0   0     0   4   0     0   0   0     0   0   0     0   8   0     8   0   4     0   0   0     8   0   0     0   0   0     8   0   1     0   8   0     0   0   0     0   0   0     0   0   0     0   8   0     0   8   1     0   0   1     0   0   0     6   0   0     5   1   0     4   0   4     0   0   4     4   0   0     0   0   0     4   0   0     2   0   0     3   1   0     8   0   0     0   0   0     0   0   0     0   0   0     0   0   0     0   0   0    16   0   2     0   0   0     8  16   0     0  16   0     0   0   0     0   0   0     0   0   4     0   2   4     0   0   0     0   0   0     0   0   0     0   4   0     0   0   0     0   0   0     0   0   0     0   0   0     0   0   0     2   0   0     0   0   0     0   0   0     0   0   0     0   0   1     0   0   1     0   2   0     0   0   0     0   0   0     0   0  12     0   0  12     0   0   4     0   0   8    18   0   0    16  16   0    16   5   0    16  17   0     0   0   0     2   0   0     0   0   0     0   0   0     1   0   8     0   0   0     1   0   0     1   8   0    17   1   0    16   8   0    56   8   6    32  24   0    24   8   4    48   0   4     0   0   0     0   0   0     0   0   0     0   4   0     0   0   0     0   0   0     0   0   0     0   0   0    16   0   0     0   0   0     8   0   0     8   0   0     2   0   0     2   0   0     0   8   0     0   0   0     0   0   0     0   0   0     8   0   4     0   0   0     9  16   4     0   0   6     0   0   4     0   0   0    16   0   0     2   8   0     2   0   0     0   0   0     0   0   0     8   0   0     8   1   0    24   0   0     8   0   0     0   0   0     4   1   0     0   0   6    16  16   4    16  16   2    16  20  10    18  20   8    12  16   8     8   0   8    16   1   0     0   4   0     0   4   0    16   0   1    16   0   0    16  16   0    16   0   0     0   0   0     4   0   0     2   0   0    18   0   0     0   0   0    16  16   0     0   0   0    16  16   0    16   0   0    16   0   0     1   0   0     0   0  12     2   0  10     2   0  10     0   0   0     0   0   0     0   0   0     0   2   0     0   6   0     4   4   0     0   2   0     1   0  13     0   0   0     2   2   2     0   0   0     4   0  16     0   0  16     0   1   0     0   0   0     0   0  12     0   0   0     0   0   0     0   0   0     0   0   0     0   0   2     0   0   2     0   0   2     0   0   1     0   0  12     0   0   0     2   0  16     3   1   0     3   1   0     3   0   0     2   0   0     0   0   0     0   0   0     0   0   8     0   0   0     0   0   0     0   0   0     0   0   0     0   2   0     0   0   0     5   2   1     0   2   0     0   4   0     1   4   1     0   0   4     0   0   0     0   0   0     0   0  16     4   0   0     0   2   0     0   0   0     0   0   0     1   0   0     5   0  16
  1   0  16     0   0   0     0   0   0     0   4   0     1   1   0     0   0   0     0   0   0     0   0   0     0   8   0     8   8   0     8   0   0     0   0   0     8   0   0     8   8   1     0   8   0     0   0   0     0   0   0     0   0   0     0   0   1     8  16   4     1   1   0     1   9   4     5   1   4     4   0   0     0   0   0     4   0   0     4   0   0     0   0   0     0   0   4     0   0   0     0   0   0     0   0   1     0   8   0     0   8   0     0   2   4    16   0   4    16   0   0     4   8   0     4   8   0     0   0   0     0   0   0     0   0   4     0   0   4     0   0   0     0   4   0     4   4   0     0   0   0     0   0   0     0   0   0     0   0   0     0   0   0     0   0   0     2   0   0     0   4   0     2   4   0     0   0   0     0   0   1     0   0   1     0   0   0     0   0   0     0   0   0     0   0   0     0   0   0     0   0   0     0   0   0     0   0   0     2   0   0     0   0   0     0   0   0    16  16   0     0   2   0     0   0   0     0   0   0     0   8   0     0   0   8     0   1   0     0   0   0     0   1   1    16  16   0     8   0   0     0   0   0    56  32   0    25   0   4    40   1   1    32  16   0     0  16   0     0   0   0     0   0   0     0   0   8     2   0  10     4   0   2    16   0   0     8   0   0     8  16   0    12   0   0     8  32  33     2   0   0     0   8   0     0   0   0     0   0   8     0   1   0     0   0   0     9  64   2    73   0   1    72   2   2     0   0   0     2  40   2     2   8   0     0   0   2     0  32   0    66   0   0     8   0  16     0   1  16     0  41   0    16   0   0     4   0   0     4   0   0     4   2   0     0   1   6    16  16   6     0   1   0     2   4  10     0   1   0    22   0   8     6   1   0    20   1   0     0   1   1     0   0   0     0   0   0     4   0   0    16   0   0     0   0   0     0   0   0     0   4   0     0   0   0     0   0   0    18   0   0    17   0   0     0   0   0     0   0   0     0   0   0     0   0   0    16   0   0     0   0  10     0   0  12     2   0  10     0   0   0     0   1   0     0   0   0     4   0  16     4   2   0     4   0   0     0   6   0     0   6   0     0   0   0     0   0   0     0   0   0     4   2  16     4   4  16     0   1   0     2   1   0     2   0   0     0   4   0     0   4   0     2   0   0     0   0   0     0   4  12     0   0   2     0   0  13     0   2   5     0   0   4     0   8   0     0   8   0     1   1   0     1   1   0     0   1   0     0   0   2     0   0   8     0   2   8     0   0   0     0   0   0     0   0  16     0   0   0     0   0   0     0   2   0     0   0   0     0   4   0     1   4   1     1   0   5     0   4   4     0   2  12     0   0   0     0   2   0     0   6   0     4   2   0     0   4   0     0   4   0     4   2   0     0   4   0     0   0  16
  0   0  16     0   0   4     0   2   0     0   2   0     0   0   0     0   0   0     0   8   4     0   0   4     0   8   0     8   0   0     8   0   0     0   0   0     0   0   0     0   0   0     0   8   0     0   8   1     0   8   1     8   0   1     8   0   0     0  10   0     0   8   4     0   8   4     8   0   4     0   8   0     0   0   0     6   0   2     0   0   2     0   0   4     0   0   0     0   0   0     0   0   0     0   0   4     0   0   0     0   0   4    16   0   4    24   0   0    24   0   0    24   0   8     0   8   0     0   0   0     0   2   0     0   0   0     0   2   0     0   0   0     0   0   0     0   4   0     2   4   0     0   0   0     0   0   0     0   0   0     0   0   0     0   0   0     2   4   0     0   0   0     0   0   0     0   0   0     0   0   0     0   2   0     0   0   0     0   2   0     0   2   2     0   0   0     0   0   0     0   0   0     0   1   0     0   0   0    18  16   0     0   0   0     0   0   0     0   0   0     0   0   0     2   2   0     0   0   0     0   8   8    16  16   8     8   1   0    16  16   0     0   0   1     0   0   0     0   0   0     0   0   0     0  16   0    17  48  36    16  49   1     0   0  32     0  32  32     0   0   0     0   0   0     0   8   8     8   8   8     8   8   2     8   0   0     8   0   0     8   0   0    12   0   0     0   0   1     0   8   0     0   0   0     0   0   8     0   0   8     0   0   8    24   0   0    17   0   0     9   0   1    65   0   0    65   0   0    66   8  16     2   0   0     0   0   0     0   8   0     2   0   0     0  32  16     0   1  16    32   1   0    32  32   0    32  32  16     0   4   1     4   0   0     0   0   2     0  32   7     0   0   2     0  32   2     0   4   0     4  32   0     4   0   0     4   0   0     0   0   0     0   0   0     0   0   0     0   0   0     0  18   0     0   2   0     0   0   0     0  16   0     0   0   0    16  16  12    16  16   8     0  16   0     0   0   0     0   0   0    16   0   0     0   0   8     0   0   0     0   4   8     0   4   0     0   5   0     0   0   0     0   0   0     0   0   0     0   0   0     4   0  16     0   0  16     4   0   0     0   6   0     0   0   0     0   2   0     4   0   0     0   4  16     4   0  16     0   1   0     2   1   0     0   0   2     0   0   0     0   0   0     2   0   0     0   0   0     0   0   2     0   0   2     0   0   0     0   2   1     0   0   0     0   0   1     2   0   0     1   1   0     1   1   0     0   1   0     0   0   2     0   0   8     2   0  10     0   0   0     0   0   0     0   0   0     4   0   0     0   0   0     0   1   0     0   0   0     0   4   0     0   4   0     0   0   0     0   0   4     0   2   4     0   1   0     0   4   0     4   4   0     0   4   0     2   4   2     2   4   2     0   4   0     4   4   0     0   0  16
  0   0   0     0   0   4     0   8   5     0   0   0     0   0   1     0   0   1     0   0   5     0   0   4     0   8   0     8   0   0     8   0   0     0   0   2     0   0   0     0   0   0     0   8   0     0   8   0     0   0   0     8   0   0     8   0   0     0   8   0     0   8   0     0   0   0     0   0   0     0   0   0     4   0   0     0   0   0     0   0   2     8   0   2     0   0   4     0   0   0     2   0   0     0   0   1     2   0   0     0   0   4     0   0   4    28  32   0     4  32   0     4   0   2     0   0   0     1   1   2     1   1   0     0   0   0     0   0   0     0   0   0     0   0   0     0   0   0     0   0   0     0   8   0     0   8   4     0   8   0     4   4   0     0   4   0     0   4   0     1   1   0     0   0   0     0   0   0     0   0   0     0   2   0     0   0   0     0   2   2     0   0   0     0   0   2     0   0   0     0   0   0     0   0   0     0   0   0     2   0   0     0   0   0     0   1   0     0   2   0    16  18   0     8   0   0     8   0   0     0   8   8     8   0   0     8   0   0     0   0   0     0   0   0     0   0   0     8   0   0     0   0   0     0  50   0     0  16  32    16   0  32    16  17   4     0  48   1     0  32   0     0   0   0     2   8   0     0   8   0     4   0   2     2   1   0     4   1   0     4   0   0     4  16   0     0  32   1     0   8   0     0  12   0     8  12   0     0   1   8    80   1   8    80   1   0    64   0   0     1   2   1     1   0   0    66   2   0    65   8   0    34   8   0     0   8   0     0   0   0     0  32   0     0  33   0    32  33   0    32  32   4    48  32   1    32   0   0     0   0   0     0   0   3     0   1  33     0   0   2    72   1   5     8   0  23     8   0   0     8  32   0     8  32   0     8   0   0     4   0   0    12   1   0     4   1   0     8   5   0     8  16   0     8  16   0     0   0   0     0   0   0     0   0   0     0   0   8     0   0   4     4  16   0    16  16   0     0   0   0     0   0   8     0   0   8    18   0   0     0   0   0     0   0   8     0   0   0     0   1   0     0   1   0     2   0   2     0   0   0     4   0  16     0   0  16     0   2   0     0   2   0     0   0   0     0   0   8     0   0   0     4   4  16     4   6  16     2   0   0     2   1   0     0   0   0     0   0   0     2   4   2     2   4   2     0   4   2     0   0   2     0   0   0     0   0   0     0   0   5     0   0   5     0   0   1     2   0   1     0   0   0     0   0   2     0   2   2     1   0  12     0   0   8     2   0   6     0   0   0     0   0   0     0   0   0     4   4   0     0   0   0     0   0   0     0   0   0     0   0   0     0   4   0     0   4   0     0   0   0     0   0   0     0   1   0     0   2  16     4   4   0     0   4   0     2   4   2     2   4   2     0   4   0     0   0   0     0   0   0
  0   0   0     2   0   0     0   8   0     4   0   1     0   0   0     0   0   0     0   0   0     0   0   0     0   0   1     8   0   0     8   0   1     0   0   2     0   8   0     0   0   0     0   0   0     4   8   0     0   0   0     0   0   0     0   0   0     1   9   0     0   8   0     0   0   0    10   0   0     8   0   0     2   4   0     8   0   0     2   0   0     8   0   2     0   0   0     0   0   0     0   0   0     0   0   0     0   0   0     0   0   4     0   0   0     0   0   0     0   0   0     0   0   0     0   0   2     0   2   2     1   1   2     1   3   6     0   0   2     0   0   0     0   0   0     4   0   0     0   0   0     0   0   0     0   0   4     0   0   0     4   0   0     1   4   0     1   1   0     1   4   0     0   0   2     0   0   0    16   1   0    16   0   0    17   3   0     0   2   0     0   0   0     0   0   2     0   0   0     0   0   0     0   0   0    16   0   0    16   0   0    16  16   0     0  17   0     0  16   2     0  16   0     8   1   0     1   0   0     0   0   0     0   0   0     8   0  16    32   0  17     0   0   0    32  32   0     0   0   0     0  16   0     0  16   0    64  16   0    64   0   1     0   0  33     0   0   1     0   0  32     0   0   0     0   0   0     0   8   0     0   0   0     2   1   0     0   0   2     4   3   2     0   0   0     0  40   8    32   8   8    40  10   8     8   6   8     8   8   0     0   0   0    88   0   8    16   0   1    64   4   0    65  16   1    69  24   1    65   0   0     5   0   0     4   0   0     0   0   0     4   0   0     0   1   0     0   1   0     0   0   0     0   0   4     0   0   5     1   0   0     1   0   0    64   0  34    65   0   1    64   0   1    72   0   8    72   0   8    72   0   0    64   0   0     0   0   0     0   0   0     4   1   0     8   0   0     8   4   0     8   0   0     0  16   0     0   0   0     8  16   0     0   0   8     0   0   8     0   0  12     4   4   0     0   4   0     0   0   1     0   2   0     2   2   0     2   0   8     0   0   8     0   0   8     0   0   0     0   0   0     0   0   0     2   0   2     0   0   0     5   0   0     0   0   0     0   2   0     4   0   0     0   2   0     4   0   0     0   0  16     4   0  16     4   4  16     0   0   0     2   0   0     0   0   0     0   0   0     0   4   0     2   4   0     0   4   0     0   0   2     0   0   0     0   0   0     0   0   0     0   8   5     0   8   1     0   0   1     4   0   0     0   2   0     0   0   2     0   0   2     0   0   0     2   0   2     2   0   2     0   0   0     0   4   0     0   0   0     0   0   0     2   0   2     2   1   2     0   0   0     0   0  16     0   4   0     4   4   0     0   2   0     0   3   0     0   0  16     0   0   0     4   2   0     0   4   0     0   4   0     4   2   0     0   0   0     0   0  16
  0   0  16     0   0   0     0   0   0     4   0   0     0   8   0     0   0   0     8   0   0     0   0   0     2   0   0     8   0   0     0   0   1     0   0   2     0   2   0     0   2   0     3   0   0     0   8   0     0   0   0     0   0   0     3   0   4     2   0   0     0   8   0     0   0   0     0   0   0     2   0   0     9   0   0     1   1   4     0   0   0     0   1   2     0   0   0     0   0   0     1   0   0     0   0   0     0   0   0     0   0   0     0   0   0     0  32   0     0   0   0     0   0   0     0   0   2     0   0   0     1   1   0     1   0   2     0   0   2     0   0   0     0   0   0     4   0   0     0   8   0     0   8   0     0   0   0     0   0   0     0   0   0     0   4   0     0   4   0     1   0   0     0   0   0     0   0   0    16   1   0    16   1   0     0   1   0    16   0   0     0   0   0     0   0   2     0   0   0    16   0   0     0   0   0     0   0   0     0   0   0     0   0   0     0   2   0     0   0   0     0   3   0     8   0   0     0   0  16     0  32  16     0   0  16     0   0   0    32   4  17     0   4  16    32  32   0     0   0   0     0   1   0    24  16   1     0   0   0     0   0   0    64   0   1     0   0   0     0   0   1    33   0   0     0   0   0     0   0   0     2   0   4     0   4   4     4   0   4     4   0   2     0   0   0    32   0   8     0  40   8     0   4   8    24   0   0    24   8   0     0  96   0    64  96   1    64   0   0    68   0   0    68  16   0    68  16   0     4  16   0    68  36   0     4  32   0     4  32   0    36   0   0    32   0   0    32   0   0    32   0   0    34   0   0    32   0   0    32   1   0     1   0   0     1   0   0     8   0   0     0   0   0     8   0   1    66  16   8    66  16   1    64   0   0    64   0   0     0   0   0     4   0   0     0   4   0     4   4   0    10   4   0     1   0   0     9   0   0     0   1   1     0   0   0     0   0   3     4   0  10     4   0   2     0  21   0     0   0   0     0   0   0     2   0   0     2   2   0     0   0   8    16   0   8     0   0   8     0   0   0     0   0   2     0   5   0     0   0   0     0   0   0     0   0   0     0   2   0     4   1   0     0   3   0     2   0   2     0   0  16     0   0  16     4   0  16    16   0   0     0   0   0     0   0   0     0   0   0     2   4  14     0   4   0     0   4  10     0   4   0     1   1   0     0   0   0     0   0   4     0   0   5     0   0   0     0   0   0     4   0   0     0   2   0     0   0   0     0   2   1     0   0   1     1   2   0     0   0  18     0   0   0     0   0  16     0   0   0     0   2   0     0   0   0     0   2   0     0   0   0     0   0   0     0   0   0     4   0  16     2   0   0     0   0   0     0   0  16     0   0  16     0   0   0     0   2   0     0   2   0     0   2   0     0   0  16     0   0   0
  0   0  16     0   0   2     0   0   0     0   0   0     0   0   0     0   0   0     0   0   0     2   0   0     0   0   0     0  16   2     0   0   0     0   0   0     0   0   0     0   0   0     0   0   0     0   0   0     2   0   0     0   0   0     2   0   4     2   0   0     2   8   0     0   8   0     2   0   0    12   0   4    10   0   0     0   1   0     0   0   0    18   1   0     0   0   0     0   0   0     0   2   0     0   2  10     1   0   2    32   0  18     0   0   2     2  32   0    24   4   0     0   0   0     0   0   0     8   0   0     1   0   2     0   0   2     0   0   0     0   0   0     0   0   0     4   8   0     4   0   0     0   8   0    20   0  16    20   0   0     0   0   4     0   0   4     0   4   0     0   0   0     1   0   0     1   0   0    16   0   4    17   0   0    16  16   0     0   0   0     0   0   0     0   0   0     0   0   0     0   0   0     0   0   0    16   0   0    16   0   0     0  32   0     0  32   0     0   0   0     0   0   0     0   0   0     0   0   0     0  32   0     0   0   0     0   0  16    32   4  16     0   4   2     0   4   0     0   0   1     8  16   0     8   0   1     8   0   0     8   0   1     8   0   0     9   0   1     0   0   1     0   2   0    36   2  16     0   0  16     0   0  16     0   4   4     4   4   0    36   0  10     0  32   2     0  32   8     0  32   8    12   4   1    76   6  64    68  97  64     8   0  24    72  96   1     0   0  17     0   0   1     0   0   1    68   4   1     0  16   0     0  32   0     4  32   0     0   0   0     0   0   0     0   8   0     0   0   0    32   0   0    34  32   0    32   0   1    34   0   0     0   0   1     0   0   0     0   0   1     8   0   1    32  16   1     2   0   1     0  16   1     0  16   1     0   4   0     0   0   0     0   0   0     0   0   0    36   4   0     0   5  16     1   0   0     1   0   0    25   0   1     1   2   0     0   0   0     0   0   2     0   0   0     2   0   0     2   0   0     2   2   0     0   0   0    16   2   0     0   0   8     0   0   8     0   0   8     0   0  12     0   0   0     0   1   0     0   0   0     0   0   0     0   0   0     0   3   0     0   1   0     0   0   0     4   0   2     4   0   0     0   0   0     0   0   0     0   4   0     0   4   0     0   0   0     2   0   0     0   4   2     0   4   0     0   4   2     0   4   0     0   0   0     0   0   0     0   0   4     0   0   4     0   0   1     0   0  16     4   0  16     0   6  16     0   0   0     0   0   1    16   0   1     0   2   0     4   2  18     0   2   0     0   0   0     0   2   0     0   0   0     0   0   0     0   1   4     0   0   0     0   0   0     0   4   0     0   0   0     0   0   0     0   0   0     0   0   1     1   4  17     1   0   1     0   6   0     0   2   0     0   2   0     0   0   0     0   0   0
  4   0   0     2   0   0     0   0   0     0   0   0     0   0   0     0   0   0     0   0   8     2   0   8     2   0   8     0   0   0     0   0   0     0   0   0     0   0   0     0   0   0     0   0   0     2   8   4    10   0   4     0   8   0     3   0   0     0   0   0     3   8   0     2   8   0     0   8   0     0   8   0     0   0   0     0   1   0     0   0   0    16   1   0     0   1   0     3   1   0     1   0   2     1  32  10     0   0   2     0  32   2     0   0   0     2   0   0     2   0   0     0   0   0     0  16   0     8  16   0     8   0   2     8   0   0     0   0   0     0   0   4     0   0   0     0   8   0     4   8   0     4   0   0     0   0   0     0   0   0     0   0   0     1   0   0     0   0   2     0   0   0     1   1   0     1   0   0     0   0   0     0  16   0    16   0   0    16   0   0     0   0   0     0   0   0     0   0   0     0   0   0     0   0   0     1   0   0     0   0   0     0  32  16    16  32   0     0   0   0     0   0   0     0   8   0     0   8   0     2   0   0     0   0   0     0   0   0     0   0  16     0   0  32     0   4   0     0   4   0     8   0   0     8  16   0    24   0   1     0  16   0     0   0   0     1   0  33    68  64   0     1   2   1    36   0   0     2  32  16     0   0  16     0   0   0     0   0   0     0   0   0     4   2   0     0  32  16     4  34  65    12   0  65    76  10  65     4   9  64    12  33   0     4   0   2     0  64  24    64   0   0     0   0   1     0   0   2     0   0   2    32   0   0     0  32   0    32   0   0     0   0   0     0   0   1     0   0   0     0   0   0    64   0   0    36   0   0    36   0   0     0   0   1     0   0  16     0   4   0    32   8   1    40   0   0    32  16   1     0   0   0     0   0   0     0   0   0     0   0   0    32  36   0    36  32   0    16  36  16    16   0  16    16   0   0    16   0   1     1   0   1     0  32   1     0   0   0     0   0   0     0   0   0     0   0   0     2   0   0     8   0   0     8   2   0    16   2   0     0   0   0    16   0   1     0   0   0     0   0   0     0   0   2     0   4   0     0   4   0     0   2   0     0   0   0     0   2   0     0   4   0     0   0   0     0   0   2     0   0   0     0   0   0     0   0   0     1   5   0     1   1  16     0   0   0     0   4   0     0   0   1     0   4   3     0   0   0     2   0   0     0   0   0     0   0   4     0   2   4     0   2   4     0   0   0     0   0  16     4   4   0     0   4   0     4   0  17     0   0   0     0   0   0     0   0  16     4   2   0     0   2   0     0   0   0     0   2   0     0   2   4     0   0   0     0   0   0     2   0   8     2   0   0     2   0   0     0   0   1     0   0   0     0   0  16     4   0  17     1   0  17     1   0   1     1   0   1     0   0   0     0   0   0     0   0   0     4   4   0
  0   0   0     0   0   0     2   0   0     0   0   0     0   0   0     0   0   0     0   0   0     2   0   0     0   0   0     0   0   0     0   0   0     0   0   0     8  12   0     8   8   0     8   8   0     2   8   0     2   0   0     0   0   0     4   0   0     0   0   0     2   0   0     0   8   0     0   8   0     0   8   0     0   0   0     0   0   0     0   0   0    24   0   0     0   0   0     2   0   2     1   0   2     0   0   2     0   0   4     0  32   0     0   1   0     0   1   0     0   0   0     0   0   8     0   0   0     4   8   0     4   0   0     2   0   0     0   0   0     0   0   0     0   0   0     0   8   2     0   0   0     0   0   0     0   0   0     0   2   0     0   2   0     0   0   0     0   0   0     1   0   0     1   1   4     1   1   4     0   2   0     2   0   0     0   0   0     0   0   0     0   0   0     0   0   0     0   0   0     2   4   0     1   1   0     1  12   0     1   8   0     0  32   0     0   0   0     0   0   0     0   0   0     0   0   0     4   0   0     0   0   0     0  16   0     0   0   0     0   0  16    64  64  48    64  64   0     0   4   0     0   0   0     0  16   0     0  32   0     0  32   0     0  32   0     1   0   1    36   0   0     3   2   1    32   0   0    32   2   0    32   0   0     0   0   0     0   0   0    32   8   0     4   8   0     0   0  24     4  64   9    36   0   0    12   2   0     4   1   0    56   1   0     0   0   8     0   0   9     0  64   0    64   0   2     0   0  66    32   0  72     0   0   0     0  32   0     0  64   0     0  64   1     0   0   0     0   0   0     0   0   0    64   0   0    32  32   1    32   0   1     4   0  17     0   0   1     0   0   1     8   0   0     0   0   0     4   0   0     0   1   0     0  37   0     0   1   0     0   0   0     0   4   0     4   0   0    16   4   0    20   1   0     0   0   0    16  32   0    17   0   0     1  32   0     0   0   0     0   0  32     0   0   4     0   0   0     8   0   0     8   0   0     8   2   0     0   0   0    16   2   0    16   6   1     0   4   0     0   5   2     0   5   8     0   1   0     0   0   8     0   2   0     0   2   0     0   2   0     0   0   0     0   0   0     0   0   0     0   0   0     0   0   2     0   0   0     1   1   0     1   1  16     1   1  16     0   0   0     0   0   0     0   0   0     4   0   0     0   0   8     0   0   8     1   1   4     1   1   4     1   3   4     0   0   0     0   0  16     4   4  16     4   0   0     0   0  16     0   0   1     0   0   1     0   0   0     0   0   0     0   0   0     0   2   0     0   0   0     0   8   0     0   1   0     0   0   0     2   1   8     0   0   0     0   0   0     0   0   0     4   4   0     4   0   0     0   6   0     1   0   0     0   0   8     0   0   0     0   4   0     0   0   0     0   0   0     0   5   0
  0   0   0     0   0   0     0   0   0     0   0   0     0   0   0     0   0   0     0   0   0     0   0   0     0   0   0     0   0   4     0   0   0     0   0   2     0   0   0     0   0   8     8  12  12     0  12   9     1   0   0     1   4   0     0   0   0     0   0   0     2   0   0     2   8   0     0   8   0     0   0   0     0   0   2     0   0   0     0  32   0     0   0   0     0  32   0     0   0   2     1   0   2     0   0   8     0   0   0     0   0   0     0   0   0     0   1   0     0   1   0     2   1   2     0   0   0     4   0   0     4   0   0     0   0   0     0   4   0     0   4   0     0   0   0     0   0   2     0   0   0     0   0   0     0   1   0     0   2   0     0   6   0    16   4   0     0   0   0     1   0   0    17   2   0    16   2   0     0   2   0     0   0   0     0   0   0     0   0   0     0   0   0     0   0   0    32   0   0     2   0   0     2   6   2     2   0   0     0   0   0     0   0  16     0   0   0     0   0   0     4   0   0     4   0   0     4   4   0     0   0   0     0  16   0     0   0   0     0   0   0    16  64  16    64  64  16    16   8   8    16   0   0     0  32   0     0  48   0     1  16   0     0  33   1     0  33   1     0   1  33    64  32   0     0   0   0     2  34   0     0   0   0     0   0   0     0   0   0     0   0   0    64   0   0    64   0   0     0   0   0     0   0  24     0   0   8     8   1   8     0   0   0    20   0   8     4   0   0     4   0   1     0  16   2     0  16  64    64   0  64     8   8  12     0   0   8    48   0   8    16   0   0     0   0   0     0   0   0     0   0   0     0   0  16     4   4  16    36   4   0     4   4  16    16   0   0     0   0   0     0   0  16     0   0   0     4   4   0     4   4   0     5   5  16     5   5   0    17   4   0     0  37   0     0   0   0    16   0  16    16   0  16     0   0  16    16   0   0    17   0   4     0  32   0     1   0   0     0   0  48     0   0  16     0   0  16     8   0   0     0   0   0     0   4   0     0   0   0     0   6   0     0   4   3     0   6   2     0   0   2     0   1   8     0   0   8     0   2   0     0   2   0     0   0   0     0   0   0     0   2   0     0   0   0     0   0   0     0   0   0     0   0   0     0   0   0     1   3   0     1   3  16     0   4   0     0   0   0     0   4   0     4   0   2    16   0   2     0   0   0     0  16   0     0   0   4     0   2   8     0   2  12     0   0  16     1   1   0     0   0  18     0   4  18     0   0   2     0   4   2     0   4   1     0   4   1     0   4   0     0   0   0     0   0   1     0   0   0     0   8   0     0   0   0     0   0   0     2   0   8     2   0   0     0   0   0     0   4   0     4   6   0     0   4  16     0   0   0     1   0   0    17  18   9    16  16   0     0   0   0     4   0  16     4   0  16     0   0   0
  0   0   0     2   0   0     2   2   0     2   2   0     2   2   0     3   3   1     0   0   0     0   0   0     8   8   4     0   0   4     0   0   0     0   0   0     0   0   0     0   0   2     0   0   8     1   0   8     5   0   0     0   0   0     0   0   0     0   2   0     0   0   0     2   1   0     0   0   0     0   8   0     0   0   8     0   0   0     0   0   0     0   0   0     0   0   0     0   0   2     0   0   2     0   0   4     0   0   4     0   0   0     0   0   0     0   0   0     0   0   0     0   0   0     1   0   1     0   0   0     4  24   0     0   0   0     0   0   0     0   0   0     0   0   0     0   0   3     0   0   3     0   0   0     0   0   0     0   0  16     0   4   0     0   0   1     0   2   1     1   0   0     1   3   4     2   2   0     0   8   0    32   0   0     0   2   0    32   0  64    32   0  66    32   0   0    52   0   0    32   0   0     4   0   0     0   1   0     0  32   0     1  33   1     8  40   8     1   1   1     0   0   0     0   0   0     4   4   0     0   0   0     0   0   0     0   0   0    80   0  16    88   8  24     0   0  16    16  32   0     0  32   0    16   0   0     6  48   0     2  20   4     0   4   4    66   4   4     0   4   4     0  21   5     0   1   1     0   0   0    48   0   0    56   0   0     8   2   0    32   0   2    32  48   2    32   0   0     0   0   0     0   0  16     0   0   0     8   0   0    16   0  16    16   0   0    16   0   0     4   4   0     4   4   2     0   0   8    72  40   8    72  40   1    80  32  29    24  40  11     0   0   0     0   0   0    16   0   0     1   1   0     0   0   0     0   0  16     4   4   0    32   0  16    16   0  16     0   0   0     0   0   0     0   0   0     0   0   8     5   5   0     4  36   0     5  37   0     0  37   0    32  36   0     0  32   0     0   0  16    17   0  16     0   0  16     0  32   0     0  32   4     4   0   0     8   0  16     0   0  16     0   0  16     0   0   8     0   0   8     0   0   8     0   4   8     0   6   0     0   4   0     0   2   0     0   2   0     0   4   2     0   0   0     0   0   0     0   0   8     0   0   0     0   2  16     0   0   1     0   0   0     0   2   0     0   0   0     0   0   0     0   2   1     0   2   0     0   2   2     0   2   0     0   0   0     0   0   0     0   0   0     1   1   0    20   0   0     0   0   0     0   0   0     0   0  10     0   0   8     0   0  10     0   0   2     0   0   0     0   0   4     1   1   0     0   4   0     0   4   0     0   0   0     2   0   0     0   0   2     0   4  16     0   4   0     0   0   0     0   0   0     0   0   0     0   0   0    17   1   0     0   0   0     1   1  16     1   5   0     0   0   0     1   1   0     0   0   0     0   0   0     0   4   8     0   2   0     0   6   0     4   0  16     0   0  20     0   0   4
  0   0   0     0   1   0     0   0   0     1   1   1     2   2   0     0   0   0     0   0   0     0   0   0     0   0   4     2   2   0     0   0   0     0   0   0     0   0   2     0   0   2     0   0   4     0   0   0     1   0   8     0   0   0     1   0   5     0   0   5     0   0   0     0   0   0     0   1   0     0   0   0     0   0   8     0   0   8     0   0   0     0   0   0    32   0   0     0  32   0     2   0   0     0   0   0     0   0   4     0   0   0     0   0   0     0   0   0     1   0   1     1   2   1     1   4   1     2   0   2     2  24   2     0   0   0     0   0   0     0   0   0     0   0   0     3   0   3     6   0   3     2   0   2     0   0   2     0   0  16     1   0   4     1   0   1    16   0   0     1   8   0    16   1   8    16   3   0     0   8   0    16   1   0     0   2   0     0   2  16    16   0  18     0   1  16    20   0   0     6   0   0     4   0  32     2   0  32     0   0   0     0   0   0     0   0   0     0   0   0     0   0   0     0   0   0     0   0   0     0   0   0     0   0   0     0   0   0     0   0   0    64   0   0     0   0   0     0   0   0    16   0   0     0   0   0     1   0  32     0   0  32     2   0   0     2   5  13     2   4   5     2   8   8     0  32   0     4   0   0     4  34   0    42   2   0     2  36   0     8   2   0    40  50   2     0   0   0     0  35   0     0  11   0     8   9   0     0   0  28    16   1   0    16   0   0     4   4  16     4   4   0     0   0   0     0   0   0     0   0   0     8   8   4     8   8   0    72   0   8    64   0   0    64   0   0    64   0   0    64  64   0    65  65  64    65  65   0     0   0  16    32   0   0    16   0  16     0   0   0     1   1   0     0   0   0     1   1   0     1   1   0     1   1   8    20  36   0    20   5   0    32   0   0    32  32   0    32  32   0     1   0   8    16   0   0    16   0   0     0   0  20     0   0   0     0   0   0     4   0   0     0   0  16     0   0  16     0   0   0     0   0   8     0   0   0     0   4   8     0   0   0     0   0   0     0   0   0     1   0   0     1   2   0     0   0   0     0   0   0     0   0   0     0   2   0     4   4   0     4   0  16     4   0   0     0   2   0     0   2   0     0   2   1     4   0   0     5   0   0     0   0   0     0   4   0     0   0   2     0   0   2     0   0   2     4   0   2     1   1  20     0   0   0     0   0   0     0   0   2     0   0   2     0   2  10     0   0  12     0   0  12     0   0   0     0   0   0     0   0   0     0   0   0     0   0   0     0   0   0     0   4  16     0   4  16     0   0  16     0   4   0     1   1   0    16   0   0     2   0   0     2   0  16     0   0  16     0   0  16     0   0   0     0   0   0     0   2   0     1   0   0     0   2   0     0   2   0     0   0   0     0   0   0     0   0   0     0   0   0
  0   0   0     0   0   0     0   0   0     0   0   0     2   2   0     0   0   0     0   0   0     0   0   0     0   0   4     0   0   0     0   0   0     0   0   0     0   0   6     0   0   2     0   0   4     0   0   0     0   0   8     0   0   0     0   0   5     0   0   0     0   0   0     0   0   0     0   0   0     0   1   8     0   0   0     2   4   0     0   0   0     0   0   0     0  32   0     0  32   0     0   0   0     0   1   0     0   1   0     0   0   0     0   0   0     0   0   0     0   0   0     1   2   1     1   4   1     0   0   0     0   0   0     0   0   0     0   0   4     0   0   0     0   0   0     0   0   1     2   0   3     2   0   0     2   0   2     0   0  16     1   0   2     5   0   1     5   0   1    16   1   0     0   9   8    34  11   0     0   5   0     0   7   0     0   1   0     0   1  16     1   2  18     2   0  16     4   0   0     6   0   0     4   0   0    64   0   0    64  16   0     0  16   0     0   0   0     0   0   0     0   0   0    16   0  16    16   0  16     0   0   0     0   0   0     0  16   0     0  16   0     0   0   0     8   8  40     8  32   0     2   0   0     2   0   0     2  16  32     0  64  32     0   4   0     8   0   4     0   4   1     0   8   0     0   1   0     0   1   0    34   0   0    10   0   0    34  34   2    96  50   2     8   0   0     0  34   0     4  42   0     0   8   0    28  12   0     0   0   0    16   0  16     0   0   0     4   4  17     4   4   0    64  36  16    64   0   0    96   0   4     8   8   0     8   8   0    32   0   1    96  16   1     8   0   0     0  16   0     0  64   0     3  67  64     3  67   0    66   2   0    64   0   0     2   2   0     0   0  32     0   0   0     0   0   0     0   0   0     1   1   0    17   1   0     0   0   0     4  36   0     0  36   0     0   0   0    32  32   0     0   0  16     0   0   0     8  32   8     8   0   8     0   1  16     0   0  16    13   0  17     0  32  25     0   0   0     0   0  16     0   0   0     0   0   8     0   0   0     0   0   8     0   0   8     1   0   0     0   0   0     0   0   0     1   0   0     0   2   0     0   0   0     0   0   0     4   0   0     4   4   0     0   4   0     0   3   0     0   3   0     0   0   0     0   0   0     1   0   0     1   1   0     1   1   4     0   0   2     0   0   2    16   0   0     1   1  20     1   1   4     0   0  16     0   0   4     0   0   2     0   4  10     0   0   8     1   1   4     0   0   4     1   1   0     2   0   0     1   5   0     2   4   0     1   5   0     1   5   0     2   0  16     0   0  16     1   1   0     1   1   0     0   0   0     2   0   0     4   0   0     4   0  20     0   0  16     2   0  16     0   0   2     0   0   0     0   0   4     1   0   2     2   2   2     0   2   0     0   8  16     0   0  16     0   0  20     0   8   0
  0   0   0     0   0   0     0   0   0     0   0   0     0   0   0     1   1   1     0   0   0     0   0   0     4   4   0     0   0   0     2   2   0     0   0   4     0   0   0     0   0   2     0   0   8     0   0   0     0   0  12     0   0   0     0   0   0     0   0   0     0   0   0     0   0   0     0   0   0     0   0   0     0   0   0     0   0  10     0   0   0     0   0   0     0   0   0     2   0   8     2   1   0     0   1   0     0   1   0     0   1   0     0   0   0     0   0   0     1   0   1     0   0   0     1   4   1     0   4   0     1   0   1     1   0   1     0   0   0     0   0   0     0   0   0     8   0   0     0   0   0     2   0   1     2   0   0     0   0   0     1   0   2    16   0   3     0   0   0     0   8   0     0  64   0     0  41  16    64   1   0     0   5   0     0   1  32     0   0  16     1   2   0     0   2   8     0  64  12     0  36  36     0  36  40    10  20  40    12  28  12     4   4   4     0   0   0     4   4   4     0   0   0    18   2  18    16   0  16     2   2   2     0   0   0     0  16   0     0  16   0     0  16   0     0   0   0     0   0   0     0  16   0     0   0  32     0   0  32     0   0  32     0   0   4     0   1  36     8   8   7     8  16   0     8   8   2     8   1   0     2   0   0     2   0   1     0   4   1    64  36   1     0  32   0     0  32   0     8  33   0     0   8   0    20   4   2     5   5   0    37   5  16     1   1   0     4   4   0    68  36   0    64   0   0    64  36   0    32   0   0    40   0   0     0   0   2   104   0   4    36   0   1     0   0   0    64   0   0    66   0   0    64  66   0     2   2   0     2   2   4     0   0   4     0   0  36     0   0  36     0   0   0     0   0   0     1   1   0    48   0   0     0  32   0     8  40  17     0  32   0     0  32   0    36   0   4    32   0  16    32  32   0     0   0  16     0   0   0     0   0  18     0   0  16     1   0   2     1   0   0     0   0  17     1   0   1     0   0   0     0   0   0     0   0   8     0   0   8     0   0   8     0   0   0     0   0   0     1   8   0     0   0   0     0  16   0     0   0   0     0   0   0     1   0   0     0   0   0     0   0   0     0   1   0     2   0   4     0   2   0     2   0   0     1   0   0     1   0  16     1   1  16     1   1   0     0   0   2     0   0   0     0   0   0     0   0   0     0   0  16     0   0  16     0   4   0     0   4   0     0   0   4     0   0   2     0   0   0     0   0   0     1   1   0     0   0   0     2   0   0     1   1   0     2   0   0     0   0  16     2   0  16     2   0  16     0   0  16     0   0   0     0   4   0     0   0   0     0   0   0     0   0  16     0   0   0     0   0   0     0   0   0     0   0  17     0   0  17     1   0   0     0   8  16     0   0   0     0   0   0     2   0   2     2   8   2     2   8   2
  0   8   0     0   0   0     0   0   0     0   0   0     0   0   0     0   0   0     2   2   0     0   0   0     2   2   0     1   1   1     1   1   1     1   1   1     1   1   3     0   0   2     0   0   8     0   0   0    24  24   8    16   8   8     0   0   0     0   0   0     0   0   0     0   0   0     0   4   0     0   0   0     0   1   0     0   0   0     0   0   8     0   0  16     0   0   8    25  24   1     0  24   0     0  24   0     0   1   0     0   1   0     0   0   0     0   0   0     0   0   0     0   0   0     0   4   0     0   0   0     0   4   0     0   0   0     0   0   0     0   0   0     0  24   0     0  16   0     8   0   0     8   0   1     0   0   0     0   0   1     0   0   0     0   0  16     0   0   0     0  64   0     0   0   0     4  64   0    64  64   0     0   0  32    64  68  32     8  36   0     1  52   0     8  16   8    32   4   8     0  64   8     8   4  10     0  12   0     8  24   8     4   4   4     4   4   4     0   0   0     0   0   0     2   2   2    16   0  16    16   0  16     2   2   2    34  18   2     0   0   0     0   0   0     8   0   8     0  32  32     0   0   0     0   0  32     0  16   0     0   0   0     8   0  36     0   0   0    68   0   6     0  16   0     0   2   0    16   0   0     0   1   0     0   0   0     0   4   1    64  32  32     0  32  33     0  32   0    16   0   0     0   0   0     0   0   0    32   0   0    37   5  16   100   4   0    64   0   0    64   4   0    64   0   0    32   4   6    32   0   4    32   1  22    32   1   2    32   0   4     2   8   0     0   8   0     2   0   0     2   0   8     0   0   8     2   2   0     2   2   4     3   3   4     0   0   4     0   0   4     0   0   0    16   0   0     0   0   0     0   0   0    24   8   0     8  40   0     0  32   0    36   4   4    32   0   4    32   0   0    16   1   0    16   1   0    16   0   0     0   0   0    16   0  16    16   0  16     0   0  16     1   0   0     0   0   0     0   0   0     0   0   0     0   0   0     0  32   8     2  40   0     4   8   0     4   0   0     5   0   1     0   0   0     0   0   0     2   0   2     6   0   0     0   0   4     0   0   4     0   0   0     0   0   4     0   0   4     2   0   4     2   0   4     2   0   0     0   1   0     2   0  16     0   0   0     1   1   2     1   5   2     0   0  18     0   0  16     0   2  16     0   0  16     0   0   0     0   0   0     0   0   0     0   0   0     0   2   0     0   0   0     0   4   0     2   0   0     6   0   0     0   0   0     2   0   0     2   0   0     0   0   0     0   0  16     0   0   0     0   0   0     0   0   0     0   0   0     0   0   2     4   0   0     0   0   2     0   0   2     0   0   0     0   0   1     0   0   1     1   0   0     2   3   2     2   2   6     0   2   4     0   0   4     0   0   2     0   8   4
  0   0   0     0   0   0     0   0   0     0   0   0     0   0   0     0   0   8     2   2   0     2   2   0     2   2   0     0   0   0     2   2   0     1   1   1     0   0   0     0   0   8     0   0   8     0   0   8     0   0   0     0   0   0     0   0   0     0  32   0     0   0   0     0   0   0     0   4   0     0   0   0     0   0   0     0   0   8     0   0   8     0   0   8     0   0   0     0   0   0     0   1   0     0   0   0     0   1   0     0  24   0     0   0   0     0   0   0     0   0   0     0   0   0     1   4   1     0   4   0     9   4   1     1   0   1     0   4   0     0   0   0     0   0   0     0  16   0     8   8   0     0   0   0     0   2   1     0   0   0     0   0   0     0   0   0     0   0   0     0  64   0     0   0  32     0  64   0    64  96  32     0   0   0     0   0   0     0   0   0    33   0   0    33   4   0    32  34   8     0   0   8     0  32   8     8   8   8     0  32   0     0   0   0     0   0   0     0   0   0     0   0   0     0  64   0    16   0  16    17  33  17     0   0   0     2   2   2     2   2   2     0   0   0     0   0   0     0   0   0     0   0   0     0   0   0     0   0   0     0   0  32    64   0   0     0  16  32     0  18   2     0  18   0     0  10  32    24   0   0    16   8   0    32   8   0     0   0   1     0   0   1     0   0  40     0   0   8     0   0   0     0   0   0    32   0   0    36   0   0     5  33   0    20   4   0    84  32  32     0   4   0     0   0   1     0   0  23    32   0   6    32   4   6     0   0   2     0   0   2     2   8   0     0   8   0    74   0   1    64   0   0     2  34   0     0  32   0     0  32   4     0   0   0     0  32   4     0  32   4    16   0   0     1   1   0    18   2   0    18   2   0    24   8   1     0  32  17     0  32   0     0   0   0    48  32  20    32   0   0    16   1   0     0   1   0    16  33   0    16   0   0    16   0  18     0   0  16     0   0   0     0   0   0     0   0   0     0   0   0     2   0   0     2   8   0    34   8   8     2   0   4    32   0   0    16   0   0    18   0   0     0   2   0     0  16   0    16  16   0    16  16   0     0  16   0     0   0   0     0   0   0     0   1   0     0   0   0     0   0   6     0   0   6     0   0   4     0   5  20     2   1   0     3   1   0     2   0   0     0   4   2     0   0   0     0   0   0     0   0   0     4   0   0     0   4   0     0   0   0     0   0   0     0   0   0     0   0   0     0   0   0     0   0   0     0   0   0     0   0   0     0   0   0     0   0   0     0   0   0     0   0   1     0   8   1     0   0   0     0   0   0     0   0   0     0   0   0     0   0   0     0   0   2     0   4   2     0   2   2     0   0   0     0   0   0     0   0  16     0   0   0     0   2   0     0   0   0     0   2   0     0   2   0     0   0   0     0   0   0
  0   0   0     4   4   0     6   6   0     0   0   0     0   0   0     0   0   8     0   0   8     2   2   0     3   3   1     2   2   0     2   2   8     2   2   8     3   3   1     0   0   0     2   2   0     0   0   0     0   0   8     0   0   0     0   0   0     0   0   0     0   0   0     4   4   0    29  24   1     5   4   1     1   1   1    32  32  24     0   0  24     0   0  24     0   8   0     0   8   0     0   0   0     0   0   0     0   0   0     0   0   0     0   0   0     0   0   0     0   0   0     0   4   0     1   0   5     1   0   1     0   0   0     4   0   0     0   6   0     0   4   0     0   0   0     0   0   1     1   0   0     0   0   0     0   2   0    16   0   0     2   8   0     1   0   0     0  32   0     0   0   0     0  96   0     1  64   0     1   0   0    65   0   0     0   0   0     0  12   0     0  18   0     0   2   0    32   6   0     4   0   0     0   0   0     0   0   0     0   0   0     0   0   0     0   0   0    16  64  16    16   0  16     0  64   0     8   8   8     1   1   1     2   2   2     0   0   0     2   2   2     0   0  64     0   0   0     0   0   0     0   0   4     0   0   0     0   0  32     0   0   0     0   0   0     0  16  34     0   2   2     0   2   0     0  64   0    16   0   0    16   0  16     0   0  25     0   0  17     0   0   8     0   0   8     0   0   8     2   0   0     0   0   0     0   0   0     0   0   4    16   5   0    16   0   0    12  12   0     0   4   0     0   0   1     0   0   1    32   0   5     0   4   2     0   0   0     0   1   0     0   0   1     0   0   0    64  34   1     0  34   0    66   0   4     0   0   0     0   0   0     9   9   4    33   1   0    17   1   0     1   1   0    17  33   0    17  33   0    20  36   0    24  40   0     0   0   0    16   0   2    16  32  18     0  32   2     0   0   0     0   1   0     0   0   0     0   0   0    32   0   0    16  32  18    48   0  16     0  32   0     0  32   0     0   0   0     0  16   0     0   0   0     0   0  24    32   0   0    32   0  20     8   0   0    42   0   0    32   0  32    18   0   0     0   0   0    16   0   0    16   4   0     0  16   0     2   0   0     0   0   0     0   0   0     1   0   0     0   0   0     0   0   0     0   1   4     0   0   0     0   1   4     0   1   0     0   0   0     0   0   2     0   0   2     0   0   0     0   0   0     4   0   0     4   4   0     0   0   0     0   0   0     0   0   0     0   0   0     0   0   0     0   0   0     4   2   0     0   0   0     0   0   0     0   0   0     0   0   0     0   0   0     4   8   1     4   0  16     0   0  17     0   0  16     4   0   1     4   0   0     4   2   2     0   0   2     0   4   0     0   4   0     0   0   0     4   0   0     0   2   0     0   3   0     0   2   0     0   2   0     0   2   0     0   0   0     0   0   0
  8   8   0     4   4   0     4   4   0     4   4   0     0   0   0     0   0   8     0   0   8     0   0   0     0   0   0     2   2   0     2   2   8     3   3   9     1   1   1     0   0   0     0   0   0     2   2   0     2   2   0     0   0   0     0   0   0     0   0   0     0   0  32     0   0   0     4   4   0     0   0   0     0   0   0    32  32   0     0   0   0     0   0   0    24  24   0     0   0   0     0   0   0     0   0   0     0   0   0     0   0   0     8   0   0     0   0   0     0   0   4     0   0   0     1   0   5     0   0   0     0   8   0     5   0   1     6  24  10     0   0   0     0   0   0     1   0   1     9   0   0     8   0   0     1   0   0     0  16   0     0   0   0     0   0   0     0  32   2     0   4   2    16  32   0    16  32   0     0   0   0     0   0   0     0   0   0     0   0   0     0   0  32     0   6   0     0   3   0     0   0   0     0   0   0     0   0   0     0   0   0     0   0   0    17   1  17     0  64   0     0   0   0     0  64   0     8   8   8     1   1   1     0  16   0    64   0   0    32   0   0     0  64   0     0   0   2     1   0   0     0   0   0     0   0   4     0   0   0     0   0   0     0   0   0     4   0   2     0   0  18     0   0  16     0  64  16     0   0  16     0   0  16    32   0  16    32   0  29     0   0   8     3   0  12     2   0   0     2   2   0    32   2   0    34  64   0    48   0  16     0  32  20    20   4   0     4   4   2     4   0   4     0   4   4     0   0   0     0   4  16     0   0   8     0   0   4    16   0   0     0   0   0     0  32   0     0  32   0    67   0  32    64   0   0     0   0   0     0   0   0     0   0   0    17  33   0    16   0   0    16   0   0     1   1   0     3   3   0     3   3   0    16  32   0    16   0   0    24  32  16     0  32   0    16   0  16     0   0  16     4   1   0     0   0   0     0   0   0     4   0   0     0  40   0     0   8   2     0   0   0     1   0   0     0   0   0    32   0   0    32   0   4    32   2   0     0   0  16     0   0  16    16   2   0    58   2  36    56  32  32     0  34  36     0   0   4     0   2   0     0   0   0     0   0   0     0   0   0     0   0   0     0   0   0     0   0   1     0   0   0     0   0   0     0   1   0     0   1   4     0   0   4     0   0   0     0   0   0     0   2   2     2   0   1     0   0   2     2   0   0     1   1   0     4   0   0     1   1   0     0   0   0     0   0   0     0   0   0     0   0   0     0   0   0     0   0   0     0   0   0     0   0   0     1   1   0     1   1   0     0   0   0     4   0   0     4   0  16     4   0  17     4   0  16     4   2   0     4   2   0     0   2   0     0   6   0     0   6   2     0   0   0     0   0   0     0   1   0     0   0   0     0   0   0     0   0   0     0   1   0     0   1   0     0   1   0     8   0   0
  0   0   0     0   0   0     0   0   0     4   4   0     0   0   0     0   0   0     0   0   0     0   0   0     0   0   0     2   2   0     1   1   1     1   1   9     3   3   1     0   0   0     0   0   0     0   0   0     1   1   1     2   2   0     0   0   0     0   0   0     0   0   0     0   0   0    33  33  33     0   0   0     0   0   0     0   0   0     0   0   0     0   0   0    28  28   0     0   0   6     0   0   4     0   0   4     0   0   2     0   0   0     0   0   0     0   0   0     0   0   4     0   0   4     0   0   0     0   0   0     2   0   2     6   0   2     6   0  10     4   0   8     0   0   0     1   0   1     8   0   1     0   8   0     0   8   0     2   0   0     0   0   0     0  47   0     0  35   0     0   7   0    49   4   2     1   6   2     1   2   0     0  64   2     0   2   0     0  64   0     0   2  34     0   0   2    36   0   2     0   0   0     0   0   0     0   0   0     0   0  32     0   0   0     0   0   0     0   0   0    16   0  16    64   0   0     0   0  32     0  16   0     4   4   4     0  16   0     2   2   2     0  66  66     0   0   2     1   0   0     1   0   0     0   4   0     0   4   0     0   4   0     4   0  16     0   0  16     0   0  16     8   4  52     0   4   2    66   0  86     0   0  22     0   0   4     0   0   4     2   0   0    19   0   0     2   0   8     0   0   8     0   2   0    34  32   4    40  32   4    16  40   8     4   6   4     8   0   8     0   4   5     0   4   4     0   2   4     0   4   0     0   0   0     0   0   0    16   2   0     0  32   0     0   0   0    67   0   0    66   1  32     3  16   0     0   0   0     0   0  32     0   0   0    21   5   0    16   0   0     1   1   0     9   9   0     8   8   0    40   8   0    25   9   0     8   8   0    24   8   0     0   0   0     0  32   0     0  32   0     4  32   0     0   0   0     0   0   0     0   0   0     8   8   0    36   0   0     0   0   0    32   0   1     0  16   0     0   0   4     0   0   4     0   0   0    32   2   0    48   2  16    48   0  16    48   0   0     0   0   0     0   0   0     0   0   4     0   2   4     0   0   0     0   0   0     0   0   0     0   0   0     0   0   8     6   0   0     0   0   2     0   0   0     0   8   2     0   0   2     0   2   7     0   0   6     0   0   5     0   2   0     0   0   1     4   0   0     2   0   0     0   0   0     0   0   0     0   0   0     0   0   0     0   0   0     0   0   0     0   0   0     0   0   0     0   0   0     0   0   0     0   0   2     1   1   0     0   0   0     0   0   0     4   0   0     0   4   0     4   0   0     4   0  16     0   2   1     0   2   0     0   2   0     0   0   0     0   0   2     0   1   0     0   8   0     0   0   0     0   0   0     0   1   0     0   0   0     0   4   0     0   1   0     0   0   0     0   0   0
  0   0   0     0   0   0     4   4   0     0   0   4     0   0   0     0   0   0     0   0   0     0   0   0     2   2   0    10  10   4     2   2   4     3   3   1     2   2   0     0   0   0     0   0   0     2   2   0     1   1   1     0   0   0     0   0   0     0   0   0     1   1   1    33  33  33    32  32  32    32  32  32     0   0   0     0   0   0     4   4   4     0   0   0     0   0   0     0   0   2     0   0  28    24   0   0     8   0   0     0   0   0     0   0   0     0   0   0     0   0   4     0   0   4     0   0   0     0   0   0    10   0   2     2  24   2     4   0   0     3   0   3     1   0   1     1   0   1     1   0   1     1   4   1     1  20   0     2  10   0     0   2   0    10  10   0     8   3   0    88   8   0   120   1   0    17   1   0     0   2   2    16  66   2     0  64  34    16  68   0    16   4   0    18   0  10    16   0   0     2   0  10     0   0   0     0   0   0     0   0  32     0  32  32     0   0   0     0   0   0    16   0  16     0   0   0     0   0   0     0   0   0    32  16   0     0   0   0     0   0   0     2   0  64     0   2   0     0   0   0     0   0   0     0   0   0     0   0  32     4   4   0    22   0  16    24   0  16    24   0   0     8   0   2     8   8   6     8   8  84     0   0  16     0   0  52     0   0  20     0   0  16     0   0   1    32   0   0     1   0   0     0   0   0     0  40   0    40  40   0    32   2  24     0   4   0     0   8  14     0   0   5     0   8  44     0   0   0     0   0   0     0   0   0     0   0   0     0   2   0     0   0   0     0   0   0    64   0   0     1   1  32     1  16   0     0   0   0     0   0   0    16   0   0     6   6   0     6   6   0     1  17   0     1   1   0     8   8   0     8   8   4    10  10   4    10  10   0     9  33  16     0  32   0     0   0  16     4  32   0    36  32   0     0   0   8     0  32   8    20  32   8     0  32  26     0   0   0    32   2   0     0  18   0     0   0   0     2  32   0     2   0   0     2   0   0    16   2   0     0   0  16    32   0  16    32   0  16     0  32  16     0   0   0     0   0   0     0   2   0     0   0   0     0   2   0     0   0   0     0   0   0     0   0   8     2   0   0     2   0   0     0   0   0     0   0   0     0   2   3     0   0   1     0   0   1     0   0  16     0   0   2     0   0   2     0   0   2     0   0   0     1   1   0     0   0   0     0   0   0     0   0   0     0   0   0     0   0   0     0   0   0     0   0   0     0   0   0     0   0   0     0   0   2     1   1   0     0   0   0     0   0   0     4   0   0     0   0   0     4   0   1     0   6   0     0   0   2     0   6   0     0   0   0     0   0   0     0   0   0     0   0   0     0   0   0     0   0   0     0   0   0     0   4   0     0   1   0     0   4   0     0   0   0     0   0   0     0   0   0
  0   0   0     0   2   4     6   6   4     4   4   4     4   4   0     4   4   0     0   0   0     6   6   0     2   2   0     2   2   0     8   8   0     0   0   0     3   3   1     4   4   0     4   4   0     4   4   0     0   0   0     2   2   0     0   0   0     0   0   0     0   0   0    32  32  32     0   0   0    32  32  32     1   1   1     4   4   4     4   4   4     4   4   4     0   0   0     6   6   6     4   4   2    24  24   0     8   0   0     8   0   0     8   0   4     0   0   0     0   0   4     0   0   0     1   0   5     3   0   3     0   0   0     2   0   3     2   0   2     2   0   3     1   0   1     1   0   1     4   0   1     0   4   4     2   8   0     2  40   0     2  10  10    16   8   0    24   2   0    24   0   0     9  64   0     0  64   0     1   0   2    17   0   0     1   0  34     1  64   0    65   0   2    18   0  10    64   0   8     4   0   8     0   0   0     0  32   0     0   0  32     0  64  96     0   0   0     0   0   0     0   0   0     0   0   0    96   0   0     0   0   0     0   0   0     0   0   0    32  16   0     0  18   2    32  18   2     0   0   0     8   4   0     0   0  32     4   4  32     0   0   8    26   0   0     2   0   4     2   0   0     8   0   0     0  64   0     8  72  12     0  64   0     0   0  20     0   0  16    32   0  16    34   0   1     2   0   0     0  32   1    64   0   4    64  32   0     0  32   2     2   0   2     8   0  12     0   8   0    64   0   1     0   0   0     0   1   0     0   0   0     8   0   0     0   0  16     8   0  16     0   0   2     0  18   2     0   0   0     0   1   0     0  16   0     8   8   0     0   0   0     3   3   0     0   0   0     3   3   0    32   0   0     0   0   0    32   0   0    40   8   0    12   8   0    10  10   0     2  32   0    32  32   0    32  32   0    32  32   0     0  32   0     4   0   0     0  32   0    18  32  24    18  40  16     0  48   2     0   2   0     4   2   0    36   0   0     6   0   0     2   0   0    11   0   0     4  16   0     0   0   8     0   0   0     0   0  16     0   0  16     0   0  16     0  32  16     0  32   0     0  32   0     0  32   0     0   0   2     0   0   0     0   0   0     0   2   0     2   0   0     0   0   0     0   0   0     0   0   2     0   0   0     0   2  18     0   0  16     0   0  18     0   0  18     1   0   2     0   0   0     0   0   0     0   2   0     0   0   0     0   0   0     0   0   0     0   0   0     0   0   0     0   0   0     0   0   0     0   0   0     0   0   0     1   1   0     1   1   0     0   0   0     4   0   0     0   0   0     4   0   0     0   4   2     0   6   2     0   6   2     1   1   2     1   1   0     3   1   4     0   0   0     0   0   4     0   0   0     0   0   0     0   0   0     0   0   0     0   0   0     0   1   0     0   0   0     0   0   0
  0   0   0     0   0   0     4   4   0     0   0   4     1   1   1     1   1   1     1   1   1     2   2   0    10  10   8     0   0   0     8   8   0     0   0   0     1   1   1     2   2   0     0   0   0    24  24  24     0   0   0    26  26  24     2   2   2     2   2   2     2   2   2     0   0   0    32  32  32    32  32  32     0   0   0     4   4   4     4   4   4     0   0   0     0   0   0     1   1   1     0   1   0    24  24   0     8   0   8     0   0   0     0   0   4     0   0   0     1   0   1     1   4   1     3   0   1    10   0   0     2   0   2     8   0   0     0   0   1    16   0  10     2   0   3     0   0   1     0   0   0     0   0   1     0  48   0     2  56  32     0   8  32     8   2   0     8   0   0    24   0   9     0   0   1     0  96   1    16  64   0    16  64   0     0   0  34     1  64   2    64   0   0    65   0   8     0   1   8     0   0   0     0  40   0     0  40   0     0  48   0     0  64   0    64  72   0    32   0   0    48   8  16    32   0   0    16  32  16    64  32   0     0   0   0     9   8   0    32   0   0    40  30   8     8   0   0     8   0   8     8   0   0     0   0   8     8  64   0     0   0   0     2   9   8    50   1  13    10   9   1     0   1   1     0   0   1    64  72  12     0  64  16     0  64   4     0   0   0     0  32  17     8  48   0    10  32   1     0   8   1     0   8   1     0   0   2     0   0   0     2   4   0     8   4   0     0   0   0     0   0  40     0   0  32     0   1   0     0   2   0     0   1   0     0   0   0     8  16   0     8  16  16    12  24   2     4  16   0     0  16   0     0  16   0     0   8   0     1   8   0    10  10   0     1   3   0     2   0   0     0  19   0     0   0   0    33   3   0    18   2   0    34  10   0     0   8   0    32   2   0     0  32   4     0  32   0    32   0   1    32   0   1     4   0   0     4  32   8     2   8   0     0  40   0     0   0  18     0   0   2     0   2   0     4   1   0     6   1   0     0   0   0     0   0   0    32   4   0    32   4   8     0   0   0     0  32   0     0   0   0     0  32  16     0   0   0     0   0   0     0   0   2     1   0   0     0   0   2    32   0   2     0   0   0     0   0  16     0   0   0     0   0   0     0   0   0     0   0  16     0   0  16     0   0  16     0   0   0     0   0   0     0   0  18     0   0   2     0   0   2     0   0   0     0   0   0     0   0   0     0   0   0     0   0   0     0   0   0     0   0   0     1   1   2     0   0   2     0   0   0     4   1   2     0   0   0     0   0   2     0   0   2     4   8   1     4   0   1     4   0   0     0   2   0     0   2   0     0   0   0     1   1   0     1   1   0     6   0   4     6   1   4     6   0   4     0   0   0     1   0   0     0   0   1     0   0   0     0   0   0     0   1   0     0   1   0     0   4   0
  0   1   0     0   4   0     0   0   0     0   0   0     1   1   1     0   0   0     1   1   1     0   0   0     2   2   8     0   0   0     0   0   0     0   0   0     0   0   0     2   2   0     0   0   0     0   0   0     2   2   0     2   2   0     2   2   2     0   0   0     0   0   0     0   0   0    32  32  32    32  32  32     0   0   0     0   0   0     0   0   0    24  24  24     0   0   0     1   1   1     2   0   0    24  25   8     0   0   0     0   0   4     0   0   5     0   0   1     1   0   0     0   0   0     1   0   4     2   0   1     0   0   1     2   0   0     0   0   1     0   0   1    16   0   1    18   0   0    16  16   0     0  16   4     0   0  32     0   0   0     0   8  34     0   0   0     0   4   0     8  32  25    64   0  17     0  32  16    16   0   0     1   0   0     0   0   8    65   0   8     0   0   2    64   0   0    32   1   8     0   1   8     0  48   8     0  48   0    64   0   0    64  80   0    64  72   0    64  72   0     8   9   0     2   0   0     0  32  16     2   0   0     0   0   0     0  36   4   100   4   4    12  25  12    32   0   8     8   0   0     8   0   0     0   4   0     0  12   0     4   4   8    32   8   0     2   0   1    10   8   1     0   1   0     0   1   0    64  76  13     0  64   4    64  32  20     0  64  16     8   8   0     8   8   1     0  40  33     0  32  33     0   0  32     0   2   0     0   0   0     0   0   0     0   4   4     0   4   0    64   0  32    64  33   0     0   1   8     0   1   8     0   1   0     0  17   2     0  16  18     8  24  16     8   0   5     0  16  36     0  16   0     0   0   0     0   8   0     8  24   0    10   8   0     0   1   0     0   2   0     0   1   0     0   0   0     0   1   0    36   0   0     6   0   0    32   0   0    34   2   0    34   0   0    34   0   0    33   1   0     0   0   0     4   0   0     4   1   0     0  40   0     0   0  16     0  32   0     0  33   2     0  17   0     0   0   0    34  16   0     0   0   0    32   4   0    32   4   8    32  36   8    32   0   8    32   0   0     0   0   0     0   1  16    32   1  16     0   0   0     0   0   0     0   0   0     1   0   2    32   0   2     0   0  16     0   2   0     0   0  16     4   0   0     0   0   0     0   0   0     0   0   0     0   0  16     4   0   0     0   8   0     0   0   0     0   0  16     0   0   0     0   0   0     0   0   0     0   0   0     0   0   0     1   1   0     1   1   0     1   1   0     1   1   0     4   0   2     0   0   2     4   0   0     0   0   0     0   0   0     4   8   3     0   8   0     0   8   0     0   0   0     0   0   0     0   2   0     0   0   2     1   2   0     0   1   0     0   0   0     4   0   0     4   0   0     0   0   4     0   0   0     0   0   0     0   0   0     0   0   0     0   0   0     0   1   0     0   0   0
  0   0   0     0   0   0     0   0   0     0   0   0     2   2   0     0   0   0     1   1   1     0   0   0     0   0   0     0   0   0     0   0   0     4   4   4     0   0   0     0   0   0     0   0   0     2   2   0    30  30  24     2   2   0    24  24  24     6   6   6     6   6   6     0   0   0     0   0   0    32  32  32     0   0   0     0   0   0     0   0   0     0   0   0     0   0   0     1   1   1     0   1   1     0   1   8     0   0   0     0   0   0     0   0   1     1   0   1     1   0   0     1   0   0     0   0   4     0   0   0     2   0   0     0   0   6     4   2   0     2   2  10     2   0   8    16   0   3     0   0   2     0   0  32     0   0   1     0   8   4     0   0   0     0   0   0     0   4   2     8   0   1     8  40  16    24   0  16    16   0   0    18   0   0     0   0   0     2   0   0    32   0   8     0   0   0     0   0   0     0   0   0     8   0   0    18  32   0     4  32   0     0   0   0    64   0   0    96   0   0     8  41  16    42   0   0    10  32   0     2   0   0    16   0   0    32  32   0   100   4   4     0  49   4    64  13   0     0   9   0    64   2   0     0   8   0     8  12   0     8   8   0    40   8   0     0   2   0     2   0   1     0   0   0    36  12  65     0   4   0     0   0   0     0  66  22     0  42  18     8  32  32     8  40   1     0   8  32     0  34   1     0   0   0     0   0   2    32   0   0     8   0   0    32   0   0    64   4   8    64   4   0    64   0   0     0   0   0     0   0   0     0   0   0     1   0   2     0   0   0     0  16   2     4   0   5     0  16   0     4   0   9     0   0   1     0   0   8     1  40   1    12  41   0     8  40   0     0   0   0     0   1   0     0  32   4     4   1   0     4   4   0     6   0   0     0   0   0     0   8   0     0   0   0     0   0   0     0   0   0     0   0   0     0   0   0     4   6   0     4   0   0     0  32   0     0  32   0     0  33   0     0  17   0     2  16   0     2  18   0     0   0   0    32   4   1     0   4   0    32   0   9    32   0   0    32   2   0    16  34   0     0   3   0    16  34  16     0   0   0     0   0   0     0   0   0     0   0   0     0   0   0     8   0   0     0   0  16     8   0   0     8   0   0     0   0   0    16   0   0     0   0   0     0   0   0     0   0   2     0   0   0     0   0   0     0   9  16     0   9   2     0   9   0     0   0   0     1   0   0     1   0   0     1   1   0     1   1   0     1   1   0     1   0   0     1   0   2     1   0   3     5   0   2     4   0   2     0   0   0     4   0   0     0   8   0     0   0   0     0   2   0     0   0   0     0   0   0     0   0   0     1   0   0     0   0   0     0   0   0     4   0   0     4   0   4     4   0   4     0   0   0     0   0   4     0   0   0     0   0   0     2   0   0     2   0   0     0   4   0
  2   1   0     1   1   1     0   0   0     0   0   0     0   0   0     1   1   1     0   0   0     0   0   0     0   0   0     0   0   0     4   4   4     4   4   4     0   0   0     0   0   0     0   0   0     0   0   0     0   0   0     0   0   0     0   0   0     2   2   2     2   2   2     0   0   0     0   0   0     0   0   0     0   0   0     0   0   0     0   0   0     0   0   0     0   0   0     8   8   8     0   0   1     0   0   0     0   1   0     0   0   0     0   0   1     0   0   0     0   0   0     1   0   0     0   0   4     2   0   4     6   0   4     4   1   0     2   0   0     0   2   0    34  32   0    48   0   1     8   0   1     0  16  32     8   0   1     0   0  32     0   0  33     0   0   1     0   0   0     0  32   0     2   0  64     0   8   0     1   0   0     1   0   0     0   0   0     2   0   0     2   0   0     2   0   0     0   0   0     0  17   0     9   0   0    10   0   0     4   1   4     2   1   1     4   1   1     8   1   0     4   4   1    38   0   1    10   0   1    48   0   0   112   0   0    64  32   0    64   0   4     4   5   4     4  30   0    68   6   0     0  10   0    68   0   0    12  12   0    12  40   0     8   2   0     0   0   0    32   2   1     0   0   0     0   4   1     0   1   0    64   0   0     0  10   2    72  10  16     2   0  18     8  10   0     0   0   0     0   0   1     0  16   1    32   0   2    32   0   0    32   1   0    32   0   0    64  32   0    65  32   0     0   0   0     0   0   0     0   0  40     0   0   0    16   0  16     0   0   0    40  16   2     0   0   0     0   0   0     0   0   1     0   0   0     0   0   0     8  16   0     8  25   0     8  24   0     0   0   0     2   0   0     2  64   0     2   0   0     0  16   0     0   0   0     0   8   0     0   0   0     0   0   0     0   0   0     0   0   0     0   0   0     0   4   0     0   0   0     0   4   1     0   0   0     0  32   0     1  33   0     0  17   0     0  16   0     0   0   0     0  16   0     2   0   0     0   0  10     0   0  14     0   0   8     0   0   0     0   0   0     0   0   0     0   0   0    16   0   0     1   0   0     0   0   0     0  32   2     0   0   0     8   0  18    40   0   0     0   0   0     8   0   0     0   0   0     0   0   0    16   0   4     0   0   4     0   0   0     0   0   0     0   0   0     0   8   0     0   1   0     0   8   0     0   0   0     0   0   0     0   1   0     0   3   0     4   0   0     3   1   0     2   0   0     3   0   0     0   0   0     1   0   0     0   0   1     0   0   0     0   0   0     0   0   0     0   0   0     0   0   4     0   0   4     2   2   6     2   1   2     0   0   0     0   0   0     0   0   0     0   0   0     0   8   0     4   0   4     0   0   4     0   0   0     2   0   0     0   0   0     0   0  16     2   0  16     2   0   0
  0   0   0     8   0   1     0   0   0     0   0   0     0   0   0    17  17  17     0   0   0     0   0   0     0   0   0     0   0   0     2   2   2     4   4   4     4   4   4     0   0   0    32  32  32     0   0   0    19  19  19     0   0   0     0   0   0     0   0   0     0   0   0     0   0   0     0   0   0     0   0   0     0   0   0    24  24  24     0   0   0     0   0   0     0   0   0     0   0   0     0   1   1     0   1   0     0   0   0     0   0   0     0   0   1     0   0   0     0   0   0     0   3   8     0   0   0     4   1   0     0   0   0    16   0   0    16   0   0     2   2   8    36  32   8    36  32   8    32   0  32     0   0   0     0   8   0     1   0   1     0   0   0     1   0   0    66   0   0    64   0  64     2   0  68    40   0  68    40   0   4    64   0   0     0   0   0     2   0   0    10   0   0     6  16   1     0   0   0     8   0   0     8   0   0     8   0   4     4   1   0     4   3   5    12   3   1    68   4   1     4  69   1     0   1   1    32  64   1     0   4   0    65   0   0    97   0   0    32   0   4   100   0   4     0  14   0     2   6   0     0   2   0     0  68   0     0   0   0     0  32   0     0  16  32     0   0   0     0   2  64    32   0   0     0  23   0    32  17   0    32   1   0     8   8  16     0  10   2     2   8   2    16   0  16     0   0   0     0   0   1    64   4   1    96  16   1     0   0   1    96   0   1    64   0   0    32  32   0    33   0   0     0   8   0     2   0   0     0   0  32     0   0   0     0   0   0     0  32   1     0   0   5     0   0   0     0  16   0     0   0   0     0  16   0     8   0   0     0   0   0     8   8   8     8   8   0     0   0   0     0   0   0     0  64   0     0   0  64     0  64   0     0   0  64     0   0   0     0   8   0     0   8   0     0   2   0     0   0   0     0   0   0     0   0   0     0   0   0     0   4   1     0   0   0     0   0   0     0  32   0     3  17   0     0  16   0     0   2   0     4   4   0     0   4   0     0   4   6    16   0  12     0   0  22     0  32   4    16   0   0    16  32   0     0  32   0     0   0  16     1   8   1     0   0   3     8   0   2     0  32   2     8   0   2     8   0   0     8   0   0     0   0   0     0   0   0     0   0   0     0   0   4     0   0   5     0   0   0     0   0   0     0   0   0     0   1   1     0   0   0     0   0   3     0   0   0     1   0   0     0   1   0     0   1   0     4   0   0     5   1   0     0   0   0     0   0   0     0   0   0     1   0   1     0   0   0     0   0   0     0   1   0     0   0   0     0   0   0     0   0   0     2   0   6    10   0   6     2   0   6     0   0   0     0   1   0     0   0   0     4   0   0     4   0   0     0   0   0     0   0   0     2   0   0     0   0   0     0   0   0     0   0   0     0   0   0     0   0   1
  2   0   0     2   0   0     0   0   0     0   0   0     0   0   0     0   0   0     1   1   1     0   0   0     0   0   0     1   1   1     4   4   4     0   0   0     0   0   0     0   0   0     0   0   0     0   0   0     1   1   1     1   1   1     2   2   2     0   0   0     0   0   0     0   0   0     0   0   0     0   0   0     2   2   2     0   0   0     0   0   0     0   0   0     0   0   0     0   0   2     8   8   0     8   8   4     0   0   4     0   0   0     0   0   0     0   1   0     0   3   0     0   3   8     1   0   0     0   0   0     2   0   0     0   1   0     0  18   4    34   0   8    34  48   0    38   0   9    32   0   0     0   0  33     0   0   0     0   4  32     0   0   0    64   0   1     0   4   0    96   0  64     0   0   4    32   0  68     0   0   4     0   0   0     0   0   0     6   0   0     6   0   0     4   1   0     8   1   0     0   0   0     8   0   0     8  17   0     0   0   4     0   1   0     4   0   8    10   1   1    40  64   8     0   6   0     0  68   1     1   0   1    64   0   0     0  64   0     1   0   0     0   2   0     0  20   0     4   0  64     0  18   0     0   0   1     0   0   1     0   0   0     0   0   0     0   0   0    32   0   0    34   0   0    33   2  64     1   0   0     0   1   0     0   1   0     8   0  16    32   6   2    16   0   0     0   4  80     0   4   1     0   0   0     0  17   1     0  16   0    64  16  65    64  16  65    96  16  64    34   0  64     2   0   0     0   0   4     0   0   0     0   0  32     0  32   1     4  32   1    40  68   1     0   1   1     0  16   0     0  17   0     0  16   0     8  16   0     8   8   8     8   8   8     0   0   0     0   0   0     0   0   0     0  64   0     0  64   4     0  72  32     0   8  32     0  10   0     0  16   0     1   0   0     0   0   0     0   0   0     0   0   0     0   0   0     0   0   0     0   0   0     0   0   0     0   0  32     1   1   0     0   0   0     0   2   0     2  18   0     6   6   0    22  36   4     0   4   0     0  32  20     0   0  20     8   0   0     0   0   4     0   0   0     0   0   0     0   0  16     8   0   2    32   0   0    32   0   0     0   0   0     0   0   0     8   0   0     8   0   0     0   0   0     0   1   0     0   0   0     0   0   0     0   0   0     0   4   0     0   0   0     0   4   1     0   4   0     0   0   0     0   1  16     0   0   0     0   0   0     1   0   0     4   1   0     0   0   0     1   0   0     4   0   0     0   0   0     0   0   0     0   0   0     0   0   0     0   0   0     0   0   0     8   0   4     1   0   1     1   0   1     1   0   1     1   0   1     2   0   6     0   0   0     0   0   0     0   5   0     4   1   0     4   1   0     0   0   0     0   0   4     2   0   0     0   0   0     2   0  16     0   0   0     0   0   2     0   0   3
  0   0   8     0   0   0     0   0   0     0   0   0     0   0   0     0   0   0     0   0   0     0   0   0     0   0   0     0   0   0     2   2   2    26  26  26    30  30  30     0   0   0     0   0   0     1   1   1    16  16  16     2   2   2     2   2   2     0   0   0     0   0   0     0   0   0     0   0   0     0   0   0     0   0   0     6   6   6     2   2   2     0   0   0     0   0   0     0   0   2     8   8   0     9  10   4     0   0   0     0   0   0     0   2   0     0   2   0     0   1   0     0   3   0     0   0   0     0   0   0     0   0   0     0   2   0     2  18   0    32  18   0     0  16   0    32   0  16     0  64   9     0  68  25     0   0   2     0   0   0     0   4   0     0   4   8    64   0  64     0   0  64    32   0   4     0   0  16    48   0  20     0   0   0     0   0   0     0   0   0    34  16   0     2  16   0     8   0   0     0   1   0     0   1   0     0   1   0     0   5   4     0   5   6     0   1  10    42   0   0     0   8   0    32  64   1     0  64   1     0  64   0     1   0   2    33   0   0     0   0   0     4   2   0     4   0   0     0   0   0     0  16   0     0   0   0     1   0  65    64   0   4     1   4  68     0   0   0    34   0  64    34   2  64     2   0   0     0  16   0     0   0   4     0   0   1    16   2   2    48   4  16    48   4  16    32   4   0    32   0   4     0  69   1     0   1   4     0   0  64     0  16   0    32  16   0    64   0   0    98   0   0     0   0  64     0   4   4     0   4   4     4   0   4     2  16   1     2  32   1     0  40   8     0   0   0     0   0   1     0   0   0     0  16   0     0   0   0     0  16   0     0   8   8     0   8   9     0   0   0     0   0   4     0  64   0     0  64   0     0   0   0     0   0   0    64   4   0     4  16   0     4  16   0     0   0   0     0   1   0     1   1   0     0   1   0     0   1   0     0   0   0    48   0   1     0  32   0     0  32   0     2   0   0     0   2   0     2   0   0     6   0   4    16  34  12     0   0   4     0  32   0     8   0   0    16   0   0    16   0   0     0   0   0     0   0   0     0   0  16    16   0   0     0   0   2     0   0   0     0   0   2     8  16  32     8   0   0     0   0   0     0   0   0     0   0   0     0   4   0     0   0   0     0   0   1     0   2   0     0   2   1     0   0   1     0   4   0     0   4   0     0   0   1     0   0   0     0   1   0     0   0   0     0   0   0     5   0   0     4   1   0     0   0   0     0   0   0     0   0   0     0   0   0     0   2   0     0   1   0     0   0   0     0   0   0     0   0   0     0   0   0     0   0   0     0   0   0     0   0   0     4   0   0     4   0   0     0   5   0     4   0   0     4   0   0     0   0   0     0   0   0     0   0  16     0   0   0     0   0  16     0   0   0     2   0   0     2   0   0
  0   0   0     0   0   0     0   0   0     0   0   0     0   0   0     0   0   0     0   0   0     0   0   0     1   1   1     0   0   0     0   0   0     3   3   3     0   0   0    24  24  24     5   5   5     0   0   0     1   1   1     1   1   1     1   1   1     0   0   0     0   0   0     0   0   0     0   0   0     2   2   2     2   2   2     2   2   2     0   0   0     0   0   0     0   0   0     0   0   2     0   0   0     1   0   1     0   0   0     0   0   4     0   0   4     0   0   0     0   2   0     0   2   0     0   2   8     8   6   0     0   6   8     0   0  16     0   2   0     0   0   1     0   0   1     1   0   8     0   4   4     0   4   0     1   0   4     0   0   0     0   0   0     0   4  64    96   4  64    32   4  64    64   0   0    16   0  16    16   0  16     0   0   0    34   0   8    34   0  72    32  64  64    34  16   0     0   0   0     0   1   0     0   0   0     0   1   0     0   1   2    32   5   2     0   1   2    32   0   0     0   0   1     0   2   1     0  80   1     0  64  16     2   0   0     2   2   0    16   2   0    20   0   0     4   2   0    64   0  64     0   0   0    64   0   0     0   0   1    64   0   4     0   0   4    32   0   0     3   0   8     1  64   0     2   0   0     0   0   0     0   0   5     0   0   8     1   2   8    33   6   8    32   3   0    32   4   0     0  17   0    32  17   0     0  48  66     0   0   0     0   4  70    64   0  32    68   0   0    32   0   0     0   0   0     0   0   4     0   0   0     0  18   0     0   0   0     2  48   0     2   0   1     0   1   1     0  65   0     0   1   0     0   8   8     0   8   8     0   8   8     0   0   1     0   0   5     0   2   0     0   0   0     0   0   0     0   0   0     0   0   0     0   4   0    16   4   1     0  16   0     0   0   0     0   0   0     0   0   0    16   1   0     2   0   0    10   8   0     2   8   0    48   0   0     2   0   0     1  33   0     2   2   0     0   2   0     2   2   0     0   2   4    18  32  24     2   2   0     0   2   0     0   0   0    24   0   0    32   0   0     2  16   1     0   0   0     0   0   0    16   0  16     0   0   0     0   0   2    32   2   0     2   0   0     2   8   0     0   0   0     0   0   0     4   0   0     0   0   0     0   0   0     0   0   1     0   2   1     0   0   0     0   0   1     0   0   1     0   0   0     0   4   1     0   0   0     0   0   0     0   0   1     0   0   1     0   0   0     4   1   0     0   5   0     0   4   0     0   0   0     0   0   0     0   0   0     0   0   0     0   0   0     0   0   0     0   0   0     0   0   0     0   0   0     0   0   0     4   0   0     0   0   0     0   0   0     0   0   0     0   0   0     1   0   0     0   0   0     0   0   0     0   0   0     0   0   0     0   0   0     0   0   0     2   4   0     0   4   0
  4   4   4     4   0   0     4   4   4     0   0   0     0   0   0     0   0   0     0   0   0     0   0   0     0   0   0     0   0   0     0   0   0     0   0   0     0   0   0     0   0   0     5   5   5     5   5   5     0   0   0     0   0   0     0   0   0     4   4   4     0   0   0     0   0   0     0   0   0     0   0   0     0   0   0     2   2   2     0   0   0     0   0   0     0   0   0     8   8   0     0   0   8     0   0   0     0   0   0     0   0   0     0   0   0     0   0   0     0   0   1     0   0   0     0   2   0     0   2   0     0   6   0     0  12   0     0  12   0     0  10   0    36   0   0    33   0   1     1  36   4     0 102   0     1   0   0     1   0   0     1   0   0     0   0   0     0   2   0     0   2   0    64   2   0     0   0   0    16   0  16    32   0   0    34  16   8    34  16   8    34  16  64    66   0   0   113  64   0    97  64   0    48   0   0    52   1   0    32   1   0     0   0   0     0   0   0     0   0   0     0   8  17     0   0  16     0   0  17     0   0  16     0   0   0     0   0   0     0   0   0     4   0   0     0   0   0     0   0   0     0  16   0     0  64   0     0   4   4    64  12   8     0   8  14     2   0   0    51   0   0    34  32   4     2   0   0     2   0   0     2   0   1     0   8   9    17  12   2     0   4   0     0   1   0     0  17   0    32  16   4     2  16   0     0  20   4     0   6   6    34   4   6     0   6   4     2   4  64     0   0  68     0   0   4     0  64   0     0  64   0     0   0   0     2   0   0     0  18   0    10   0   0     0   0   0     0   0   0     0   0   0     0   0   0     0   0   0     0   4   5     0   8  45     0   2   5     0   2   0     0   0   0     2  34   0     0  32   0     0   0   8     0   4   0     0   0  33     0   0   0     0   0   0     0   0   0    64   0   0    18   0   0     0   4   0     0   0   0     2  16   0    34   0   0     2   2   0     2  34   0     0   2   0     0   0   0     4   2   0     0   0   0    16   2   0     0   2   0     0   2   0     0   2  16     0   2   0     0  16   1    64   0  33     0   0   0     0   0  32     0   0   0     0   0   0    16   0  16     0   2   0    34   2  64     0   8   0     0   0   0     0   0   0     0   0   0     0   0   0     0   0   1     0   0   1     0   0   5     0   0   4     4   0   5     0   1   4     0   1   0     0   1   0     0   0   0     0   0   1     4   0   1     4   0   0     0   0   0     0   1   0     0   1   0     0   0   0     0   0   0     0   0   0     0   0   0     0   2   0     0   0   0     0   0   0     0   0   0     0   0   0     0   0   0     0   0   0     4   0   0     0   0   0     0   8   0     0   0   0     9   2   0     1   0   0     0   0   0     0   4   0     0   0   0     0   0   0     0   0   0     2   0   0     0   0  16     1   1   0
  1   5  20     1   5   4     4   4   4     0   0   0     8   8   8     0   0   0     0   0   0     0   0   0     0   0   0     0   0   0     0   0   0     0   0   0     1   1   1     0   0   0     5   5   5     0   0   0     0   0   0     0   0   0     0   0   0     4   4   4     0   0   0     0   0   0     0   0   0     0   0   0     8   8   8     0   0   0     0   0   0     0   0   0     0   0   0     0   0   0     0   0   0     0   0   0     0   0   0     0   0   0     8   0   0     0   0   0     0   0   1     4   0   0     0   0   8     0   0   0     4   8   0     0  12   0     0  14   0     0  10   0     0   2   0    21   0   4     5  32   0     0  34   4     2   2   0     2  18   1     2   0  64     0   0   0     0   4   0     0   2   0    16   0   0     0   2   0    16  32  16     0   0   0    34   0   2    32   0   0    10  16   0     8  32   0    64  32   0    80  96  16    64  64  16    32   0  16     0   0  16    16   0  24     0   8  24     0   8   8     0   8  16     0   0   0     0   0  16     0   8   0     0  10   0     0   4   0    16   2   0    16   0   0     0   0   0     0   0   0     0  16   0     0  64   0     0   0   0     0   8  44    16   2   0    34   0   4    50   0   0     0   0   4     2   0   0     0   0   0     2   0   9     0   8   8     0   0   8     0   0   0     0  16  36     0   0   0     0   0   0     0  16   2     0  17   2     6  16   6     2   4   4     0   0  16     1   0  64     0   0  16     0   0   0     0   0   0     0   0   0     0   0   0     0   0   0     2  16   0     2   2   0     0   2   0     0   0   0     0   0   4     4   0   0     0   0   4     1   2   1     0  32  32     0   0  33     2  32   0     2  34   0     0   0   0     2  32   0     1  32  10     0  32   0     0   0   2     0   4   1     0   0   0     0   0   0    65   0   0    16   0   0    64   4   0     0   0   0     0  16   0    32   0   0     0   0   0    33   2   0     0   0   0     1   0   0     0   8   0     0   2   0    16   2   0     0   0   0    16   1  16     0   0   0     0   0  16     0   0   1     2   4   1     0   2   1     0   0   1     0   0   0     0   0   0     0   0  64    32   2   0    48   2  80    16  10   0    17   8   0     0   0   0     0   0   0     0   0   0     0   0   0     1   0   1     0   0  12     0   0   8     4   1   5     0   1   5     0   0   5     0   1  20     0   0   0     0   0   4     0   0   6     4   0   4     0   0   4     0   0   0     0   0   0     0   0   0     0   0   0     0   1   0     0   0   0     1   0   1     1   0   1     0   0   0     2   0   2     1   0   1     1   0   1     0   0   0     4   0   0     0   0   0     0   0   0     0   0   0     9   0   4     8   0   1     0   0   0     0   0   0     0   0   0     0   0   0     0   0   4     0   0   0     1   1  16     4   0   0
  5   1   0     4   0   4     8   8   8    12  12  12     0   0   0     0   0   0     0   0   0     0   0   0     0   0   0     0   0   0     0   0   0     0   0   0     0   0   0     0   0   0     0   0   0     4   4   4     0   0   0     0   0   0     0   0   0     0   0   0     0   0   0     0   0   0     0   0   0     0   0   0     0   0   0     0   0   0     0   0   0     0   0   0     0   0   0     0   0   0     0   0   8     0   0   4     0   0   0     0   0   0     0   0   0     6   8   0    12   0   9    12   0   8     8   0   8     0   0   0     0   0   0    32   0   0     0   8   0     0   2   2    64   2   2     1   0   4    32  34   0    36   0   0     4   0   0     0  10   0    32   8   0     0   0   8     0   2   0     0   2   0     0   0   0     0   2   0    32   0   0    32   0   0    32  32   0    49   0   0    40   0   0    33   8   0    32   0   0    32  32   0    16   0   0    16  64   0    16   0  16    16   0   8     0  72   8     0  72   0     0   0  16     0   0  16     0   0   0     0   8  16     0   8  80     0   8   0    24   0   0     8   0   0     8   0   0    32  16   0     0   0   0     0   0   0     0   0   0     0   0   4    16   2   0     0   0   0     0   0   0     0   4   0     0   0  36     0   8   0     0   0  40     0   0   8     0   0  40     0  16   0     0   2  32     1   0  32     0   0   0     4   0   0     4  16   0     0  16   0     0   4   0     0   5   4     0   4  16     0   0   0     0   0  12     2   0   0    32   0   8     0   0   0     0   8   8     2   0   0     0   0   0     0   0   0     0   0   0     0   0   0     4   0   0     4   0   0     4  34   0     1  32   1     2  32   0     3  32   0     2  16   0     2   0   0     2   0   0     3   0   0     2   0   0     0   0   0     0   0   0     0   0   2     0   0   0     0  32   0     0   0   0    64   4   0    64  18  32    64   2  32     2   0   0     0   2   0     0   0   0    33  24   0     1   8   0     0   0   0     0   8   0    16   8   0     0   0   0     0   0   0     0   8  17     0   0  17     0  36  16     0   0   4     0   7   0     0   0   0     0   0   0     3   0   0     0   0  68     2  10  64    32   0   0    20   0  16     0   8   0     0   0   0     0   0   0     0   0   0     0   0   0     0   0   1     0   0   0     0   0   8     4   1   0     4   1   0     0   0  16     0   1  16     0   3   0     1   2   0     1   0   4     4   0   4     0   0   4     0   0   9     0   0   0     0   0   0     0   0   0     0   0   0     0   0   0     4   0   0     0   0   0     2   0   2     3   0   3     0   0   0     2   0   2     0   0   0     0   0   0     0   0   0     0   0   0     8   0   4     8   0   0     8   0   0     0   0   1     0   0   1     0   0   0     0   0   0     0   0   4     0   0   0     2   0  16     1   1   0
 16   0   0     0   8   0     4   4   4     0   0   0     8   8   8     0   0   0     0   0   0     0   0   0     0   0   0    32  32  32     0   0   0     0   0   0     0   0   0     0   0   0     0   0   0     0   0   0     0   0   0     0   0   0     0   0   0     0   0   0     0   0   0     0   0   0     0   0   0     0   0   0     0   0   0     0   0   0     0   0   0     0   0   0     0   0   0     0   0   0     0   0   0     0   0  12     0   0   0     0   0   8     8   0   0     8   8   8     8   0   8     8  16   8     4   0   0     0   0   0     4   0   0     4   0   0     0   0   8     0   0   0     0  16   0     1   0   0    32   0   4    36   0   0     0   0   0     0   8   0     0   8   0    16   0   8     0   0   0     0   2   0     0   2   0     0   0   0    32   0   0    32   0   0     2   0   0    32  32   0     0  32   2    40   8   0     8  16   0     0   0   0     0   0   0     0   0   0    16   0   0     0   0  12     0   4   4     0  68   8     0   4   0     0   0   0     1   0   0     4   0   0     1   2   0    20   2   0    24   0   0     0   0   0     0   0  16     0   0   0     0   0   0     0   0   0     0   0   0     0   0   0     4   1  32     0   1   0    32   0   0     0   1   0     0   1   0     0   1   0     0   0   0     0   8   0     0   0   0     0   0   0    33   2  32    33   2   0    32   0   2     0   0   2     0   0   0     0   0   0     0   5   4     0   4  20     0   0  20     0   4   4     0   0   0     0   0   0     0   0   8    16   0   0    16  16   0     0   0   0     0  32   2     0   0   4     0   0  32     0   0   0     0   0   0     0   0   0     0  32   0     4   0   0     5   0   0     7  16   0    32   0   0    41   0   0    40   0   8    32   0   8     1  16   4    33   0   2    32   0   0    32   0   0     0   8   0    32   0   0    32   0   0     0   4   0    64   0  32    64   2  33    64   0  32     0   8   1     0   0   0    41   0   0    32  32   0    33   8   0     0   0   0     0   0   0     0   0   0     0   0   0     0   0   0     0   4   0     0   5   0     0   5   4     0   4   0     0   0   0    32   0   0    64   2   0    64   0   0     0   0   0     0   0  64    16   0  64     0   0   0     0   0   0     0   0   0     0   0   8     0   0   8     0   4  16    32   0   8     0   4   9     0   1   0     0   0   0     0   9  16    16   0  16     0   2   0     0   0   0     8   0   0     8   0   0     0   0   4     0   0   4     0   0   4     0   0   4     0   0   0     0   0   0     0   1   0     4   0   0     4   0  16     0   0   0     0   0   0     0   0   0     3   0   3     0   0   0     0   0   0     0   0   0     0   0   4     8   0   4     2   0   2     2   0   0     2   0   1     2   8   0     2   8   0     0   0   0     0   0   0     0   0   0     1   1   0     1   9   0
  2   0   0     1   1   0     8   8   8     8   8   8    12  12  12     0   0   0     0   0   0     0   0   0     0   0   0     0   0   0     0   0   0     0   0   0     0   0   0     0   0   0     0   0   0     0   0   0     0   0   0    33  33  33     0   0   0     0   0   0    32  32  32     0   0   0     0   0   0     0   0   0     0   0   0     0   0   0     0   0   0     8   8   8     8   8   8     0   0   0     0   0   0     0   4  12     0   4   0     0   2   0     0   0   8     8   4   0     0   0   8     8   0   8     0   0   0     0  40   0    38  32   0    16   8   1     4   0   0     0   0   0     0  16   0    32   0   0    32   0   0    32   0   0     4   0   0     0   0   0     0   8   0    16  40   8     0  42   0     0  34   0    32   0   0     0   2   0     0   0   0    32   0   0     0  16   0    16  32   0     0  32   0     8   0   0     6  16   0     6  16   0     2  24   0     0   0   0     0   0   0     0   0   4     0   0   0     0  64   0     0   0   0     0  16   0     0   0   0     5   0   0     1   0   0     0   2   0     8   0  16     0   0  16     0   0  16     0   0   0     2   0   0     4   0   0     0   0   0    12   5   0     4   1   1     0   8   0     0   0   0     8   8   0     2   0  34     4   8   4     4   0   0     4   0   0     0   8   8     0   2   0     0   2   0    32   2   0     0   0   2     0   0   0     0   2   0     0   2   4     0   2   0     0   0   4     0  32   4     0   0   4     0  32   0     6   0   0     0   0   0     4   0   2     0  68   2    18  80   4     0   0   0     0  32  32     0  32   0     0  32   4     0   0   4    64   0   4     9  32   4     1   0   8     9   1   0    17  16   0     1   0   0    40   0   8     0   0   4     0  16  12     0  16   0     1  16   0    33  16   0    33  32   0     0  42   0    32   8   0    36   1   0     8   8   0     4   6   0     0   2   2    64   0  32     8   8   0     8   8   0     0   0   0    32   0   0    32   0   0     0   0   0     0   1   0     0   0   0     0   0   0     0   0   0     0   4   1     0   0   1     2   0  20     2  36  16     2   4   0     2   0   0    10   0   4     2   0   4     0   0  96     0   0  64     0   0  96    64  64  64     0   0  32     0   0   8     0   0   8     0   4   0     0   0   0    32   0   8     0   2   8     8   2   0     0   5  17    16   1  16     0   0   1     0   0   0     0   0   0    10   1   0     0   1   0     0   1   0     0   4   1     0   0   0     1   0   1     0   8   0     0   0   0     0   0   0     0   1   0     0   1   0     0   0   0     0   0   0     0   0   0     0   0   0     0   0   0     0   0   0     0   0   4     8   0   0     0   0   0     0   0   0     2   0   2     2   0   3     2   0   0     0   8   0     0   0   2     0   8   1     0   0   0     1   1   0     1   1   0
  0   0   0     1   1   0     8   8   8     4   4   4     4   4   4    12  12  12     0   0   0     0   0   0     2   2   2     0   0   0     0   0   0     0   0   0     0   0   0     0   0   0     0   0   0     0   0   0     0   0   0    33  33  33    33  33  33     1   1   1     0   0   0     2   2   2     0   0   0     2   2   2     0   0   0     0   0   0     0   0   0     0   0   0     0   0   0     0   0   0     0   0   0     1   1   0     1   1   0     8   2   0     0   0   0     8   5   0     0   4   0     0   5   0     0   0   0     0   0   0     2   0   0     6   0   0     6  16   0    68  16   0     4  16   0     0   0   0    32   0   0     0   0   0     0   0   0     0  72   0     0   8   0     0  32   0     0   0   0     0   4   4     0   2   4     0   0   1     1   0   1    32   0   0    32   0   0     0   0   0     0  16   0     0   0   0     0  49   0     2   1   0     3   0   0     0   0   0     1   0   0     0   0   4     0   0   0     0   0   0     0   0   0    16  16   0     0  32   1     4  48   0     0   0   0     0   2   0     0  32   0     0   0  16     1   0   0     2   0  16     3   0   0    19   0   0    20   0   0    20   1   0    28   1   0     4   1   0    40   1   2     8   0   2     2   1   2     4   0   0     0   0   1     0   8   1     0   8   8     0   0  16     0   0   0     0   0   2     0   0   2     0   0   2     0   2   4     8  34   4     0   2   4     0   0   0     0   0   4     0   0   4     2   8   0     0   0   0     1   0   0    17   0   0     1   8   0    16   0   4     0  96  36     1  96   4     0   0   0     0  32  12     0   0   0     0   0   0     0  33   4     1   5   4     4   1   0     0  16   0   105   0   0     0   0   0    32   0   4     0   0   8     8   0  10     1   0   0     1   0   0     1   0   0     0   0   0     4   0   0     0   4   0    44  12   4     4   4   2     9   8   0     0   0   2    72   8  32    72   8  32     0   0   0     0  32   0     0   0   0     0   0   0     2   1   0     0   0   0     1   1   0     1   0   0     0   5   0     2   0   0     2   0   0     2   0   0     2  36   4     0   0   0     0  32   0     0   0   0     0   0  32     2   0  32     8   0  64     0  64   4     0  16   1     0   0  40     1   0   9     1   0   0     0   0   0     0   2  64    32   2   0     0   6   0     0   1   0    16   1   0     0   1   0     0   0   1     0   0   0     0   0   0     0   1   0     0   1   0     4   0   0     1   0   1     0   0   0     1   0   3     0   1   0     0   1   0     0   0   0     0   1   0     0   0   0     0   0   0     0   0   0     0   0   0     0   0   0     0   0   0     0   0   0     0   0   0     0   0   0     0   0   0     0   0   0     0   0   0     0   8   0     0   0   0     0   0   2     0   0   0     0   0   0     1   1   0     0   0   0
  1   1   0     0   0   0     0   0   0     0   0   0     4   4   4    12  12  12    12  12  12     0   0   0     2   2   2     0   0   0     4   4   4     0   0   0     0   0   0     0   0   0     0   0   0     0   0   0    32  32  32     1   1   1     0   0   0     0   0   0    24  24  24    16  16  16     0   0   0     2   2   2    10  10  10     0   0   0     0   0   0     0   0   0     0   0   0     0   0   0     0   0   0     0   1   0     1   1   0     0   3   0     0   0   8     8   1   8     2   4   8     0   0   0     0   0   0     3   8   0     0   8   0    10   1   1     2   0   0    68  16   0    68   0   0     0   0   0    32   0   2    32   0   0     0   0   0     0   8   0     0   0   0     0   0   0     0  32   0     0  32   0     0  10   1     0   8   1     5  16   1     1   0   0    32   0   0     8   0   0     0  32   0     0  48   0     6  49   0     0   1   8     0   0   0     1   0   0     0   0   0     0   0   0     0  64  16     0   0   0     0   1   0    20   0   0    16   0   0     0   0   0     0   0   0     0   2   2     0   2   0     1   0   0     2   0  16     1   0   0     0   0   2     0   2   0     0  18   0    24  16   0    16   1   0     8   0   0     0   2   0     6   0   0     0   0  10     6   0   2    10   0   2     8   8   0     0  32   8     0   0   8     0   0   0     0   1   0     0   1   2     8   0   2     8   0   4     8   0   4     0   0   4     0   8   0     0   8   0     2   0  65     1   8   0    18   8   0     1   8  32     1   0   0     8   8   4     1   0   0     9   0   0     1   2   0     0   0   0     2  64  12     2  32   0    16   1  20     0   0   4     0   0   4     0   0   2     4   0   8     0  64   0     0   0   0     8   0   0     0   0   0     8   0   0     0   0   0     1   0   0     1   0   0     0   2   0     0  36   0     4   4   0     8   8   0     4   4   2     8   8   2     0   0   0     8   8   0    72  40  32    72   8  32     0   0   0     0  16   0     0   0   0     0  17   0     0   1   0     0   1   0     0   0   0     0   0   0     0   0   0     2   0   0     0   0   0     0  32   4     0  32  16     2  32   4     0  32  20     0  16  16     0   0   0     0   0  64     0  64   0     0   0  32     0  64   0     1   0   8     1   0   1     0   0   1     0   2   3     0   2   0     0   0   0     0   0   0     0   1   0     4   1   0     0   0   0     0   0   0     0   0  16     0   1   0     0   1   0     0   0   1     0   8   0     1   8   1     1   0   0     0   0   0     0   0   0     0   1   0     0   0   0     0   0   0     0   0   0     0   0   0     0   0   0     2   0   2     8   0   4     8   0   4     0   0   0     0   1   0     0   0   0     0   0   0     0   0   0     0   8   0     0   0   2     0   0   2     0   0   0     0   0   0     0   0   0     1   1   0
  1   1   0     0   0   0     0   0   0     0   0   0     8   8   8     0   0   0     0   0   0     0   0   0     0   0   0     0   0   0     0   0   0     0   0   0     0   0   0     0   0   0     2   2   2     2   2   2     0   0   0    32  32  32     8   8   8    28  28  28     4   4   4    26  26  26     2   2   2     0   0   0     8   8   8     0   0   0     0   0   0     0   0   0     0   0   0     0   0   0     1   1   0     8   0   0     8   1   0     9   4   0     0   0   0    10   0   0    10   0   0     2   0   0     8   4   0     8   1   0     2   0   0     1   1   0    65  17   0    68  16   0    68  22  64     4   2   2     8  64   0     0   0   2     8  64  32     0   0  32     0   0   0     0   0   0     0   0   0     0   0   0     0   0   1    33  16   1     4  24   0     1   0   0     4   0   1     0   4   0     0   4   0     0  16   0     0   0   0     0   0   8     0   0   8     0   0   8     1  96   0     0  32  16     0   0   0     4   0   0     4   1   0     0   1   0     0   1  16     4   1   2     0   1   0     0   0   2     0   0   0     0   0  18     0   0  16     0   0   2     2   0  16     0   2   0     0  34   0     0   0   0    16   0   0    16   0   0     4   0   0     6   2   2     6   0  10     0   0   0     2   0   2     2  33   1     2  33   0     0   1   0     0   0   0     0   5   2     8   5   0     8   0   6     8   0   0     8   0   4     0   0   0     0   8   0     0   0   0    16   0   0     0   0   0     0   8   0     1   4  32     0   0   0     1   0   4     8   0  19     8   0   4     0   0   0     8  32   8    10  64   8     2  33   8     0  41   4    16   9  16     0   0   0     0   0   0     0   0   0    36   0   0     0   0   0     0   0   0     0   0   0     0   0  10     0   4   8     0   4   0     1   1   0     0   4  16     0   0   0     0  20   0     0   0   0     0   0   6     0   0   0     0  16   2     0   0   3     0   0   0     0  32   0     0   0   0     0  32   0     0  16   0     0   1   0     0  16   0     0   1   0     0   0   0     0   4   0     0   4   0     8   0   0     8   0   0     0  32  16     0  32  16     0  32  20     0  32  16     0   0   0     0   0   6     0   0   4     8   0  16     8   0  64     1   0   8     0   0   8     0   0  32     0   0   0     0   2  32     0   4  16     0   0   0     1   0   0     0   1   0     0   1   0     0   0   0     0   0   0     0   0   0     0   0   0     0   0   0     1   8   0     1   8   0     0   8   1     0   2   1     0   2   0     0   1   0     0   0   0     0   0   0     0   0   0     0   2   0     2   2   2     6   0   2     7   8   3     8   0   4     8   0   4     0   0   0     0   0   0     0   0   0     0   0   0     0   0   1     0   0   0     0   0   0     0   0   2     0   0   2     0   6   2     0   4   0     0   0   0
  0   0   0     0   0   0     0   0   0     0   0   0     0   0   0     4   4   4     4   4   4     4   4   4     0   0   0     0   0   0     0   0   0     0   0   0     0   0   0     0   0   0     0   0   0     2   2   0     2   2   0    32  32   2     0   0   0     0   0  24    24  24  16     8   8   0     0   0   8     0   0   0     0   0   0     4   4   0     1   1   1     8   8   8     8   8   8     0   0   0     0   0   0     0   0   0     0   0   0     0   0   0     0   0   8     6   0   8     8   0   0    24   0   0     8   5   0     2   9   0     2   8   0     1   0   0    65  16   8     0  16   8    68   0   8    68   0   0   104   0   0     8   4   0     8  64   0     0  64   0     2   0  32     0   0   0     0   0   0     0  32   0     4   0   1     4  16   0     4   0   1    13   1   1    36   1   1     0   4   0     0  32   0     0  20   0     0   0   0     0   0   0     0   0   0     0   0  16     0   0   8     0  32   0     0   0   0     0   0   0     0   0  16    20   1   0     0   1  16     4   1  16     1   1  16     0   1   0     0   0   0     0   8   0     4   0   1     0   0   2     0   0   2     8   2   0     0   0   0     0   0   0     0   4   0    16   0   0    20   2   0    22  34   0     0   0   0     0   0   0     0   0   2     8   1   0     0   4   3     0   5  24     0   1   0     8   4   0     8   0   2     8   0   0     0   0   0     0   0   4     0   2   0     0   0   0     0   4   0     0   0   0    16   0   0     0   4   0     0   4  96     0   0   0     0   0   0     8   0   4     0   0   0     8   0   0     2   0   0     2   1   0     0   1   0     0   9   0     0   8  16     0   8   0     4   0   0     6   0   0     4   0   0     0   0   0     0   0   0     0   0   0     1   0   0     1   4   0     1   5   0     0   1   0     1  36  16     1   4   0     0   0   0     0   0   0     0   0   0    32   0   2     0   0   2    32  16   0     0  16   0     0   0   0     0   0   0     2   2   0     0   0   0     0   1   0     0   0   0     0   0   0     0   0   0     0   4   0    32   4   0     0   0   0     0   0   0     0   0  16     0   0   0     0   0  16     2   0   0     0  16   2     0  48   0     0  48   0     0   0  64    64  48   0     1  64  64     4   0   8     0   0   8     0   0   8     0   0  32     0   0  48     1   0  16     0   0   0     0   1  16     8   1   0     0   8   0     0   0   0     0  16  16     0   0   0     0   0   0     8   8   0     0   8   0     0   0   0     0   0   1     0   0   0     0   0   0     0   0   0     0   0   0     0   0   0     4   0   0     7   0   3     0   0   1     0   2   0     8   0   4     0   0   4     0   0   4     0   1   0     0   0   0     0   0   0     0   0   0     0   0   0     0   0   0     0   0   2     0   0   2     0   2   2     4   0   0     0   4   0
  0   0   0     0   0   0     0   0   0     0   0   0     0   0   0     0   0   0     0   0   0     0   0   0     4   4   4     0   0   0     0   0   0     0   0   0     0   0   0     4   4   4     0   0   0     2   2   2     0   0   0     2   2   2     0   0  24     2   2  24     0   0  12     0   0   8     0   0   2     0   0   8     0   0   0     5   5   1     1   1   1     0   0   0     1   1   1     8   8   0     8   8   0     8   0   0     1   0   0     4   0   0     5   0   0     0   0   4     8   0   0    24   0   0     8   0   0     0   1  16     0   1  24     0   0  12    64  16   8     0   0   8    68   0   0    76  96  16    36   0   8     0   0   8     8   4   0    16   4   0    16   0   0     2   0   4     2   0   0     0   0   0    32   0   1     0  32   1    32   0   0     1  17   1     0   0   0     0   0   1     0   4   1     0   0   0     0   0   0    34   0   0     0   0   0     0   0   0     8  32   8     0   0   0     0   0   0     0   0   2     0   8   0     0   0   6     0   0   2     0   1   0    12   1  16     0   0   0     8   2  16    12   0   0     4   0   0     0   0   2     2   0   0     0   0   0     0   1   0     0   0   0    34   0  32     2   0  32     1   0   0     4   2   0     0   0   4     0   1   1     0   0   1     0   0   0     0  13  18     0   4   0     0   4   8     0   0   0     0   0   0     0   0   4     0   0   0     0   0   8     0   0   0     0   0   0     0   0   0     0   0   0     0   0   8     0   0   0     0   0   0     0   0   0     0   0   8     2   1  10     2   1   0     0   0   0     2   1   0     6   1   0     4   1   8     0   0   0     0   0   0     0   0   0     2   0   0     2   0   0     6   0   0     0   0   0     0   0   0     0   0   0     0   0   0     0   1   0     0   4   0     0   2  32     1  37   0     0   0  32     1   0   0     0   0   4     0   0   2     0   0   2     0  16   2    34   0   0     0   0   0    16  32   0     0   0   0     0  32   0     0   0   0     0   1   0     2   0   0     0   1   0     0   0   0     0   0   0     0   0   0     0   0   0     4   0   4     0   0  16     0   0  16     0   0   0     2   2   2     0   1   2     0  32   2    64  32   0     0  96   0     0   0  64    73  32  64    77   0  64     4  32   0     0   4   0     0   2  36     0   4  32    16   6  16    16   4  32     0   6  16     0   0   0    32   4   0     0   4   4     0   0  16     0   0  20     0  16   0     8   0   0     0   0   0     0   0   0     0   0   0     0   1   1     0   0   0     0   0  16     0   0  16     0   0   0     4   4   0     6   4   2     6   0   0     0   2   0     0   0   0     0   2   0     8   0   0     0   0   0     0   0   0     0   0   0     0   0   4     0   0   4     0   0   1     0   0   0     2   0   0     0   2   0     4   0   0     4   8   0
  0   0   0     0   0   0     0   0   0     0   0   0     0   0   0     0   0   0     0   0   0     0   0   0     0   0   0     0   0   0     0   0   0     0   0   0     4   4   4    32  32  32     0   0   0     0   0   0     0   0   2     0   0   4     0   0   0     8   8   0     0   0   8     0   0   0     0   0   4     0   0   0     0   0   0     4   4   0     4   4   8     0   0   0     8   8   0     0   0   0     0   0   0     0   2   0     1   0   8     1   2   4     1   0   4     0   2   0     0   0   0     0   8   0     8   0   0     0   1  16     0   0   0     0   0  40     0   0  36    64   0   0    68   0  32     0   4  24   104   4  32    40   4   8     0   0   0    24   4   1    16   0   0    18   4   4    18   4   4     0   0   4    32   0   0     0   0   0    33   0   1    33  32   0     0   0   0     0   4   1     0   4   1     0   0   0     0   0   0     2   0   0     2   0  16     8   0  16     8   0   9     8   0   9     0   0   0     8   0   0     0   0   0    24   0   0    16   0   0    16   0   4     4   0   0    15   0   0     4   0   0     0   0   0     4   0   0     0   0   0     0   0   0     0   0   0     0   0   0     0   0   0     0   0   0     4   0   0     7  16   0    16  16   0    16   0   0     0   0  16     0   0   0     0   0   7     0   0   1     0   0   2     0   0   8     0   0 114     0   0   0     0   8   0     0   8   0     0   0   0     0   2   0     0   6   0     0   4   0     4   0   8     4   0   0     0   0   0     0   0   0     2   0   0     0   0   8     0   0   8     4   0   0     0   0   0     0 129   0     2   1   0     0   1   0     0   0   0     0   0   0     0 128   8     2 128   0     2 128   2     2 128   2     0   0   0     0   0   1    32   0   1     0   1   0    32   5   0     0   4   4    64   3   4     0   2   0     0   0   0     5   0   0     5   0   0     0   0   0     2   0   0     2   2   0     2  10   0     0  10   0     2  32   0     0  32   0     1   0   0     3  32   8     0  32   8     1  33   8     1  17   0     1   1   0    32   1   0    32   0   0    33   0   0     0   0   0     1   0  16     0   1  16     0   0   0     0   1   0    64   1   0     0  49   2     0  32   8     0   0   0     0   0  64    64   9  64    65   1  64     4  96   0     0   4   1     0   0   5     0   0   0     0   2   0     0   6  48     0   4  40     0   6   0     8   0   0     0   0   0     0   0   0     0   2  16     0   4   0     0   4  16     0   4   0     0   0  16     0   0   0     0   1   0     4   1  17     4   0   1     0   0   0     4   0   0     0   0   0     0   4   0     0   0   0     0   2   0     0   0   0     0   0   0     0   0   0     0   0   0     8   0   0     0   0   0     0   0   1     0   0   0     4   0   1     0   0   0     0   0   0     0   0   0     4   2   0     6   0   0
  0   0   0    10   8   8     0   0   0     0   0   0     0   0   0     0   0   0     0   0   0     0   0   0    16  16  16     4   4   4    16  16  16     0   0   0     4   4   4     0   0   0     0   0   0     8   8   0     0   0   0     0   0   4     0   0   8     0   0   4     0   0   0     8   8   0     0   0   0     0   0   0     0   0   0     0   0   8     4   4   0     0   0   2     0   0  10     0   0   0     0   0   8     0   0   0     9   0   8     1   0   0     9   0   0     2   2   0     8   0   0     0   0   0     0   0   0     0   0   0     0   0   0    64   0  32     0   0  32    64   4  40    64  68   0    16   4   0    64   0   0    96   4  16    64   0   0     0   4   9    16   4   0     2   4   0    16   4   1     2   0   0    32   0   0     0   0   0     1   0   0     1   0   0     0   0   1     0   0   1     4 128   1     0   0   0     0   2   0     0   0  16     2   0   0     8   0   0     0   0   0     0   0   2     8   0   0     8   0   0     0   0   4     0   0   5     0   0   3    10   0   0     2   4   0    12   0   0     4   0   0     0   0   0     4   0   0     0  16   0     4   0   0     2   0   0    16   0   0     0   0   0     0   0   0     4   0   0     5   0   0     1   0   0     1   0   0     0   0   8     0   4   0     0   8   0     0   0   4     0   0   8     0   0  12     0   0  12     0   0   8     0   0   0     1   8   0     1   8   0     1   0   0     1   0   0     0   2   0     1   0   8     2   0   0     2   0   2     0   0   2     0   0   0     0   0   0     0   0   0     2   1   0     2   1   0     0   1   0     0   1   0     0   0   0     0   0   8     0   0   0     0   0   0     0   0   0     0   0   0     0   0   2     0 128   3     0 128   1     0   0   8     0   0   0    32   5   0     0   7   0     0   5   0     1   0   0     1   0   0     0   0   0     1   0   0     0   0   0     2  36   0     2  20   0     0  50   0     0  18   0     0   2   0     0   0   0     0  32   0     1   0   0     2   0   0     2   0   0     3   1   0     1   1   0     1   0   0     0   0   2     0   0   4    32   0  18     0   0  16     0   0   0     0   0   0     0   1   0     4   1   0     4   1   0     4  32   0     0   0   0     0   0   0     0   1  64    72  73  64     0   0  64     0  36   1     0   2   0    64   0   0     0   2   0     0   2   0     0   4   8     0  64   0     0  68   8     8   2   0     0   0   0     0   0   0     0   2   0     2   4   0     2   4   0     0   0   0     0   0   0     0   0   0     0   0   0     2   0   5    16   0   4     0   0   0     0   0   0     0   4   2     0   4   0     0   0   0     2   0   0     2   0   0     0   2   0     0   2   0     8   2   0     9   4   1     0   0   1     1   0   0     0   0   0     0   0   0     2   0   0     2   2   0     2   0   0     2   2   0
  2   2   0     8   8   8     0   0   0     0   0   0     0   0   0    32  32  32    32  32  32     0   0   0    16  16  16     0   0   0     0   0   0     0   0   0     4   4   4     0   0   0     0   0   0     0   0   0     0   0   0     0   0   0     0   0  10     0   0   0     0   0   0     0   0   0     0   0   0     0   0   0     0   0   0     0   0   0     0   0  10     0   0   8     0   0  10     0   0   0     0   0   8     0   0   0     0   0   8     0   2   0     8   2   8     0   0   0    32  16   8     8   8   8     8   0   0     0   0   0     0   0   0    80   0   8     0   0  16     0   4   0     0   4  36    64   0   8    96   0   0     0   0   0    64   4   0    32   0   8     0   0   8     2   0   0     2   0   0     1   0   4    32   0   0     1   0   0     0   0  16     1   0   0     0   0   0     4   4   0     6   0   0     0   2   0     0   0   0     0   0  16     0   0   0     2   0   0    16   0   0     8   2   2    12   1   0     4   0   0     4   0   0     4   0   5     0   0   0     0   4   0     4   4   0     4   4   0     0   4   0     0   4   0     0   1   0     2   0   0     2   1   0     0   0   0     2   1   1     0   0   0     0   0   0     0   0   0     0   0   0     1   0   0     0   0   0     1   2   0     0   0   0     0   0   4     0   0   4     0   0   0     0   0   4     4   0   0     1   0   0     0   8   0     0   0   0     1   0   0     1   2   0     0   4   0     0   6   0     0   8  10     0   8   2     0   0   0     0   0   0     2   4   0     2   4   0     4   0   0     0   0   0     4   0   0     0   0   0     8   1   0     0   0   0     0   0   0     0   0   0     0   0   0     0   0   0     2   0   0     2   0   0     0   0   0     0   0   2     0   0  10     0   0   0     0   0   0     0  10   0     0   4   0     0  14   0    16  16   0     0   0   0     0   0   0     0   4   0     0   4   0     0  20   2     0  48   0     0  18   0     0   0   0     0   0   0    16   0   0    16   0   0     0   0   0     0   2   0     0  18   0    64   0   0     0   0   0     0   0   0     0   0   4     0   0   2     0   0   0     0   0   0     0   0   0     0   0   0     0   1   0     0   1   0     4   0   8     0   8   1     0   8   0     0   8   4     0   0  68    32   8  68    32   0   0    32   0   0    96  32   0     0   0   0     4   0   9     0   4   8     0   0   8     8   0   8     8  80   0     0   0   0     0   0   0     0   2   0    18   2   2     2   2   2     8   0   0     0   0  20     0   0   0     0   0   8     0   0   8    16  16  12     0  16  12     8   0   0     0   4   0     0   0   0     0   0   2     0   0   0     3   0   0     1   0   0     1   0   0     1   0   0     1   0   0     0   2   0     0   2   0     0   0   0     0   0   2     0   0   2     0   0   0     2   2   0     0   0   0
  0   0   0     0   0   8     0   0   0     0   0   0     0   0   0     0   0   0     0   0   0     0   0   0    25  25  25    16  16  16     0   0   0     0   0   0     0   0   0     0   0   0     0   0   0     0   0   2     2   2   0     0   0   0     0   0   8     0   0   0     0   0   0     8   8   0     8   8   0     0   0   0     0   0   0     0   0   0     0   0   0     0   0   0     0   0   0     0   0   8     0   0   2     0   8   2     0  24   0     0   0   0     0  18   0     0   0   8    32  16   8    32   0   8    40   0   0     0   0   0     0   0   0    80   0   8     0   0  24     0   0   8     0   0  36    64   0  40    32   0   0    96   0   0    64   0  16     0   0   8     0   0  16     0   0   1     0   8   8    32   0   0    17  32   8     1   0   8     1   0   0     0   0   0     0   0   0     0 128   0     2   0   0     2   0   0     2   2   0     0   0   0     0   0   0    16   0   0    16   0   0     0   1   0     0   1   0     8   0   0     4   0   0     4  16   0     4   0   0     0   0   0     4   0   0     4   4   2     4   4   0     0   4   2     4   4   2     1   0   0     0   0   0     0   0   0     8   0   0     8   0   0     8   1   1     0   0   0     8   0   0     0   0   0     2   2   2     0   2   2     2   2   2     0   0   0     0   0   0     0   0   0     0   4   5    20   0   0    16   0   0     0   0   0     0   0   8     0   0   0     0   2   0     0   0   8     0   0   4     0   0   0     0   0   8     0   0   0     0   0   0     0   0   0     0   5   0     0   1   4     0   1   1     0 128   0     0   0   8     0   0   8     0   0   0     0   0   0     0   0   0     0   0   0     0   0   0     2   8   0     0   0   0     0   0   0     0   0   2     0 128  10     8 128   2     0   0   0     0   1   0     0   0   0     0   8   0    16  16   0     0   0   0     0  12   0     0   4   0     0   4   2     0  20  10     0  18   1     0   2   1     0   2   0     0   2   0    32   0   0     0   0   0     2   0   0     0  18   0     0   2   0     0  16   0     0  16   0     0   0   0    32   0   0    16   0  16     0   0   0     0   0   0     0   0   0     0   0   0     0   1   0     0   9   0     0   0   0     0  40   0     0   0   0     0   0   4     0   0   4    32   8   2    32   0   0    32   0   0     0   0   0     0   4   0     0  16   0     0  80   0     0  16   1     1   0   0    33   0   0     9   0   0    16   0   0    16   0   0     3   0   2     0   0   4     0   4   2     0   0   0     0   4   2     0   0   8     0   0  10    16   0   8    16  16   0     0   0   0     0   2   0     0   2   0     0   0   0     0   0   0     0   0   0     0   0   0     9   4   0     0   2   0     0   2   0     0   0   0     0   0   0     0   0   0     0   0   2     0   0   2     0   0   0     0   0   0     0   0   0
  0   0   0     0   0   0     0   0   0     1   1   1     1   1   1     0   0   0     0   0   0    24  24  24    16  16  16     4   4   4     0   0   0     0   0   0     0   0   0     0   0   0     0   0   0     0   0   0     4   4   0     0   0   2     0   0   8     0   0   0     0   0   0     0   0   0     8   8   0     0   0   0     0   0   0     0   0   0     0   0   2     0   0   0     4   4   0     4   4   0     0   0   2     0   8   0     0   8  22     0   2   0     0   2   8     0  16   8     0  18   8    32   0   0    32   2   0    40   0   0    32   0   0     0   0   0     0   0  16     0   0  24     0   0   1    32   0   0    32   0   8    64   0   8     0   1   0    32   2   0     0   0   0    32   0   4     0   0   0    33   0   4    65   0   4     1   0   0     4   8   0     0   8   0     0   0   0     0 128   0     2   0   0     2   0   0     0   0  16     0   2   0     0   2   0    16   0  16    20   0  16     4   0   0     4   0   0     0   0   0     0   0   0     0   0   0     0   0   0     0   0   0     4   0   0     0   4   2     4   4   2     0   0   6     0   0   4     0   4   0     0   4   0     0   0   0     8   0   0     8   0   0     0   0   0     8   0   0     0   0   0     0   0   0     3   0   0     0   0   0     2   0   0     0   0   0     0   0   0     0   4   4     0   5   1     0   4   1     0   0   9     0   0   8     0   0   8     0   0   0     0   0   0     0   0   8     0   0   0     0   8   0     0   8   8     0   0   0     0   0   2     0   1   0     1   1   1     1   4   5     1   1   1     0   0   0     4   0   8     4   1   0     0   0   0     0   0   0     0 120   0     0 120   0     0   0   0     2   0   0     1   9   0     0   0   0     0   0   2     0   0   2     0   0   0     0   0   0     2   0   0     2   9   0     0   0   0     0   0   0     0  16   0     0   0   0     0   4   0     4   5   0     0   1  10    16   0   1    16   2  34    16   2   3     0   0   0     0   0   0     0   0   0     0  10   0     0   2   0     0   2   0     0  16   0     0   0   0     0   0   0     0   0   0     0   0   0     0   0   0     0   0   0     8  16   0     8  17   0     0  16   0     0  16   0     0  20   0     0  36   0     0   4   0     0   0   0    16   0   0    16   8   0     0   0   0     8   8   0     0   0   0     2   0   0    46   8   0     4  16   0     0   0   1     1   0   0     0   0   0    16  32   0    16   0   0    16   0   0     0   0   0     0   0  64     0   0  64    64  64  72     0   0   8    32   0   0     0   0   2    16   0   0    16   1   0    16  16   0     0   2   0     0   0   2     0   0   1     2   0   0     0   0   0     0   0   0     8   4   0     0   0   0     0   0   0     0   1   2     0   1   2     0   0   0     0   0   0     0   0   2     0   0   0     0   0   2     0   0   0
  0   0   0     0   0   0     1   1   1     1   1   1     0   0   0     0   0   0     0   0   0     0   0   0     0   0   0     0   0   0     0   0   0     0   0   0     0   0   0     0   0   0    32  32  32     0   0   0     0   0   0     2   2   8     2   2   8     2   2   8     2   2   0     0   0   0     0   0   0     0   0   0     0   0   0     0   0   0     0   0   0     4   4   0     4   4   0     4   4   0     0   0   0     0   8   6     0   0   2     0   0   4     0   0   0     0  16   2     0   0   0    32   0   8     0   0   0    32   0   0     0   0   0     0  64   0     0   0  20     2   0  16     0   0  16     2   1  24     0   1  24     0   0  16     0   0   0     0   0   0     0   4   0    48   0   5    32   4   5    32   4   1    65   0   4     1   0   0     1   0   0     0   0   0     0   0   0     0   0   0     0   0   0     0   0   0     0   0   0     1   0   0     1   2  17     1   0   1     4   0   4     4   0   4     0   0   0     0   0   0     0   0   0     0   0   0     0   0   0     0   0   0     0   0   2     4   0   0     0   0   0     5   0   3     0   0   2     5   0   0     4   0   0     0   0   0     8   0   0     8   0   0    48   0   0     8   0   0     8   0   0     0   0   0     0   0   0     1   0   0     8   0   0     0   0   0     0   1   1     0   0   1     0   5   0     0   1   0     0   0   0     0   0   8     0   2   8     0   0   8     0   2   8     0   0   8     0   0   8     1   0   8     4   2   0     0   0   0     0   1   0     0   0   4     0   1   0     1   0   1     0 129   0     0   1   8     4   1   0     0   0   0     0 113   2     0   1   0     0 113   0     0   8   0     0   0   0     2   0   0     0   8   0     0   0   0     0   0   0     0   0   0     0 128   0     2   1   0     0   0   1     4   1   0     0   0   0     0   1   0     0   1   0     0   5   0     0   1   0     4   5  16     4   0   0     0   2   0     0   2   0     0   0   2     0   0   0    36   2   0    12   8   0    12  24   0     0   2   0     0   0   0     0   2   0     0   0   0     2   2   0     0   0   0     0   0   0     0   0   4     4  21   0     4  20   0     0  16   0     8  20   0     0   0   0    32   4   0     0   4   0     0   0   0     8   0  32     0   0  32    16   0   0     0   0  16     0   0   8     0   0   8    10   0   8     6   0  34     0  20   0     0   0   0     1   0   0     1   0   0     0  32   0     0   0  16     0   0  16    32   0   0     0  16   0    32  16  64    96   4  72     0   0   8     0   0   0     0   0   0     0   0   0     0   0   0     0   2   0     0   2   0     0   0   1     2   0   1     2   0   0     0   0   0     0   4   0     8   6   0     8   3   0     8   1   0     0   0   2     0   0   2     0   0   2     0   0   2     4   4   2     0   0   2     0   0   2     0   0   4
  0   0   0     0   0   0     0   0   0     1   1   1     0   0   0     0   0   0     0   0   0     0   0   0     0   0   0     0   0   0     0   0   0     0   0   0     0   0   0    32  32  32     0   0   0     0   0   0     0   0   0     0   0   0     0   0   0     0   0   0     0   0   0     0   0   0     0   0   0     0   0   0     0   0   8     0   0   0     0   0   0     4   4   0     0   0   0     0   0   0     0   1   0     0   8   8     8   8  28     0   0  12     0  16   0     0  16  10    40  16   0    49  16   8    16   0   0     2  32   0     0  48   0     0  96   3     0   0   1     0   0  17     0   8  17     0   1  11     8   1   0     0   0   0     0   2   0     0   0   0     4   6   4    16   4   4     0   1   0    64   0   4    64   4   4     4   0  48     5   0   0    13   0  16     9   0  16     8   0   1     0 128   0     0   0   0     0   0   0     0   0   0     1   2   1     3   0   1     2   0  16     0   0  16     2   0   0     4   0   0     0  16   0     0   0   0     0   0   0     0   0   0     0   2   2     0   0   0     0   0   0     0   0   0     0   0   4     4   0   0    56   0   0    60   0   0    60   8   8    48   8   8    64  24   8     0  16   0     0   0   0     0   0   0     0   0   0     0   0   0     8   0   0     0   0   0     0   0   2     0  16 128     0   4   0     0   0   0     0   5   0     0   6   0     1   0   0     1   0   0     0   0   0     0   0   0     0   2   0     0   2   8     0   0   0     0   0   0     0   1   2     0   0   4     0   0   0     0   0   0     0 129   0     0   1   0     2   0   0     0   1   0     0 115   0     0   0   2     8 112   0     0   0   0     0   0   0     0   0   0     0   0   0     0 120  32     0   8   0     0   0   0     0   0   0     0   0   4     4   0   0     0   0   0     0   0   0     0   0   0     0   0   0     0   0   0     0   0   0     0   4  16     0   0   0     0   3   0     0   0   2     0   2   0     0   2   0     4   0   0     8   0   0    12   8   0     8   0   0     0   8   0     8   8   0    32   8   0     2   2   0    34   2   0     2   2   0     0   0   0     0   0   0     0   4   0     0  20   0     0   0   0    32   0   0     0  32   0    32   0   0     0   0   0    64   8   1     0   0   1    16   8   0    64   0   0     0   0   8     8   0   8     0   4   2     8   0  32     0   0   2     0   0   0     0   0  16     1   0  16    21   0  16    16   0   0     0   0   0     0   0   0     4  32  64    66   2   0    10  64  72    32   0   8    32   0   8    32   0   0     2   0   0     0   0   0     0   0   0     0   2   2     0   0   3     0   8   1     2   0   1     0   0   0     8   0   0     8   0   0     0   0   0     0   0   0     0   4   0     1   4   2     5   4   0     4   4   2     4   4   2     0   0   2     0   0   4     0   0   0
  0   0   0     0   0   0     0   0   0     0   0   0     0   0   0     0   0   0     0   0   0     0   0   0     1   1   1     8   8   8     0   0   0     0   0   0     0   0   0    32  32  32     0   0   0     0   0   0     0   0   0     0   0   0     0   0   0     2   2   0     6   6   0     0   0   0     4   4   0     0   0   0     0   0   0     0   0   0     0   0   2     0   0   0     0   0   2     0   0   0     0   0   4     0   0   8     0   4  28     0   0  12     0   4   0     0  16   0    48  16   8    16  17   0    18   1   0     8  48   0     9  96   1     0   0   2     0   8   3     0   0  19     0   0  20     8   0  22     8   0  16     0   0   0     0   0   4     0   0   0     0   4   4     0   4   0     0   4   0    64   4   1     0   4   0     4   0   4     5   0   0     0   0   0     4   0   0     4   0   0     0   0   0     0   0   0     2   0   2     3   0   0     2   0  20     2   2   1     3   0   0     6   0   0     4   0   0     4   0   0     6  16   0     6  16   0     0   0   0     0   0   0     0   0   0     0   0   2     0   0   0     0   0   0     0   0   0     4   0   0    12   0   0    10   0   2    12   2   0     2   0   0    64   0   8    64   0   0     0   0   0     0   0   0     2   0   0     0   0   0     0   0   0     0   0   0     0   0   0     0   0   0     0   0   0     0   0   0     0   0   0     0   2   0     0   0   0     0   0   0     0   0   0     0   8   0     1   0   0     5   8   0     0   0   0     0   1   0     0   0   0     0   1   0     0   0   0     0   0   0     0   0   0     2   0   0     0   1   8     8   0   0     0   0   0     8   0   0     0   1   0     0   0   0     0   0   0     0   0   0     0   8   0    36  12  32     4   8  32     0   0   0     0   0   0     0 128   0     4   0   0     4   0   0     0   0   0     0   0   0     0   0   0     0   4   0     0   0   0     2   0   0     1   0   0     0   0   0     1   0   2     1   0   0    32   2   4     0   2   0    12   0   0     8   8   0    64  16  32     8   8   0    11   8   0     2   2   0    32   0   0     2  18   0     0   0   0     0  16   0     0   0   0     0  16   0     0   0   0     0   0   0     0  16   0    32   0   0     0   0   0    64   0   0     0   8  33     0   0   1     0   0   3     0  17  19     0  16   0    12   0   0     4   4   2    12   0   8     0   0  32     4   0  32     4   0  16     2   0  16    17   0  16     4   0   0     4   0  16     6   0  18     2  32   2    34   0   2    32   0   0    32   0   8    10  32   8    32  32   0     2   0   1     4  18   1     0   2   0     0  16   0     0   4   2     2   0   2     0   0   1     0   0   0     0   0   0     0   0   0     0   0   0     0   0   0     0   4   0     1   5   2     1   1   3     4   4   2     4   4   2     0   0   0     0   0   4     0   0   4
  1   1   1     1   1   1     1   1   1     0   0   0     0   0   0     0   0   0     0   0   0     1   1   1     1   1   1     0   0   0     0   0   0     0   0   0     0   0   0     0   0   0     0   0   0     0   0   0     0   0   0     0   0   0     0   0   0     0   0   0     6   6   0     0   0   0     0   0   8     0   0   0     0   0   0     0   0   0     0   0   0     0   0   0     0   0   2     8   8  12     0   0   0     0   0  12     0   4  16     0   0   4     0  36   0     8  33   0     8  36   0    32   1   0     0  32   1     0  16   3     1  96   2     0   0   2     0   0   1     0   0   0     0   0  20     0   0   4     0   0  20     0   0  16     1   2   0     0   0  16    84   0  16    64   0   0    12   0   0    64   4   0     0   4   0     0   0   0     1   0   0     4   0   0     4   0   2     4   0   0     4   0   2     2   0   2     2   0  16     2   8   0     1   0  16     0   0   0    19   0   0     2   4   0     0   0   0     2   4   0     6  16   0     4  16   0     2  16   2     0   2   2     0   2   0     0   0   0     0   0   0     0   0   0     0   0   0     4   0   0    12   0   0    14   1   0    12   0   0     0   8   4     0   4   0     1   0   1    64   0   8     0   0   0     2   0   0     0   0   0     4   0   0     0   0   0     4   0   0     0   0   0     0   0   0     0   0   0     0   1   0     0   0   8     5   0   2     1   0   0     0   8 128     0   8   0     1   8   0     5   0   0     0   9   0     0   0   0     0   0   0     0   0   0     0   0   0     0   0   0     0   0   0     0   0   0     0   1   0     0 112   0     4   0   8     0   0   0     0   0   0     0   0   0     3 113   0     5   9   0     4   0   0     1   5   0     0   0  32     0   8   4     1   0   0     1 128   4     0   0   0     4   0   0     0   0   0     0   2   0     0   2   0     0   2   0     0   0   8     0   0   0     0   0   0     0   0   0     8  18   0     0   0   0    32   2   0     0   2   2     8   4   6     8   0   0     8  32  32     9  40  16     9   0   8     2   0   0    32   0   0     2   2   0     0   0   0     0   0   0     0   0   0     0   0   0     0   0   0     0   0   0     0   0   0     0   0   0     0   0   0     0   0   0     0   0   0     0   0   3     0   0   0     0   3   0    64  22   2     8   0   0    12   4   0     8   0   0     0   0   0     1   0   0     0   0   0    18   0   0     0   0  16    16   0   0     1  32  16    13  32  16    98   2  66     0   2  66    66  96   0    40   2   6    42  32   0     8   2   1    16   2   1     2   2   0     0   2   0     0   0   0     0   4   0     0   4   1     0   4   1     0   0   1     0   0   1     8   0   0     0   0   1     0   0   0     0   0   0     1   4   1     4   4   0     5   5   1     0   0   0     4   4   0     0   0   0     0   0   4
  1   1   1     1   1   1     0   0   0     0   0   0     0   0   0     0   0   0     0   0   0     1   1   1     0   0   0     0   0   0     0   0   0     0   0   0     0   0   0     0   0   0     0   0   0     0   0   0     0   0   0     0   0   0     0   0   0     4   4   0     0   0   0     0   0   0     0   0   0     0   0   0     0   0   0     0   0   0     0   0   2     0   0   2     1   1   9     8   1   4     0   0   0     0   0   0     0   4   0     0   0   0     1   4  16     0   0   0     0  36  32     0   1   0     0  33   1     0   0   1     8   4   1     0   0   0     0   0   0     2   0   0     0   0   0     2   0  16     2   2  16     0   2  16     0   2   1     0  32  17     0   0   4    64   0  17     4   0   0     4   4  32     4   0  32     0   4   0     0   0   0     0   0   8     0   0   0     0   0   0     0   0   2     6   0   2     4   0  18     2   0  17     0   0  16     0   0   1    16   0   0    48   0   4    10   0   0     2   0 128     6   0 128     0   0 128     0   0 128     0   2   0     0   0   2     0   0   0     0   0   0     0   0   0    12   8   8     0   4   8     0  12   8     2   9  12     0   0   4     2   4   4    64   0   8    64   0   0     0   0   8     0  16   0     2   0   0     0   0   0     0   0   0     4   0   0     0   1   0     0   0   0     0   0   0     4   0   0     4   0   0     4   0   0     4   2   0     0   0   0     0   0 128     0   0   4     1   0   4     5   0   0     0   0   0     0   0   0     0   2  16     0   0   0     0   0   0     0   8   0     0   1   0     0   0   0     8   0   0     1   0   1     4   0   0     4   0   8     0   0   0     4   0   0     0   0   0     0   0   2     1 121   0     4 112   6     4 112   0     0   8   0     4   0   2     0   0   0     4   0   2     4  32   0     0   2   0     0   0   2     0   2   0     1   3   0     0   2   8     0   0   0     0   0   0     0   0   0     8   4   0     0   4   0     0   4   2    32   0   2     0   4   2     0   0   2     0  32  32     1   8  16    64   8   0     0   0   0     0   2   0     2  18   0     0   0   1     0   0   0     0   0   0     0   0   0     0   0   0     1   0   0     5   0   0     0   0   1     1   0   0    64   0   0     0   0   0     0   0   0     0   0  34     0  18   0     0  48   0    12  50   0     4  32   0     5  32   0     7   0   0     4   0   0     4   0  16     0   0   0     0  32  16     1   0  16     0  32   0    10   0  18     2  34   2     0   0   2    32   0   8    32   0   4     8   0   8    26   0   0    18   0   0    16  18   0     4  17   0     0   0   0     2   0   0     0   0   0     0   4   0     0   4   1     0   4   1     8   4   1     0   0   0     0   0   0     1   8   0     1   1   0     0   1   5     5   5   1     1   1   1     1   1   1     0   0   0     1   1   1
  1   1   1     0   0   0     0   0   0     0   0   0     0   0   0     0   0   0     0   0   0     0   0   0     0   0   0     0   0   0     2   2   2    32  32  32     0   0   0     0   0   0     0   0   0     0   0   0     0   0   0     0   0   0     0   0   0     0   0   0     0   0   0     0   0   0     0   0   0     0   0   0     0   0   2     0   0   0     0   0   2     8   8   2     0   0   2     0   0   0     1   0   1     1   0   0     1   0   0     0   0   0     1   0   0     0   1  32     1  32   0     2  33  32     0  32  32     0  32   0     0   2   0     0  32   8    68   0   0     4   0   0    64   0   0     6   0   0     2   0   0     0   2  16     0   2   0     0   2   0    64   0   1     0   0   0     0   0   0     0   4   0     0   0  32     0  32   0     1   0   0     0   0   2     0   0  12     0   0   4     8   0   8     0   0   0     0   0   2     0   0   1     0   0  16    16   0   0     0   0   0     2   0   0    48   0   0    54   0   0     0   0   0     0   0 129     0   0   2     0   0   0     8   0   0     4   0   0     0   0   0    12  40   0     4   0   0     4   4   8     0   0   0     4  12   8     2   0   8     0   1   0    64   0  12     0   0   0     0   0  12     0  24   0    56   0   0     0   0   0     0   0   0     4   1   0     4   9   0     0   0   0     0   2   0     0   1   0     0   2   0     4   0   2     4   0   2     0   0   2     0   0 128     0   0   0     1   0   0     1   0   0     0   0   0     0   0  16     0   2  18     0   0  18     0   0   2     0   0   0     0   0   0     0   0   0     0 112   0     5   0   1     4   0   0     0   0   0     0   0   0     0   8   0     0 112   0     4   0   2     0   8   0     0 114   4     2 112   0     0 120   0     0   0   1     0   0   0     0   0   0     4   0   0     0   0   0     0   1   0     0   3   0     1   1   0     0  10   0     0   8   0     0   0   0     0   4   0     0   4   8     0   0   0     0  32   2     0  32   0    32   0  20     0   0   0     0  32  50    25   0   0     0   0  32    66   0   0    66  18   0     2  18  32     0   0   1     0   0   0     0  32   0     1   0   0    17   0   0    37   0   0     1   0   0     4   0   0     0   0   0     0   0   0     0   0   4     0  32   4     0   0  36     0  50  34     2  16  34     0   0   0     2   0   0     0  32   0     2   8   0    11   8   0     0   0   1    16   2  16    16   0   0     0   0  16     0   0   0     2  32  18    32   2  16     0  98  80     0   2  24    32   2  24    16   0   8     0   0   8     0   0   0     2  16   0     2   1   0     1   0   0     0   0   0     0   0   0     0   0   0     0   4   1     0   6   0     0   4   0     0   8   0     0   8   0     9   0   0     1   1   1     0   0   4     4   4   0     1   1   1     1   1   1     1   1   1     0   0   0
  0   0   0     0   0   0     0   0   0     0   0   0     0   0   0     0   0   0     0   0   0     0   0   0     0   0   0     0   0   0    34  34  34    32  32  32    32  32  32    32  32  32     2   2   2     1   1   1     0   0   2     1   1   1     5   5   1     5   5   1     0   0   0     0   0   8     0   0   0     1   1   1     0   0   2     8   8   2     0   0   0     0   0   2     0   0   0     0   2   4     0   0   4     1   0   0     1   2   0     1   0   0     0   0   0     0   0   0     0   0   0     0  32  32     0   0   0     0   2   0     0   2   0    16  32   0    20  32   8    20   0  32    66  32   0     0   0   1     6   2   0     0   2  16     0   2   0    64  36   0    64   4   0    64   0   0     0   4   0     0  69   0     0   5   0     0 112   0     0  96   0     0   0  10     0   2   8     0   0   8     0   0  12     4   0   0     0   0   0     0   0   0    16   0   0    16   0   0     0   0   0     2   0   0     0   0   4    53   0   0     4   0   0     0   0   1     8  32  18     0  32   0     0   0  18     0   0   0    64   0  16     0  40   0    12  32   0     0   4   0     0   8   8     0   0   0     0   0   0     0   0   4     0   0  12     2   0  12     0   0   0     0  24   0     0  16   0    48   0   0     4   0   0     4   0   2     4   0   2     0   0   0     0   2   0     0   2   0     0   2   0     0   0   0     1   0   2     0   0   2     0   0   0     0   0 128     1   0   0     0   0   0     0   0   0    16   0   0     0   0   0     0   0  18     0   0  10     0   0   2     0   0  10     0   0   0    12   0   0    13   0   1     0   0   0     4   0   0     4   8   0     0   0   0     0   0   0     0   8   0     0 112   0     4  14   0     2  12   0     0   0   0     0   0   0     0   0   0     4   1   0     4   1   1     4   0   0     0  32   0     0   0   8     0   1   0     8   1   0     0   0   0     0   4   4     0   4   0     0   4   0     0   0   0     0   0   0     0  32   0    40  32  16     9  32   0     0  32  16    26   0   0     0   0  16     0  16   0     2  16   0     2  18   0     0   0   2     0   0   1     0  32   0     0  32   1    17   0   1     0   0   0    36   0   0    32   0   0     0   0   0     0   0   0     0  16   0     0   0   0     0   0  32     0  32  32     0   0   0     0   2   0     0   2   0     2   2   0     2  40   1     0  12   1     2   0   1     0   2   1     0   0   1    12   0   0     0   0  16    10  32   0     8   2  16     0   2   0     0   0  16     0   0   0    26   0   0     9   0   0     0   0   0     1   0   0     1   1   0     0   1   0     3   1   0     4   0   0     0   0   0     0   0   4     0  10   4     0   8   1     0   8   0     8   8   0     8   0   0     0   0   2     0   0   0     0   0   4     2   2   0     2   2   0     0   0   0     0   0   0
  0   0   0     0   0   2     0   0   0     0   0   0     0   0   0     0   0   0     0   0   0     0   0   0     0   0   0     0   0   0    32  32  32    32  32  32    32  32  32     4   4   4     0   0   2     0   0   2     0   0   2     0   0   0     4   4   0     4   4   0     0   0   0     0   0   2     0   0   0     0   0   2     0   0   0     0   0   2     0   0   0     0   0   6     0   0   6     0   0   4     0   2   4     0  10   4     0   2   0     0   1   0     0   1   0     0  32   0     0  32   0     2  48   0     0   0   0     0   0   8     0   0   0    16   0   8     0  32   0     2   0  32     0  32   0     0   0   0    64  32   0     0   4   0     0   4   0     0   4   0    64   0   0     0   0   0     0   0  32     8   0   0     0   2   0     0  98   1     0   2   0     0 130   2     4   0   8     0   0   0     0   2   0     0   0   0     0   0   0     0   0   0     0   0   0     2   0   0     2   0   0    58   0   0    56   0   0     0   0   0     0   0   1    64   0   0     0  37  19     0  32  22     0   0   0     0   0   0     0   0   0     0   0   0     0   8   0     0   8   0     0   0   0     0   0   0     0   0   0     0   0  12     4   0  12     4   0   4     6   0   2     2   4   1    52  24   1    60   8   1     4   0   0     0   0   2    56   0   0    52   0   3     0   0   0     0   2   0     0   0   0     0   0   0     0   0 130     0   0 130     0   0   0     8   0 128     1   0   0     0   0   0     0   0   0     0   0   0     0   0   8     0   0   2     0   0   4     0   0   4     0 112   6     0   0   4     0   0   0     4   0   0     0   8   0     4   0   0     0   2   0     0 112   0     0 112   0     0   8   0     0   8   0     0  10   0     0   0   0     0   0   0     0   0   0     0   0   0     4   0   0     4   1   0     4   0   0     8   0   0     8   1   0     8   0   8     8   4   2     0   0   2     0   0   4     0   0   0     0   4   0   128   0   0   128   0   0    18   0   4    98  32   4     8   0   0     0   0   0     0   0   0     0   0   0     9   0   0     1  27   0     3  19   0     0   0  32     0   0   0     0   0   0     0   0   0     0   0   0     0   0   0     4   0   0     0  16   0    32   0   0     8   0   0     0  16   0     0   0   0     0  32   0     0  32   0    64  32   0    64  34   0    16  32   0     0  32   0    11  16   0     1  56   0     0   8   8     0   0   0     0   1  32     0   1  33     0   0   0     0   0   0     8   0   0     0   0   0     2  64   0     1   0   0     1  32   0    17   4   0    17   4   0    24   0   0     9   1   0     8   0   0     1   1   0     0   8   0     0   0   0     0   8   0     0   8   4     8   8   0     0   0   0     8   0   0     0   1   0     0   0   2     0   0   0     0   0   0     2   2   0     2   2   0     0   0   0     0   0   0
  1   1   1     0   0   0     4   4   4     0   0   0     0   0   0     0   0   0     0   0   0     0   0   0     0   0   0     0   0   0     0   0   0     6   6   6     4   4   4     6   6   6     2   2   0     0   0   0     1   1   1     5   5   1     4   4   0     4   4   0     4   4   0     0   0   0     0   0   2     0   0   0     0   0   2     1   1   1     0   0   2     0   0   4     0   0   6     0   0   0     0   2   0     0   2   0     0   0   0     0   1   0     0   1   0     0   0   0    32   0   1     6   0   0     4   0   8     0   4   8     0   0   0    76   1   0    10   1   0     0   0   1     0   0   0     0  36   0     0   4   0     0  44   0     0   8   8     0   0   0    64   0   2     0   0   0     0   0   0     0   0   0     0   0   0     0   2   0     0   2   4     0 128   0     0   2   8     0   2   0     0   0   0     0   0   0     0   0   0     2   0   0     2   0  16     0  16   0     0   0   0    10   0   0     8   0   4     2   0   0     0   0   1     0   0   0     0   0   2     0   0   0     0   0   0     0   0   0     0   0   0     0   0   0     0   0   0     0   0   0     0   0   0     0   0   0     0   0   1     0   0   5     0   0  12     0   0   4     2   0   2     4   0   2     4   0   1     0   8   0    60   0   0    60   0   1     6   0   0     0   0   0     0   0   0     0   0   0     0   0   4     0   0   4     0   0   0     0   0   2     0   0   2     0   4   0     0   0 128     0   0 128     0  16   0     0   0   0     0   0   8     2   0  12    16   0   1     2   0   0     2   0   0     0   0   0     0   0   0     0   8   0     4   0   0     4   0   0     0   0   2     0   2   0     0   0   2     0 122   0     0   8  32    32   0  32     0   4   0     0   0   0     8   0   0     8   0   8     8  16   0     8   1   0     8   0   0     8   2   8     8   0   0     8   0   2     8   0   2     8   0   2     8   4   4     2  16   0   128   0   4     0   0   0   128   0   0     0   0   0    24   0   0     0   0   0     8   0   0     8   0   0     9   0   0     8   1   0     9  19   8     0   0   0    64   0  32     0   0   0     0   0   0    16   0  16    16   0  16     4   0   0     4  32   0     4  48   0     0  16   0     8  16   0    34  16   0     0   0   0     0  16   0     0   0   0     0  32  32     0   0  16     8   0   0     0   0   0     6   8   0     0  56   0     2  40   0     8   0   0     8  64   0     0  72   0     8   0   2     8  16   2     8  16   2     8   0   0     3   0   0     1   0   0     0   4   0     8   5   4    17   1   0     1   1   0     1   1   1     8   0   1     1   1   0     0   8   0     0   0   0     0   8   0     0   8   4     8   6   0     0   0   0     8   0   0     0   0   0     0   0   0     0   0   0     0   0   0     2   2   0     0   0   0     0   0   0     0   0   0
  0   0   2     0   0   0     3   3   7     2   0   4     0   0   0     0   0   0     0   0   0     0   0   0     0   0   0     0   0   0     0   0   0     4   0   4     6   6   6     4   6   4     0   0   4     0   4   0     0   0   0     4   0   0    28   0   4     0   4   0     0   0   0     0   0   2     0   0   2     0   0   0     4   4   0     4   1   0     4   1   0     0  17   0     0  16   2     0   0   4    16   8   0     0   8   2    16   0  18     0   0   0     0   0   0    33  33   0    32   5   1    36   4   0     0  12   0     0   4   0     0   1   0     4   1   0     0   1  16     0   0   0     0   4   0     0   0   0    32   0   0     0   8   0     0   8   8     4   0   0    16   0   0     0   0   0     0   0   1     0   0   1     0   0   1     0   0   1     0   2   4     0 130   0     4   0   0    16   0   0     0   0   0     0   8   0     2   8   0     0   8   0     2   0   1     0  16   1     0   0   4     2   0   0     2   0   0     2   0   1     2   0   0     0   4   0     0   0   2     0   0   0     0   0   4     0   0   0    56   0   4     3  24  16     1   0   1     0   0  16     0   0   0     0   0   4     0   0   4     0   0   4    58   0   4     0   0   4    66   0   0     0  33  18    64  33   0     0  11   1     2  25   1     0   1   1     2   2   0    48   0   0     0   0   4     0   0   4     0   0   4     0   0   0     0   0   0     8   0   0     0   1   0     0   0   0     0   1   0     0   1   0     0   2   0     0   0   0     2   0  24     6   0  16     2   0   1     0   0   1     2 112   0     0 112   0     0   0   0     0   0   0     0   0   0     0   0   2     0   0   2     0   0   0     0   0   0     0   0   0     0   0   0    32   0  32     0   0   0     0   0   0     2   0   0     8   0   0     8  16   0     0  17   8     8  16   0     0   2   8     0   0   8     0  32  25     0   0   3     0   0   0     4   4   0     0   0   0   128   4   0     0   0   0     0   0   0    16   0   0    16   0   0     0   0   0     0   0   0     0   0   0    33   0   0     1   0   0     1   1   0     0   0   0     0   0   0     0   0   0     0   0   0    16   0  16    16   0  16    20   0  16     4   0   0     0  17   0     0  48   0     8   4   0     0   0   2     0   0   2     0   0   0     0   0   1     0  16   0     0   0   1     8   0   8    64  16   0     2  48   0     2   0   0     0  40   8     8  40   8     8   0   0     0   4   0     0   0   0     0  56   0     0   0   0     0   0   4    18   0   4     2   0   0    19   0   0     0   1   4     0   0   0     1   1   0     1   1   1    11   1   0     9   1   8     1   0   0     0   0   0     4   0   4     4   4   0     0   0   0     0   4   0     0   0   0     0   5   0     0   1   0     0   4   0     0   0   0     0   0   0     0   0   0     0   0   0     0   0   2
  0   0   2     3   1   6     2   0   2     2   0   0     0   0   0     4   0   0     0   8   8     0   4   4     0   0   0     0   4   0     0   0   2     0   0   2     6   0   2     0   0   0     0   0   0     0   8   0     4   8   0     5   1   0     4   0   0     0   4   0     0   4   0     4   0   0     0   0   2     0   1   0     4   5   0     4   0   0     4   0   0     0   1   0     0   0  24     0   0  10     0   0   0    16   0  18    16   0   2     2   0   0     0   4   0     0   5   0     0   5  16     6   5   1     0   4  24     0   4   0    36   0   0    44   2  16    44   2   0     0   2   0     1   2   0     9  20   0    40   4   0     8   4   0     0   0   8    84   0   0    16   0   0     0   0   3    32   0   1     0   0   1     0   2   1     0   2   0     0   0   0     0 128   0     0   0   0     0   0   0     0   0   0     0   0   0     0   8   0     0   0  97     0   4 113     0  16   1     0  16   0     2   0   0     2   0   0     2   0   0     0   0   4     0   0   4     0   0   2     0   0   2     0   0   2     0   0   0     0   0   0     1   0  16     1   0   0     0   0   0    64   0  17     0   0  16     0   0   1     0   0   0    50   4   0    10   4   0     0   4   0    64  32   0    64  32   0     0   0   1     0  27   0     2   3   0     0  10   0     0   0   0     0   0   0     0   0   4     0   0   4    32   0   0     0   8   0    10   8   0     0   0   0     0   0   1     0   2   0     0   4   0     0   6 112     0   8 120     0  12   8     2   4  16     0   0   0     0 128   0     0   1   0     0   0   0     0   0   0     0   0   0     0   0   0     0   0   0     0   0   0     0   0   0     0   8   0     0 122   0     0   0   0     0   0   0     0   0   0     0   0   0     2   0   1     0   0   0     0  16   1     0  18   1     0  18   0     0  34  16     0   0  24     2   0  25     1   0   2     9   0   1     4   0   9     8   4   8     4   4   0     0   0   4     0   1   0     0   0   0   128   0   0     0   0   0     0   0   0     0   0   0     1   0   0     0   0   0     0   0   0     0   0   1     0   0   1     4   4   1     0   0   4     0  64   0    16  64  16     0   0   0    64   0  48    64  16  32     0   0  36     0   0   0     0   0   3     0   0   3     0   0   2     0   0   1     0  16   0     8  17   8     8   8   9     0   0   8     0   8   0     3   8   0     0  40   0     8   0   0     0   0   0     0   0   0     0   0   0     0  16  32     0   0  32    17   8   4    17   0   4    16   0   4     1   0   0     0   5   4     0   1   0     0   0  16     1   1  16     2   0   2     9   0   8     9   0   0     0   0   4     0   0   0     0   0   0     0   0   0     8   0   0     0   0   0     0   4   0     0   1   1     1   4   0     3   3   1     0   0   0     0   0   0     0   0   0     0   0   6
  0   0   6     0   0   0     0   0   2     2   0   0     0   0   0     0   8   0     0   0   0     0   0   0     0   0   0     0   0   4     0   0   2     0   0   2     0   0   2     4   0   4     0   0  28     0   0   4     0   0  24     0   0  16     2   0   0     2  32   0     0   0   0     0   0  10     4   0   2     0   0   0     4   1   2     0   1   3     4   0   2     0  17  16     0  17   4     0   0  12     0   0  18     0   4  16     4   0   0     0  20   0     0  16   8     0   5   0     1   1  20     0   1  16    64   0  25     0   0   0    36   0   9    32   2   0     0   2  16     0   0  16     1   0   0     1   4   0    32   6   0    32   4   0     0   0   0    16   1   0    16   0  36     0   0  33     0   0   1     0   0   0     0   2   0     0   2   0     0   0   4    16   0   0     0   0   0     0   0   0     0   0   0     0   0   0     4   8   0     0   8   0     0  14   1     0   4   1     0  16   0     0  16   0     0   0   0     0   0   0     4   0   0     0   0   0     0   0   0     0   4   0     0   0   4     2   0   8     2   0   0     1   0  16     0   0  16     0   0   0     0   0  16     0   0   4     0   1   4     4   0   0    10   0   1     0   4  12     4   4   0     0   0   0    66   0   0     0   0   0     2   1   0     0   3   0    28  18   0    44   2   0     0   8   0     1   0   0     0   0   0     0   0   8     2   0   8     0   1   0     0   0   0     0   0   0     0   2 120     0   8   0     0   0 120     0  10   0     4  14  24     0  10  24     0   0   0     8 128   0     8   0   0     0   0   0     0   0   1     0   0   0     0   0   0     5   0   1    36   0   0     2   0   0     0   8   0     0   8   0     0   0   2     0   0   2     0   0   0     0   0   0     0   1   0     0   8   0     0   0   0     0   2   0     0   2   0     0   0  16     0  16   0     2   4   0     2   4   1     3   0   0     1   4  17     0   5   0     0   5   0     4   9   0     0   0   0   129   0   0   128   0   0   128   2   0     0   0  16     0   0  16     4   4  16     4   4   0    96   4   0    64  32   1    20   4  17     4   4   1     0   0   0     0   0   0     0   0   0     0   0   0     0   0   0     0   0   0    64   0   0    72   0  32     0   0   0    68   0   2     6   0   6     4  16   0     6  16   0     0   0   8     0   0   1     2   8   1     2  24   0     1   0   0     0  16   0     0  32   0     8  32  32     0   0   0     0   6  16     0   0   0     0  32   8     1  32   8    49  32   0     0   0  12    16   0   0     0   1   0     0   0   0     0   0   0     0   0   2     0   0   2    10   9   2     9   8   2     0   1   0     0   0   0     0   0   2     0   0   0     0   0   0     0   0   2     0   4   0     0   0   0     1   5   1     1   1   1     0   0   0     0   0   0     0   0   0     0   0   2
  0   0   0     1   1   0     0   0   0     2   0   0     2   0   0     0   8   8     0   0   8     0   0   0     0   4   2     0   0   0     0   0   2     0   0   2     0   0   0     0  32  28     0   0  24     0   0  20     0   0  16     0   0  16     0   0  16     2   0   0     0   4   0     0   0   8     0   4   8    16   0  10     0   3   8     0   3   0     0   1   4     0   2   4     0   0   4     0  16  24     0   0  16     0  28  16     4   0   0     0  18   0     0  18   0     0   0   8     0   0   0     8   0   0     8   1   1     8   0   8    32   0   8     0   2   0     0   2   0    65   2   0     1   0   0     9   0   0    32   0   0     8   1   0    16   1   0    26   1   0     8  64   5     8   0   0     8   0   1     0   0   0     0 130   0     0   0   0     0   6   4    16   4   4     0   0   4     0   0   0     0   0   0     0   0   0     4   4   0     0   4  97     0  10 113     0   2   0     0  20   0     0   0   0     1   0   0     4   0   0    68  16   0    64  16   0    64  13   0     0  29   8     0   0   0     0   0   0     0   0   4     1   0  16     0   0  16     2   0  16     0   0  16     0  32  16     4   0   0    12   1   0     4   0   9    10   0   9     2   0   8     2  32   0    64   0   0     0   1   0     2   0   0     0   0   0    16   8   0    24  24   4     1  16   2     0   0   8     0   0   8     2   0   0     2   0   0     0   0   0     0   0   0     0   0   1     0   0   0     0   0   0     0   0   0     0   4   0     0   6   0     0   6   0     1   0   0     1 128   0     0   0   0     0   0   0     0   0   1     0   0   0     1   0  33     4   0  32     6   0  32     2   0  32     0   8  32     0   0   0     0  12   0     2   6   0     2   0   0     0   2   0     0   2   0     0   0   0     0   0   0     0   0   0     0   4   0     0   0   0     0   4   0     2   4   0     1   4   0     0   0   0     0   0  16     1   0   0     0   5   0     0   1   0     1   9   0     1   2   0   128   6   0     0   4   0   128   0   0     4   0   0     0   0  16    84  36   0    96  32   1     4  36  16     4   4  17     0   0   1     0  64   0     0   0   0     8  24  32     8   8   6     0   0   5     0   0   0     0   0  32     0  32   0     0   0  32     0   0  38     2  16   4     0   0   4     0   0   0     0   0   0     2   8   1     0   0   1     2   8   0     1   2   0     0  48   0     8  48   0     8  32   0     0   0   0     0  32  16     0   4   0     0  32   0     0   8   0     0   0   0     0   0   0     0   0   0     0   0   0     0   4   0     2   0   2     0   0   2     0   0   2     8   8   0     0   0   0     0   0   2     0   0   0     0   0   2     0   0   0     0   0   0     0   0   0     0   0   0     0   0   0     0   0   0     0   0   0     0   0   0     0   0   0     0   0   0     0   0   0
  0   0   0     1   1   0     0   0   2     2   0   2     0   0   0     2   0   8     0   0   0     0   0   0     0   0   2     0   0   2     0   0   0     0   0   2     0   0   0     0   0  28     0  32  28     0  32  16     0   0  16     0   0  17     0   0  17     2   0  16     8   0  16     0   8  16     8   8   8    16   8   2    16   0   8    16   0   9     4   2   0     0   0   0     0   0   4     0  16   0     0  25   0     4  25  16     4  16  16     0  16   0     0   2   0     0   1   8     0  67   0     0   0   0    24   0   6    24   8   0     0   0   8     0   0   0     0  32   0    65   0   0     1   0   1     1   0   0     0   0   0     0   0   0     0   1   4     2   1   4     8  16   4     8  16   0     8   0   0     0   0   0     8   1   0     0   0   0     0   0   4     0   0   0     0   0   0     0   0   0     0   0   4     4   0   0     0   4   0     0   6   0     0   6   1     0   4  16     0   0   0     0   0   0    64   0   0     4   0   0     0   0   0     0   0   0     0  12   0     0   1   4     0   5   0     0   0   0     0   0   0     3   0   0     0   0   0     0   0   0     0   0   0     6   1   0     4   1   0     6   0   9     8   0   8     0  32   8     0  32   8     0   0   0     0   0   0     0   1   0     0   0   0     0   3   0    16  24   0    16   8   2     0   0   2     0   0   8     2   8   0     0   0   0     0   0   0     0   0   0     0   2   0     0   1   0     0   0   0     0   0   0    16   0   0     0   0   0     0   2   0     1   4   0     0   4   0     0   0   0     0   0   0     0   0   0     0   0   0     0   0   0     0   0   0     0   0   0     0   0   0     2   0   0     2   0   0    34  12   0     2   4   0    34   8  32    32  10  32     0   2   0     0   0   0     0   0   0    16   8   0     0   8   0     0   0   0     0   2   4     2   0   0     0   0   0     3   0   0     0   4  16     0   4  16     1   0   0     1   0   0     0   1   0     0   0   8     0   0   8     1  10   0     0  10   0     0   8  20     0   4  16     4   4   0    96   0   0     0   0   0    96  32  17     0  32  16     0   0  16     0   0   0     6   6   0     8   8   1    14  14   5    24   8  33    24   8   1    16  64   0    72   8  32    10   0  32     0   0  32     2  16  34     0   0   2     8   0   0     0   0   1     2   8   1     2   0   0     0   0   0     0   2   0     0   0  32    64   0  32    64  48   0     8   0  33     0  32   0     8   4   0     8   0   0     8   0   0     0   9   0     0   0  16     0   1  16     0   0   0     2   0   2     6   0   2     2   1   0     0   8   2     0   1   0     1   0   3     0   0   0     0   0   2     0   0   0     0   0   0     0   0   0     0   0   0     0   0   0     0   0   0     0   0   0     0   0   0     0   0   0     0   0   0     0   0   0     0   0   0
  0   4   0     0   0   0     0   0   0     2   0   0     0   0   8     0   0   8     2   0   0     0   0   0     0   0   0     0   0   0     0   4   0     0   0   2     0   0   0     4   0   0     4   0  28    16  32   0     0   0   0     0   0   1    24   0  16    16   0  16     1   4  16     0   4   0     9  12   8    17   8   0    17   0  12     0  16   4     4   0   4     0   0   0     0   0   0     0  16   0     0  24   0     0  25  16     4   0   0     0   0  32     0   2   0     0   2   2     0   3   0     0   1   2     8   1   0    16   0   0    32   0   8     0   0   0     1  16   0     0  16   1     9   0   1     8   0   0     8  16   0     0   1   0     0  64   0    16   0   4     0  64   0     0  16   0     0   0   0     0   0   1     8   1   0     0 128   0     0   0   8     0   0   0     0   1   0     0 112   0     0   0   4     4   0  32     4   4   0     0   0  96     0   0   1     0   4  96     0   4   8     0   0   0     1   0   0     0   0   0     0   0   2     0   0   0     0   0   0     0   5   0     0   5   0     0   0   4     0   2   0     3   2   0     0   0   0     0   4   0     0   0   0     2   4   0    12   1   0     8   1   9    56   0   1     0   1   1    48   1   0     0   0   0     0   0   0     0   1   0     0  16   0    16  18   0    16   0   0    16  24   0     1   0   0     0 136   8     2   0   0     0   0   0     0   0   0     0   0   0     0   2   0    16   1 128    16   1   0    16   1   0    16   0   0     0   0   0     1   0   0    32   0   0    33   0   0     1   1   1     1   3   1     0   1   0     0   2   0     0 113   8     0   0   0     0   0  40     0   0  32     2   0   0     2   0   0     2   8  32    34   8  32    34  12  32     0  10  32     0   8  32     0   2   0     0   8   0     0   0   0     0   8   0     0   2   0     0  34   0     0  38   0     0   4   0     0   4   0     1   1   0     0   0   0     0   1   0     1   0   2     0   0   0     0   0   0     0   8   0     0  12   4     0   0   4     0   0  20     0   0  16     0  32  20     0   0  17     0   0  17    32   0   0    32   0   0     0   0   0     0   0   4     0   0   0     0  32   4     8   8   4    16   0   0     0  64   0     0  64   0     0   0   0     0   0   0     2   0   0    10  16  34     0   0   0    16   2   0    16   0   0    16   0   1     0   4   0     0   4   0     0   4   0     0   0  32     0   4   0     0  16   0     0   0   0     0  32   0     0   0   1     8   0   0     8   1   1     4   1   0     4   0   0     4   2   0     4   4   0     0   6   0     6   0   2     0   0   2     0   0   0     1   0   1     1   0   1     0   0   0     0   0   2     0   0   0     2   2   2     0   0   0     0   0   0     0   0   0     0   0   0     0   0   0     4   4   0     0   0   0     0   0   4     0   0   0     0   2   0
  0   4   0     0   0   0    32   0   0     0   8   0     2   8   8     2   0   0     2   0   1     2   0   0     0   0   0     0   2   0     0   2   0     0   0   0     0   0   0     1   1   0     1   1   0     4   0   0    16   0   5     0   0   0     0   0   1     0   0   0     0   0   0     0   4  16     0   8  16     0  24   8     0   0   4     0   0   4     0   0   0     0   0   0     0   0   0     0   0   0     0   0   0     4   8   0     0  16   0     0  16  16     0   0   0     0   3   0     0   1  32     0   2   0     0   2   0     0   0   0    32   0   0     0   0   0     1   0   1     0   0   1     8   0   0     8   8   1     8   0   0     0   0   0     0   0   0     0   0   4     0  80   0     0  16   0     0   4   0    32   4   0     8   1   8     0   1   0     0   0   8     0   1   0     0   0   0     0   2  32     8   2  32     0   2   0     0   0   4     0   0   0     2   0   0     0   0   0     0   0   8     0   0   0     0   0   0     8   0   0     1   2   0     0   0   0     0   0   0     0   1   0     0   5   0     0   8   0     0  18   0     1   2   4     0  16   0     0  12   4     4   8   0     0   0  12     8   0  12     8   1   1     0   8   0     0   1   1     0   0   0     0   0   3     4   0   0     0   0   0     0   8   0     0   0   0     8   0   0     0  16   0     0   0   0     0   8   8     0  16   0    16   0   0    16   0   0     0   0   0     0   3   0    16   1   0     0   0   0    16  17   0     0   1   0     0  16   1    33 112   1    33 112   1    32   0  32     1   1   1     1   3   1     1 113   1     0 112   0     0   0   0     0   0   0     0   1  32     0   0   0     0   0   0    34   0   0    34   0   8     2   0   0     0   0   0     0   8  32     0   8  32     0   8  32     0   8   0     0   0   0     0   0  16     0   0   0   128   2  16   128  32   0     0   4  16     0   1  16     1   1  16     1   4   1     1   0   0     0   0   1     0   0  18     0   0  20     0   0   4     0   0   0     0   0   4     0   0  16     0   0   4     0   4   4     4   4  21     4   0   0    32   0  16     0   0   0     3   3   0     2   2   0     0   0   0    10  10   0     0   0   0     0   0   0     0   0   0     0  64   0     0   0   0     0   0   0     2   0  32    10   0   0    10   0  32     0   0   0     0   2   0    16   0   0     2   4   0     0   4  16     0   0   0     0   0   0     0  16   0     0  18  32     0  18   0     0   2   8    40   0   1     0   0   1    12   1   1     4   0   0     0   1  16     0   0   0     2   0   0     2   0   2     0   0   0     0   0   0     0   0   0     8   8   2     1   0   1     0   0   0     0   0   0     0   0   0     0   0   0     0   0   0     0   0   0     0   0   4     0   0   0     0   0   4     0   0   0     4   4   0     0   0   0     0   4   0     4   0   0
  0   0   0     0   0   0    32   8   0     0   8   0     0   0   1     0   0   1    32   0   0     0   0   0     0   0   4     0   0   0     0   4   0     0   0   0     0   0   2     4   0   0     0   4   0     4   0   0     0   0   4     0   0   0    24  32   0     0  32   3     0   0   0     0   2   0     0  10   8     0  12   8     0   8  12     0   8   4     0  64  68    40   0   4    32   0   0    32   0   0     0   0   0     4  16   0     0  16   0    32  16   0     0  16   2     0   0   2     0   0   0     0   0   0     4   0   0     4   0   2     0   0   0     0   0   0     1   0   1     1   0   1     9   0   1     0   8   0     8   0   0     0   0   0     0   0   4     0  80   0    16  68   0     0  16   0     0   0  33    32   4   1    32   0   0     0 133   0     1   1   0     8   0   0     0   0   0    12   0   0    12 112   0    32   2  16     0   0   0     0   8   0     0   8   0     0   0   0     0   0   0     4   1   0     0   1   4     0   1   4     2   0   2     0   0   4     0   0   4     0   4   0     2   1   0     0   5   4     0   0   4     1   0   4     1   8   4     1   8   4     0   8   4     0   4   4     0   8   0     8   8   0     0   0   8     0   9   9     4   4   1    12   0  11     4   0  11     0   0   1     0   0   0     0   8   0     8   0   0     0   8   0     0   0   0    36  16   0    49  16   0    17  16   0     0  16   0     0   1   0     0   1   0     0  16  32     0  16   0     0  16   0    32  16  16    32   1   0    33   0  33     0   0   1     0   2   0     0   0   0     0   9   0     4   8   0     0   0   0     0  99   0     8 101   0     0   4   0     0   0   0     0  80   0     0  80   0     0  16   0     0  16   0    24   0  16     1   0   0     0   8   0     0   8   0     0   1   0     0   0   0     0   0   0     0   0   6     0  18   0     0  16   0     0   0   0    16   0  16     0   0  16     0   4   1     0   0   3     0   0   1     0   0   0     0   0  16     0   0   0     0   4  16     0   0   4     0   0   4     0   0   8     0   0   0    32  32  16    96   0  20    32   0  16    64   0   0     0   0   0     0   0   0    15  15   0     2   2   0     0   0   0     0   0   0     0   0   1     0  16   0     0   0   0     0   0   0     0   0  64     8   0  64     8   0  64     0   0   0     0   0   0     0   0   2     0   0   0     0   0  48     4   0  32     4   0  40     4  16   0     0   0   0     0  16   8     0  32   8     0  48   4     0   0   6     0   1   4     0   1   0     4   0   0     0   0   0     2   0   0     0   0   0     0   0   0     0   0  16     0   0  16     0   0   2     0   0   0     0   0   0     0   0   0     8   8   8     9   9   9     8   8   0     0   0   0     0   0   0     0   0   0     0   0   0     0   0   0     0   0   0     0   0   0     0   0   0     0   0   0
  0   0   0     0   0   0     4   8   0     0   0   0    32  32  33     8   0   1    32   8   0     8   4   0     0   6   4     4   4   0     0   0   0     0   4   4     0   0   0     0   4   0     4   2   0     0  26   0     0   0   1     0   0   2     0  32   2     0  32   0    32  32   0     0   0   1     0   8   0    32  40   0     0   8   0     0   8   4    32   0   4    32   0   0     0   0   0    32   0   0     0   0   0     0   0   1     0   0   0     0   0   0     0   0   0     0  16   0     0   2   0     0   0   0     4   0   2    20   4   0     4   0   2     0   0   0     0   0   0    16   0   0    17   0   1     0   0   0     0   0   0     0   0   0     0   0   0     0   4   0    16  16   0     0  16   1     0   0  32     0 132   2    32   0   0     0   0  32     0   5  40    10   0   0     0   0   0     8 112   2    40   2   0     0   0   0    24   0   8     0   0   0     0   0   8     0   0   8     4   0   0     4   0   0     0   0   0     0   0   2     2   0   8     2  16   4     0  16   4     0  16   4     2   1   0     0   3   8     0   0   4     0   8   0     0  16   8    49  12   0     0  16   8    48   0   0     0   0   8    10   8   8     0   8   8    10  16   0    12  24   8     8   0  13     9   0   2     0   0   1     4   8   0     4  10   0     4   0   0     0  16 128     0  16 128     2   0 128     0  16   0    16  16   0     0   0   0    16   0  96    16   0  64     0   0   2    16   0   0     0   0   0    32   0   0    32   9   0     0   0   0     0   0   0     0   2   0     0   2   0     0   0   0     4  16   0     4 112   0     0   0   0     0   2   0     0   0   0     0   0   0     0   2   0     0  18  10     0  82   8     0  32   0    17   1   0     1   0   0     0   8   0     0   8   0     0   1   0     0   1   1     0   1   3     0   0   0     0   0   2   128  20   2     0   0   2     0  16  16     0   0   0     0   0  16     0   0  16     0   4   0     0   0   0     4   0   2     0   0   0     0   0   0     0   4   8     0   8   8    48   0   8    16   0   0    48  36   0    32   0   4    36   4   0     0   0   0     0   0   0     0   0   0    14  14   0     8   8   0     0   0   0     0   0   1    32   0   1     0   0   0     0   0  64     0  16   6     0   0  32     8   0   0     0   0  32     8   0  32     8   0  34     0   0  34     8   8  32     2   0   0     0   0   0     4   0  40     5   0   0     4   2   0     0   2   0     0  16   2     0  17   2     0   0   0     2  17   0     0   0   4     2   8   0     0   8   0     0   1   0     0   1   0     0   0   0     0   0  16     0   0  16     0   0   0     0   0   0     0   0   0     0   0   0     0   0   0     9   9   9     0   0   0     0   0   0     0   0   4     0   0   0     0   0   0     4   4   0     4   4   0     4   4   0     0   0   0     0   0   0
  0   8   0     0   8   4     4   0   0    44   0  36     0   0   0     0   2   4     0   4   4     0   0  12     0   4   4     0   2   4     0   4   6     0   4   4     0   4   0     0   4   0     4   0   0     0   2   0     0   0   8    16   0   0     8   0  40     0  32   0     0   0   0     0   0   0     2   0   0     2   8   0     0   0   0     0   0   0     0   0   0    64   8   0    36   0   8     4   0   8     4  17   0    32  16   0     0  16   0     0   4   0     0   4   0     0  64   0     0   0   0     0   0   0     0   0   0     4   0   2    32   0   0     4   0   0     4   0   0    20   0   0    20   0   0     0   0   0     0   0   0     2   0   0     0   0   0     8   0   0     8  16   0    24   0   0     0   0   0     0   0  34     0   0  32     0   0  32     0   0   0     0   2   8     0   0   0     8   2   0     8   0   0     8   0   1    24   0   8     0   0   8     0   0   8     0   0   8     4   0   8     0   0   8     0   0   8     0   0   0     0   0   2     0  16   0     0  16   4     4  16   4     6   1   0     0   0   0     4   1   0     4   0   0    56   0   0     0   0   2     0  24   0     8   0   0     0   8  10     0   8   0     0   0   0     0   0   0     0   0   9     0   0   1     0   0   2     0   8   2     0   8   0     4   2   0     4   0   0     4   2   0    32   0   0     2  16   0    17  16   0     1   8  64     0 128   0    32   9   0    32   0   0    32   0   0     0  17   0     0  16   0     0  13   0     0   8   0     0   8   0     0   0   0     0   2   0     0   4   0     0   0   0     0   0   0     8   0   0     4   2   0     0   6  16     4  98  16     0 114   2     4   2   2     4  18   2     0  18   0     0   0   0     0  16   4     0  16   0     0  24   0     0   0   0     0   1   0     0   1   1     4   1   5     0   0   2     0   0   0     0   2   1     0   0   0     0  20  16     0  20   0     0   0  16     0   4   0     0   0   0     6   4   2     4   8   2     4   0   0     8   0  16     0   0   0     8   2  16     0   0   8     0   0   0    64  32   0     0   0   4    96  32   4     4   4   1     4   4   0     0   0   0     0   0  64     0   0  64     0   0  64     0   0   1     0   0  65     0  16   0     0   0  64     0   0  64     8   8  64     8   8  64     8   0   0     0   0   0     2   0   2     0   0   2     8   8  32     0   0   0     0   0   0     4   0   4     4   2   0     4  64   0     1  65  24     0   0   0     0   0   0     0   1   0     0   0   0     0   0   0     2   0   0     0   0   0     0   0   0     0   1   0     0   1   0     0   0   0     0   1   0     0   0   0     0   1   0     4   4   0     0   0   0     0   0   0     9   9   9     0   0   8     8   8   0     0   0   2     0   0   0     0   0   0     1   1   1     0   0   4     0   0   0     0   0   0     0   0   0
  0   8   0    32   0  32     0   0   0    36   0   0     0   0   0     0   0   4     0   0   0     8   0   0     4   4   4     4   0   4     0   2   1     0   0   5     0   0   0     0   0   0     0   0   1     0   0   0     0   0   0     8   0   0     8   0   4     8   0   0     0  40   0     0   8   0     0   8   0     0   0   0     0   0   0    34   0   0    16   0   0     2  12   0     0   0   0     4   4  64     0   0   0     0  16   0     0   0   0    16  66  16     0  66  16     0   2   0     0   0   0     1  16   4     0   0   0     0  16   0     0   0   0     4   0   0     0   0   0    16   0   0     0   0   0     4   0   0     6   0   0     6   0   0     0   0   0     0   4  16    16   0   0     0  16   0    32   8  32    32   0   0     0   8  32     0   0   0     0 112  32     0 112   8     0   0  32     0 128  32     8   0   0     0   0   0     8   0   0     0   0   8     0   0   0     4   0   8     0   0   0     0   0   0     0   0   0     0   0   0     0   0   6     0   0   4     0  16   0     4   0   0     4   0   0    20   0   0    12   0   0    60   0   2    56   1   2    48   0   2    48  24   8     0   0  10     0   0   8     0   0   8     0   0   8     0   0   8     9   0   5     1   0   1    40   0   2    40   1   0    32   1   0     0   0   0    33   2   0     0  18   0    32   0   0     0  16   4     2   0   0     0   0   2    16   0  10    32  16   2     0  16   0     0  16   2     8   1   1     0  13   0     0   8   0     0  12   0     0   8   2     0   0   0     0   0   0     0   0   0     0  40   0     0  40   0     0   0   0     4   2  24     4   0  16     0   0  16     8  48   0     0  16   0     0   0   0     0  32   0     0   0   0     0   0   0     0   0   0     0   0   0     0   0   0     0   0   1     0   1   1     0   0   4     0   0   4     0   0   0     0   2   1     0   0   0     0  16   1     2   0   0     0   0  16     6   0   0     0   4   0     6   8   0     4   0   0     4   0  16     8   0   0     4   0  24   120  10   0   112  40  16     0   0  16     0   0   0     0  32   0     0   0   0     0   0   4     0   0   4     0   0   0     0   0  64     0   0  96     0   0  64    64   0   1     0   0   1     0   0  64    32   0   0     0   0   0     8   8  66     0   0   0    80   0   0    16   0   0    66   0   2     0   0   0     2   8  32     0   0   0    16   0   0     0   0   4     4   0   0     4   0   0     4   0   8     0   0   0     4   1  16     0   0   0     0   0   0     0   0   0     0   0   0     0   0   0     2   0   0     0   1   0     0   1   0     0   1   0     2   0   0     0   1   0     2   2   0     0   0   0     0   0   0     0   0   0     0   0   0     0   0   0     0   0   0     0   0   0     0   0   0     0   0   0     3   3   1     1   1   1     0   0   0     2   0   0     0   8   0
  8   0   0     8   0   4     0   2  32     8   0  32     0   0   0     0   0   0     0   0   0     0   0   0     0   0   0     0   0   4     0   0   5     0   0   0     0   0   0     0   0   0    24   0   2     1   2   0     0   0   0     9   0   0     8   0  32     0   4   4     0   0   4     0   4   0     0   0   0     0   4   0    16   0   0    48   0   0    20   0   0    32  36   0     0  36  64     0   4  64     0   2   0     0  16   0     0   0   0    18   2  16     2  64  48     0   2   0     0   2   0     0   0   4     0  32   0     0   0   0     2   1   0    32   0   0     0   0   0     4   0   0    20   0   0    24   0   0     0  16   0    42   0   0    10   0  80     0   0   0    16   0  16    16   0   2     0   8  34     0   8   0     0   8   0     0   8   0     0   0   0     0   0   8     4   0   0     4 136   0     0   0   0     8   0   0    24   0   0    16   0   0     0   0   0     4   1   0     4   0   0     0   0   0     0   0   0     0   0   0     0   0   5     0   0   6     0   0   2     8   0   0    16   0   0     0   0   0    32   0   0     0   0   2     0   1   0     0   1   0    32   0   0     0   0   0     0   8   0     0   8   0     0   0   4     0   0   8     0   0   1     0   0   0    32   0   0    32   0   2    32   0   2     1 128   0     1   0   0     0   0   0     0   0   4     0   0  68     0   0   0     0   0   0     0   0  10     0  16   2     0  18   0     4   0   0    16   0   0    16   4   2     0   0   8     0   0   0     0   0   2     0   0   0     2   0   0     0   4   0    10   8   0     0   0   0     8   1  16     8   0  16     4  16   0     4   0   0     0  16   8     0  48   0     0  48   0     0   8   0     0   0   0     0   0   0     0   0   0     0   0   0     0   0   0     0   0   0     0   0   0     0   0   0     0   2   1     0   4  65     0   6  64     0   0   1     0   0   1     2   0   0     2   0   8     0   0   0     0   8   0     0   8   0     0   8   0     0   0   0     0   0  16     1   0   8     1   2   0     4   8   0    17   8   0     0  32   0     0   0   0     0   0   0     0   0   0     0   0   1     0   0   0    32   0   0     0   0   0     0   0  64    64  16   0     0   0   0    64  16   0     0   0   0     0   0  64     0   0  66     0   0   0    16   0  18    80   0   1     2   0  17     0   9   1    10   8   0     0   8   0     0   2   0     0   2   0     0   0  32     0   0   0    20   0   0     4   0   8     4   0   0     0   0   0     0   0   8     0   0   0     0   0   0     0   2   0     0   1   2     0   2   6     2   3   0     2   0   4     2   1   4     2   0   0     2   2   0     2   2   0     0   0   0     2   2   2     0   0   0     0   0   0     0   0   0     0   0   0     0   0   4     0   0   0     1   1   1     1   1   1     2   2   0     2   0   0    10   8   0
  0   0   0     0   0   8     0   2  42     0   0   0     0   0   0     0   0   0     0   0   0     0   0   0     2   0   0     0   0  29     0   0   4     0   0   0     0   0   0     0  32   0     0   0   0     1  32   0    17  32   0     8   0   0     8  32  33     8   0   0     0   0   0     0   4  34     0   0   0     8   0   0     0   0   0    16  32   0    16   0   0    16   0   0     0   4   0     0   4   0     0  16   0     0  12   0     0   1  32     8   4  16     2  64   0     0   0   0     0  18   4     0  16   0     0  16   0     0   8   0     0   0   0     0   9   0     0   8   0    16   0   0     0   2   0     0   2   1     0   2   0     0   0   0     0   0   0    16   0  16     0   4  16    16   0   2     0   0   0     0   0   2     0   8   0     0   0   0     0   0   8    16   0   8     4   8   8     0 128   8     4   8   0     8   0   0     8   0   0     0   0   0     0   0   1     0   2   0     4   0   0     0   0   0     0   0   0     0   0  16     0   0   6     0   2   6     0   0   0    22   0   0     4   1   0     0   0   4    32   0   0     0   0   0     0   0   0    33   0   0     0   0   0     8   0   0     8   8   0     0   0   4     0   0   4     0   0   0     0   0   0     0   1   0     0   0   0     0  16   2     0 132  98     2 132   0     1   4   0     0  24   4     0  10   4     0   2  12     4   0   4     0   0   6     0  16   2     0  16   2    40   0   0     8   0  16     4   0   0     0   0   0     0   0   0     0   0   0     0  64   2     0  64   0     2   0   0     0   0   0     0   4   0     0  36   0     0   8   8     0   0   0    36   1   0    32   0   0     4  16   0     0   0   0     0   0   0     0   0   0     1   1   0     0   8   0     0   8   0     0   0   0     0   0   0     0   0   0     4   0   0     0   0   0     1   2   0     8   4  64     8   0  67     0   0   2     4   0   2     0   0   0     0   8   0     0   0   0     0   8   0     0   8   0     0   0  16     0   0  16     0   0   0     0   0   0     0   0   0     0   0   8    16   0   0     1   1   0     0   0   0     0   0   0     0   0  20     0   0   0     0   0   0    32   0  64     0   0  64     0  16  73     0  16  64     8  24   1     0  64   0     2  18   0     2   2   0     0   2   2     0   2   2    16   0  16    16   0   1     0   8   1    64   0   0     0   8   0     0  22   0     0   6   0     0  36  32    16   0   0    16   0   0     0   4   0     0   0   8     4  68   0     0   0   0     0   0   0     0   0   0     0   1   0     0   1   1     0   0   0     0   2   0     0   0   0     0   0  20     2   6   0     0   0   0     0   2   4     2   2   0     0   0   0     0   0   0     0   0   0     0   0   0     0   0   0     0   0   0     4   4   0     0   0   0     2   2   0     0   0   0     2   2   0     2   0   0     2   0   0
  0   0   0     0   0   2     0   0   2     0   0   2     0   0   0     0   0   0     0   2   0     0   0   0     0   0   0    26   0  24     0   0   0     0   0   0     0   0   0     0   2   0     0   2   0     0   2   0    24   0   0    24   0   0    24   0   0     0   0   0     0   0   0     0   0   2     0   0   0     8   0   0     0   0   0    52   0   0     0  32   0     8   0   0     0  96   0     0   4   0     0  10  32     0   1  40     8  40   8     8  44   8     2   0  40     0   0   0     0  48   0     0  50   0     0  32   0     0   0   0     0   0   0     0   8   0     0   0   4     0   4   8     0  16   0     0   2   0     1   0   0     1   0   0     1   0   0     0   2  16    16   0   2    16   2  18    16   0  18     0   8   0     0   2   8     0   2   0     0   2   0     4   0   8     0   0   8     4   8   8     8   2   8    12   0   0     8   0   1     2   0   1     0   1   0     0   0   0     0   0   4     0   4   0     0   0   0     0   0   0     0   0   0     0   2   0     1   0   8     6   1   0     4   1   4     4  16   4     0   0   0     0   0   0    34   0   0     6   0   0     0   0   0     8   0   0     8   0   0     0   0   1     0   0   0     4   3   0     2   0 104     0   1 106    32   1 104     0 128   2     0   4   0     0  20   4     0   1   1     0   0   4     0   0   4     1   2   0    64   2 128     0   0 128     0   0   0     0   2   0     0   0  32     4   0  16     0   0  48    16   0   2     0   0   0     0   0   0     0   0   0     0   0   0     2   0   0     0  16   0     0   4   8     0   4   0     0   0  32    32   0  32     0   0   0     0   0   0     0   0   0     0   0   0     0   0   0     2   0   0     1   1   0     0   0   0     0   0   0     0   0   0     0  16   0     0   0  16     8   0   0     8   0   0     8   6   0    16   4  64    18   4   0     0   0   2     4   0   0     0   0   0     0   0   9     0   8   3     0   0   2     0   4   0     0   4   0     0   0  16     0   0   0     0   0   0     0   0   0     0   0   8     1   0   0     1   1   0     0   0  16     0   0   0     0   0   0     0   0   0     0   0   0     0   0   0    32   0  64     8   8  72     0   0   0     4   4   0    64   0   4     2   2   0     0   0   2     6   6   2     0  64   0     0   0   0     0   0   1    64   8   9     0   8   0     0   0   0     0   4   4     0   0   0    16  36  32    16   0  32     0  68  32     0   0   0     2  16   0    65   0   0     0  64   0     0   4   0     0   0   0     0   0   0    16  17   1     0   2   0     0   0   0     0   2   0     0   0   0     0   0   4     0   4   0     4   4   0     0   0   0     0   0   0     0   0   0     0   0   0     0   0   0     0   0   0     4   4   0     0   0   0     4   4   0     2   2   0     0   0   0     0   0   0     2   0   1     2   0   0
  1   1   0     0   0   0     1   3   0     0   0   0     0   0   0     0   0   0     0   0   0     2   0  28     8   0   0    10   0  24     0   0   0     0   0   0     0   2   0     0   2   0     0   2   0     0   0   0     0  32   0    24   0   0    24   0   0     2   0   0     0   0   0     0   0   0     0   0   2     0   0   2     0  32   0    36   0   0    80   4  16     8   0   4     8  32   4     0   0   0     0  32   0     0   9   0     8   1  16     8  44   9     8  48   0     0  40   0     0  56   4     0  48   0     0  16  32     0   0   0     0   0   0     0   0   0     0   0   0     0  24   8     0  16   8     0   2   0     1   0  32     0   0   0     1   0   0     0  16   0     0   0   0     0   2  24     0   0   9     0   8  16     0   8   8     1   0  32     1   2  40     0   2  10     1   2   0     0 130   2     8 128   2     0 130   2     8   0  10     2   0   2     0   0   0     0   4   2     0   4  10     0   0   0     0   0   0     0   0   0     1   0   0    17   0   8     1   0   8    16   0   0     2   0   0     0   1  16     0   0   0     0   1   0    18   0  96     4   0   0     0   0   0     0   1  96     0   0  96     0   0  96     0   0  96     0   0   0     0   1 104     0   0  96     0   0   0     0  16   0     0   4   0     0   4   0     0   4   0     0  18   0     0  18   0     0   1   4     0   0   0     0   2   2     0   0   0     0   0   0     8   0  16     8   0   0     0  98   0    32  98   0     0  72   0     8  96   8     0  64   0     0   0   0     0   0   0     0   0   0     0   0   0     0   0  40     4   0  40    32   0   0     0   0   0     0   0   0     0   0   0     2   0   0     2   0   0     2   0   0     1   1   0     1   1   0     0   0   0     0   0   0     0  16   0    16   1  16     0   8  16     8   0  16     9   0  16     8   0   0     2   0   0     4   0   0     4   4   0     0  32   0   128   0   0   128   0   0     0   0   0     0   4   0     0   5   0     4   1  16     4   1  16     0   0  18     0   1   1     0   1   1     0   8  16     1   1   0     1   1   0     0   0  16     0   0   0     0   0   0     0   0   0     0   0   0     8   8   0     8   8  72    24   8   0    10  10  16     8   8  16    10  10  16     0   0   6    14  78   2     0  66  32     0   0   8     0   0   8     0   0  40     0   0  32     0  16   0     0  32   0     0   0   0    16  68  48    16  64   0    16  64   0     0  80   4     0  24   0     3  64   1     0   0   0     0   8   3     0  32   0     0   0   0    16   2   0     0   2  16     0   2   0    16  18   0     0   2   0    17  16   1     0   4   0     0   0   0     0   0   0     0   0   0     0   0   0     8   8   8     0   0   0     0   0   0     0   0   0     4   4   0     4   4   0     2   2   0     0   0   0     0   0   0     2   0   0     2   0   0
  0   0   0     0   0   0     0  32   2     0  32   0     0   0   0     0   0   0     0   0   0     8   0   0     8   0   0    10   0   0     1   3   0     0   0   0     1   3   0     1   0   0     0   0   0     0   0   0     0   0   0    24   0   0    26  32   0     2   0   0     0   0   0     0   0   2     0   0   0     0   0   0     4   8   2     0  10   2    20  10   0     0   0   0     0   0   0     0   0   0     0   0  16     0   1   8     0   0  16    64   4   8     0  12   0     0  36   0     0  18   0     0  16   0     0  32   2     0   1   0     0   1   0     0   4   0     0   2   0     4   0  64     0   0   0     0   0   0     0   0   0     1   0   0     1  16   0     0   0   0     0   0   0     0   8   0     0   0  16     0   8   0     0   2   0     1   2   0     1   2   2     1 128  32     1   8   0     0   0   0     0 130   2     8   2   2     9   0  10     1   1   0     0   0   0     0   0   2     0  20   6    16  20  12     0   0   0     8   2   0     8   0   8     1   0   8     1   0   0     0   0   0     0   0   0     4   0  16     0   0  20     4   1  16     0   1  16     0   0   0     0   1   0     0   0   0     0   0   1     0   0   0     0   0   2     0   2   8     0   0   8     0   0 136     1  16 128     0   0   0     0   0   0     0   0   0     2   0   1     0   5   1     0   0   0     0   0   2     0   2   0     0 134   0     0   0  64    16   0   0     0   0   0    16   0   0     4  98   2    40 122  10     0  10   0     0  72   0     0   0   0    18   0   0     0   0   0     0   0   0     0   0   0     0  16   0     0   0   0    32   0  32     0   0   0     0   0   0     4   4   0     0   4   0     0   4   0     0   0   0     0   0   0     0   0   0     0   0   0     0   0   0    16   0  16    16   0  16    24   8   0     8   0   0     0   8   0     8   0   0     0   0   0     0   0   0     0   0   0   128  32   0   130  36   0   128   4   4     0   4   4     0   4   4     6   0   8     4   1   0     4   1   0     0   0   2     0   0   0     1   0   0     1   9   0     1   1  16     0   0  16     0   0   2     4   4   0     4   4   0     4   4   0     0   0   0     0   8   0     0   0   8     0   0   0     0   0   0    16   0   4     0   4  60     8   8  45    10  10  36     3  67  10    11  65  32     0  65   8     0   0   0    64   0  32     0   0   0     0   4   0    16   0   0     0  38  16    16   2   0    64   0   0     2  64   0    66  64   0    67  64   0     1   0   3     0   0   0    16   0   0    16   0   0    17   0   0    17   0   0     0   2   0    16  16   0     0   0   0     0   0   0     0   0   0     2   0   0     0   0   0     0   0   0     0   0   0     0   0   0     0   0   0     0   0   0     0   0   0     0   0   0     0   0   0     2   2   0     0   0   0     2   2   0     2   0   0     0   0   0
  1   1   0    33  33  32    32  32  32     0   0   0     0   0   0     0   4   0     0   0   0     0   0   0     8   0   0    10   0   0     0  32   0     0  32   0     0   0   0     0   1  32     0   0   0     0   0   0     0   0   0    24   0   0     1   0   1     0   0   0     0   0   0     2   0   2     0   0   0     0   1   0    36  32   0    36   2   0    48  10   0     2   0   8     0   0   8     0   0   0     0   0   8     0   0  16     0   0   0     0   4   8     0  16   0     0   3   0     0  33   0     2  34   0     0   0   2    64   0   1     0   0   0     0   4   1     0   0   0     0  16   0     0   2   0     0   0   0    33   0   0     1   0   1     0   0   1     0   0   1     0  16   1     0   0   0     2   0   0    10   0   0     0   0   0     8   0   4     0   2  34     1 128  34     1   0   0     0   0   2     1   0   0     0   2   2     1   3   2     3   1   8     2   0   8    16   0   2    16   0  10     0  20   8    48   0   0     0   2   0     0   2   0     8   0   0     0   0   0    32   0   0     0   2   0     0   0   0    64   0  16    64  35   0    64   0   0    64   0   0    64  29   0    64   5   1    64  16 129     0   0 128     0   0   0     0   0   0    32   0   8     1   0 128     1   0 136     0   0 128     0   0 128     0   4   0     2   0   0     0   0   0     0   0   4     0 144   6    32 136   8     0   8  12     0   8  72    16   4  68     0 130   2    16   0   0     0   2  32     0  20   8     0  14   8     0   0   0     8  10   0    10   2   0     0   0   0     0 128   0     0   0   0     0   0   0     0   0   0     0   0   8     0   0   0     0   1   0    32  96   0     0   0   0     0   0   0     0  96   0     0   0   0    32  96   0     0   0  32     0   0   0     0   0   0     8   1  16     0   2   0     0   2  16     0   0  16     0   0   0     0   0   0   128   0   0     0   0   1   128   0   0     2   0  64   130   0   4     4   4   4     2   4   4     2   1   9     2  32   1     2  32   0     0   0   0     0   0   0   128   0   8     1   0   0     5   1   0     0   4   2     4   0  18     4   4   2     4   4   0     4   4   0     4   8   0     4   0   0     0   0   0     0   0   0    18   0   0     4   0   8    28   4  28    12  10  20     4   2  20    12   0   0    13  65   6     8  64   0     0  64  34     0  64   0     2   0   2     0   0  32    20  32  16    16  32  16    16  32   0     2   0   0     2   0   0     0   0   0     0  40   0    33   0   0     0   0  16    16   0  16     0   0  16     0   0   0     0  16   0     0   0   0     0   0   0     0   0   0     0   0   0     2   0   0     0   2   0     2   2   0    10  10   8     0   0   0     0   0   0     0   0   2     0   0   0     0   0   0     0   0   0     1   1   4     1   3   4     0   0   0     0   0   0     0   0   0     1   1   0
  0   0   0     0   0   0     0   0   0     0   0   4     0   0   0     0   0   0     2   0   0     2   0   0     0   0   0     0   0   0     0   0   0     0   0   0     0  32  32    24  32   0     0   0   0     0   0   0     0   0   1     8   0   1    16   0   0     9   0   0     0   0   2     0   0   2     0   0   2     2   0   0     2  34   0     2  42   0     2   2   8    16   0   8     0   0   0     0   0   8     0   0  24     0   0   0     4   0   8     0   4   8     0  16   0     0   2   0     1   0   0     2   1   2     3   0   2    64  32   1     0   0   1     0   4  67     0  18   0     0   4   0     0   2   0     0   0   0     0   0   2     1   0   2     9   0   1     8  17   1     8  16   1     8   8   0     8   8   0     8   0   4     0   0   0     0   0  32     0   0   0     0   0   0     1   0   0     0   0  32     0 128  34     0   2   2     0   2   8     0   1   8    18   0   0    32   0   2    48   0   0    48   0   0     0   0   0     0   2   0     8   2   0     0   0   0     8   0   0     0   0 128     0   0 128     0   1 128    64  33 128    64   0   0    64   0  24    64   0   0    64   1   8    64  17   9    64   1 131     0   0 130     0   0   0     0   0   2     0   0   0     0   0   2     1   0   4     0   4   4     0   4 132    34   4   1    18   4   0     0   0   0     0   0   0     1 128   0     0   8   0     0   8   0    32   0   4    48   0  64    16 128   0     0 128   2     0   0   0     0   8   0     0   0   0     0   0   9     8   0   4     8   2   1     0   0   0     0   0   0     0   0   0     0   0   0     0   0   0    32   0   0    32   0   0     0   1   0     0 116   0     0 113   0     0   0   0     0  24   0     0   0   4     0   0   0     0  96  33     0   0   0     0   0   0    24   0   0     0   2  16     0   2   0     0   2   0     0   4   4     0  32   0   128  32   0   128  32   0   128  32   0     0   1   0     0   0   0   128   1   8     0   0   8     4  32   9     2  32   0     0   0   0   128   0   1   128   0   0   128   0   0     0   0   0     2   0   0     0   0   2     4   4   2     4   0   0    20   2   0    16   0   0     0   0   0     4   0   0     4   0   0     2   0   0     0   0   0    24   0   0     8   8   1    16   2   8     4   2   0     4   2   0    13  33   0     9  32   0     0   0  18     0   0   2     0   0   0     0   0   0     0   0   0    16  32  16    16  32   0    33  32   0    66   0   0     2   0   0     0   0  16     0   0  16     0   0  16     0   2   0    18   2   0     0   0   0     4   0   0     4   0   0     0   0   0     0   0   0     2   0   0     2   2   0     2   2   0     2   2   0     0   0   0     0   0   0     2   2   2     1   1   2     0   0   0     0   0   0     8   0   0     8   0   0     1   1   0     0   0   0     1   3   0     0   0   0     1   1   0
  0   0   4     0   0   0     0   0   0     0   0   0     0   0   0     0   0   0     0   0   0     0   0   0     0   4   0     0   0   0     0   0   0    24   0   0     0  32   0     2   0   0     2   0   0     0   0   0     0   0   1     0   0   0     0   0   1     0   0   0     0   1   2     2   1   0     4   1   0     0   1   0     6  32   0     2  32   0     2   0   0    16   0   9    16   0  12     1   0  16     0   0  16     0   0   8     0  24   0     0  24   0     0  16   0     0  16   4     0  34   0    64  32   0     1   0   2     0   0   3     0   5   1     0   0   0     8   0   0     0   0   0     0   0   0     0   4   0     1   0   1    17  32   0    16   0   0    24  16   1     0  16   0     0   0   4     8   0   4     0   0   4     0  16   0     0   1  32     8   1  32     0   0   0     0   0   0     0   0   0     0   0   2     0   0   2     0   0   8     1   0   8     3   1   8     2   0   2     2   0   2    34   0   0    32   0   1     0   8   0     0   0   0     0   0   2     0   0   0     0   0   0     8   0   0     8   0   0     8   0   0     8   0   0     0   0   8     0   0   0     0   8  11     0   2   0     0   1   0     0   2   0     0 130   0     0 128   0    32   0   2     0   0   2    32   0   6     0   0   4    32   4   0    50   4   1     0   0  96     2   4 112     0   5   0     0   0   0     0   0   2     0   0   0     0   0   0     2   0  96    16 130   0    32   0   0     0 128   0     0 128   1     1   0  17     8   8   5     8   0   5     8   2   5     0   0   1     0   0   8     0   0   0     0   0   0     0   0   0     0   2  12     0   2   0     0   2   0     0   1   0     0  24   0     0   0   1     1   0   0     0   0   0     0   0  32     0   0   1     0   0   0     4   0   0     4  16   0     4   0   0     0   0   0     0   0   0     0   0   0   128  32   0   128  32   0     0  32  64     4  32   0     0   0   0     4   0   0   128   1   0     0   0   0     0   0   1     0   2   1     4   0   1   128   0  16   132   0  24     4   0   9     4   0   0     6  32   3     4   0   0     1  32   0     0  32   0    16   0   0    16   0   0    96   0   0     0   0   0     0   0   0     0   0   0    16   0   0     4   4   0     4   2   0     0   0   0    32   8   0    32   0   0    37  35   0    69  32   0     0   1   2     0   0   0     0   0   2    64   0   0     8   0   0    32   0   0     0   0   0     0   0   8     0   0   0     0   0   1     0  32   0     0   0  20     0   0   0    16   0  16    16   0   8    18   2   0     2   0   0     2   0   0     8   2   0     0   0   0     2   0   0     0   2   0     0   0   0    10  10   8     2   2   0     0   0   0     2   2   2     0   2   0     0   0   4     0   0   0     8   0   0     8   2   0     0   0   0     1   1   0     1   1   0     0   0   0     1   1   0
  0   0   4     0   0   0     0   0   0     0   0   0     0   0   0     0   0   0     0   0   0     2   0   2     2   0   0     0   0   4     0  24  24     0   0   0     0   0   0     0   0   0    32   0   0     0   0   0     0   0   0     0   0   1     0   0   0     0   0   1     1   1   2     1   1   0     0   1   0     8   0   0    10   0   0    10   0   0     2   4   4     3   0  12     2   0  72     0   0  72     0   0  84    32   0   0    32   0   0     0   0  64     0  66   0     0  18   4     0   0  32     2   4   0     0   4   0    32   4   2     1   5   2     1   1   4     8  20   0     0   0   0     8   0   0    16   0   1     0   4   0     1   0   0    24   9   0    24  17  32    24  16  32     8   0   4     0   8   4     0  16   0     0  16   4    32   0   4     8   0  32     1   0   0     1   0   0     1   0   2    32   0   2    32  96   0    32  96   2     0  96   0     1  97   0     2  96   2     0  96   4     0  96   6     0   8   0     0   8   0     0   0  64     8   0  72     8   0  64    40   0   0    40   1  96     9   0  96    32   4   0     0   0  96     0   0 104     0   0 106     0   0 106     0   0  10    32   0  96     0   0  96     0 130  98     0 130   0     0   2   2     0   0   0    32   2   4    32   5   0    32   5   0    48   0   1     0   0   0     1   0   0     0   0   0     0   0   0     0  16   0     0   1   0     0   0   0    16   2  16    16   0   0     0   0   0     0   0   0     1   0   9     0   1   1     9   1   5     8   0   0     0   0   5     8   0   9     0   0   9     0   0   8     0   4   4     0   0   4     0   0   4     0   0   8    16   0   8     0   5   8     0  16   0     0   0   0     1   0   1     0   2   1     1   0   0     0   0   0    16   4   0     4   0   0     0   0   0     0   0   0     0   0   0     0   0   0     0   0   0   128  32   0    16  48   0   128  48   0     0  32   0     4   0   0   128   0   0     0   0   0     0   0   0     0   0   0     0   2   0   136   0   1     4   0  17     8   0  16    12   0   0     0   0   0     3   0   2     0  32  34     1  32  34     0  32  32    17   0   0    96   0   0    96   8   0     0   0   1    32   0   0     0   0   0     0   0   0     0  12   2    24  12   2    16   2   2     0   2   0    64  34   0     1   1   0     4  32   0   100  37  16    96   0   0    32  16   4    32  17   0     8   0   0     4   0   0    20   0   0     0   0   0    16   0   0    16   0   0     0   0   0     0   0   0     0   0  17     0   2   0     0   2   8     9   0   0    10  10   8    10   9   0     8   9   0     0   0   0     0   0   0     0   0   0     0   0   0     0   0   0     1   1   1     1   1   1     1   1   1     0   0   0     0   0   0     0   0   0     8   0   0     0   0   0     8   0   0     1   1   8     0   0   0     0   0   0     0   0   0
  0   0   0     0   0   0     4   4   4     0   0   0     0   0   0     0   0   0     0   0   0     0   0   0     0   0   0     0   0   0     0   0   0     0   0   0     0   0   0     0   0   0    32   0   0     0   0   0     0   0   0     0   1   0     0   0   0     0   0   0     0   0   0     1   0   8     0   0   0     0   1   0     8   0   0     9   2   0     0   0   0     8   0  68     0   0  68     2   0  80     0   0  80    32   0   0    32   0   0     0   0   0     2   2   0     0   2   0     0   6   1     1  36   2     0   0   2     0   5   0     1   1   0     0   4   0     0   0   8     0   0   8    16   0   0     0   0  16    16   0   1    16   0   1    26   9   0    16  16  32    16  16  32    24   0   2     0   0   2     0  16   4     0   0   4     0   0   5     0   0  32     0   0   0     1   0   0    33   0   2    32 112   0    32  96   2     0  96   4     1  96   0     0 112   2     0 112  10     0 112   2     0  96   6     0   0   2     0   8   0     0   0   0     0   0   2     0   0   0     2   0   4     0   0 100     8   0 100     0   0   4     0   4   4     0   0   0     0   0   0     0   0  16     0   2  18     0   0   0     0   2   2     0   8   0     1   0   4    32   0   0     0   0   0    32   2   0     0   5   0    32   0 104    32   0   1     0   0   0     1  16   0     0  16 128     0   0 128     0   0 128     0   1  16     0   0   0    16   0   0     2   0   0    16   0   0    16   4   0     1   0   1     1 129   1     9 128   0     8   1   0     8   1   0     0   0   8     8   0   0     8   0   0     0   4   0     0   0   8    16   0  32     0   0  32     0   0   0     0   4   0     0   0   0     0   8   1     1   0   1     0  16   1     1   0   1     0   0   0     5   0   1     0   0   0     8  20  32     0   0   0     0   0   0     0   4   0     1   0   3   100   2   0    96  18   2     4  32  64     4  32   0     0   0   0     4   0   0     4   0   0     0   0   0     8   0   0     0   0   0    12   0   1     4   0   0    12   0  16     0   0   0     8   0   0     0   0   0     0  96   2     0   0  34     0  32  32    16   0  32    96   0  32    96   0   0     0   0   0     0   8   0     0   8   1     0  32   0     9   0   0    17   6   2    48   2   0    96   2   0    32   0   0     2   0   0     6  36  16   100  33   0   100   1   0     0  17   0     0   4   0     0   0   0     0   5   0     0   0   0    16   5   8    24   0   0     8   0  12     0   0   0     0   0   0     0   0  17     0   0   0     0   0   0     0   0   0     8   8   8    10  10   8     0   0   0     0   0   0     0   0   0     0   0   0     0   0   0     0   0   0     2   2   2     0   0   0     2   2   2     0   0   0     2   2   0     0   0   1     0   2   0     0   0   0     0   0   0     1   1   0     0   0   0     0   0   0     0   0   0
  0   0   0     1   1   0     0   0   0     4   4   4     4   4   4     0   0   0     0   0   0     0   0   0     0   0   0     0   0   0     0   0   0     0   0   0    32  32  32    32   0   0     0   0   0     0   0   0     0   0   0     0   0   2     0   0   0     0   0   0     0   0   0     1   0   0     0   0   0     3   0   0     8   2   8     9   2   0     1   0   0     8   0   0     8   0  24     0   0  64     0   0  16    32   0   0     0   0   0    32   0   0     3   1   0     2  64   1   129   2  33     8   0   0     0   4   0   104   4   0     0   0   0     0   4   4     0   0   8     0   0   8     0   8   0    16   0   1     0   0   1     0   0   2     8   8   0     0  17  32     0  16  32     0  16   4     0  16   4     0  16   0     0   0   1     0 112   1     0   0   1     4   8   0     5   8   2     1   8   2     1   0   2     0   0   0     1 128   6     1 144   0     0 148  10     0 132   2     0   0   2     0   0   0     4   0  66     0  16  64    64  24   0    64  16   0    64  16   0    64   0   0     0   4   0     6   4   0     0   0   0     0   4   0     0   0   0    64   0   0    64   0   0    68   0   0     0   0   0     0   8   0     0   0   4     1   0   1     1   2   1    32  16   0     0   0   0     0   0   0     0   0  96     1  16   1     0  16   0     0  16 128     0  16 128     0   0   0     0   1   0     0   3   0     5   1   0     1   0   0     3   0   0     0   0   0     0   4   0     0   0   0     1   1   0     1   1   0     8   0   8     8   2   0     8   0   0     0   0   0     8   0   0     0   4   4     8   4  44     8   4  40     0   0  32    16  48   8     0   4   0     0   4  10     0   4   0     0   0   0     0   0   0     1   0   1     0   4   0     1   0   1     0   0   0     8   4   0     0   0   0     0   6   0     0   0   0     0   1   0     2   0   2    96   0   0     0  32   0   132  40   0     4   0   0     4   8   0     0  32   0    24  40   0     8  32   0     0   0   0     0   8  16     8   2   0     0   0  16     9   0   0     0   0   0     0   0   0     0   0  32    16   0   0     0   0   0     1   0   0     0   0  32     0   0   8    96   0   2     0   0   0     0   0   0     0   8   0     9   8   0     8   0   0     0   0   2    65   1   0    64   0   0     0   0   0     0   0   0     4  16   0    64   4   4     0   0   4     1   0   9     8   8   9     0   0   1     0   0   0    16   0   0    16   0   0    18   2   4     0   2   0     0   0   0     0   0   0     0   0   0     0   0   0     0   0   0     0   0   0     2   2   2     2   2   2     0   0   0     0   0   0     0   0   0     0   0   0     0   0   0     1   1   1     0   0   0     2   2   2     0   0   0     2   0   2     0   0   0     0   0   6     0   0   0     0   0   0     1   1   0     0   0   0     0   2   0     0   2   0
  0   0   0     0   0   0     4   4   4     4   4   4     4   4   4     4   4   4     0   0   0     0   0   0     4   4   4     0   0   0     0   0   0     0   0   0    32  32  32    32   0   0     0   0   0     0   0   0     0   4   0     0   0   2     0   0   0     0   0   0     0   0   0     0   0   0     0   0   0     0   0   0     1   2   8     0   0  16     0  18   0     0   0  16     8   0   0     2   0   0     0   0   2     0   0   0     0   0   0    34   1   0     2   1   0     0  96   0     1  96  33     0   0   1    64   0   0    96   0   0    96   4   0     4   0  64     0   0   8     0  16   8     0  16   0    16   0   0     2   0   0     2   0   2     0   0   0     0   8  32     0  18  32     0  16   2     0  16   0     0  16   0     0  16   0     0   0   0     0   0   0     0   8   0     0   0   0     1   0   0     1   0   0     1 128   0     0 128   4     0 128  20     0 128   0     0 132   8     0   0   0     0   0   0     4   0  64     0   8  64    64   0   0    64  16   0    64  16   0    64   0   4    64   4 132    68   0 128    68   0   0     0   0   0    64   0 128    64   0 128    64   0 128    68   0 128     0   0 128     0   0   0     0   0   4     0   0   0     1   2 113     1   0   1     1   0   1     0 144  96     0 144  96    22  16   2    32   0   0    32   0   0     0   0   0     0   0   0     0   2  32     4   3   0     5  97   0     1   0   0     2   0   0     0   0   0     0   0   0     0   0   0     0   0   1     8   0   0    24   0   8     8   2   0     0   2   0     0  64  32     1   0   0     1   0  32     8   4  12    16  24   8    16  16   4     0  16   6     0   0   0     0   0  16     0   0   0     0   0  16     0   0   0     0  16   0     0   0   0     1   0   1     0   0   0     0   0   0     0   0   0     0   0  16     0   0  16     0   0   0     0   0   0    96   0   0     0   0   0     0   0   0     0  32   0     0  32   0     1   1   1    98   8  64   107  41  17     2   0   0     0   0   0     9   1   0     1   0   2     0   0   0     0   0   0     0   0   0     0   0   0     0   0   0     0   0   0     0   0   8     0   4  40     4   0   2     0   0  10     0   0   0     0   8   0     8   8   0     0  32   0     2   0   0     2   2   0     1   1   1     1   3   1    32  16   0     4  20   0    36  16   0    68   0   0    32   0   0     0  32   0     0  32   0     0   0   1     0   0   0     0   0   0     1   0   0     2  32   0     0   2   0     0   0   0     0   0   0     0   0   0     0   0   0     0   0   2     2   2   0     0   0   2     2   2   0     2   2   0     0   0   0     0   0   0     0   0   4     0   0   4     2   2   0     0   0   0     2   2   0     0   0   0     2   2   4     0   2   2     0   0   6     0   0   6     0   0   0     0   0   0     0   0   0     0   0   0     0   2   0
  1   1   2     0   0   4     4   4   4     0   0   0     1   1   1     5   5   5     0   0   0     0   0   0    24  24  24    28  28  28    30  30  30    30  30  30    28  28  28    28  28  28    24  28  28    24  28   0     0   0   0     0   0   0     0   0   0     0   0   0     0   0   0     0   0   0     0   0   0     0   0   8     4   1   8     4   8  16    32  16  16     0   0   0     0   2  16     8   0   0     8   0   2    24   1  18    48   1   0     2   1  32    17   1   0     0  97   0     0  33   1     0   0   0     0   0   0     0   0   0     0   4   0     0   0  76     4   1  72     0  16  64     0  80   0     2   0   0     2   0  18     2   0   0     0   0   2     0   0   0     0   4  32     0   4   0     0   0   4     0   0  16     0   0  16    16   0   8    32   0   8     0   0  18     1   0   0     1   0   0     0   0   0     0   0   0     0   0   0     0 132   0     0   9   0     0   0   0     8   0   0     0   0   0     4   4   2     0   0   4     0   0   0     0   0   0     4   2   4     4  10   2     4   8   4     0   9   0     0   0   0     0   0   0     0   0   0     4   0   0     4   0   0     4   0   0     0   0   0     0   0   0     0   0   0     0   0   0     0   0   0    16   0   0     0   0   0     2 136   2     0 128   0     0   0   0     0   0   0     0   0   0     0   0  16     8   0  48     8  10  32     5  33   0     5   1   0     4  32   0     0   1   0     0   0   2     0   0   0     0   0   0     4  64   8     8  96   8     4  32  10     0   0   0     0   0  32     4   0   0     5   0   0     8   0   0     1  40   8     0   8   8     0   0   0    16   0   8    16  16   0    16  16   4     0   0   0     0   0   0     0   0   2     8   0   0     0   0   0     1   0   1     0   0   0     0   0   0     0   0   0     0   0  16     0   0  16     0   0   0     0   0   4   112   0   0   112   0   0     0  18   2     0  40   0     8   0   0     0   0   0    96  24   0    96  16   0     8   0   0     8   0  16     0   2   0     0   0   0     0   0   0     0   0   0     0   0   0     0   0  64     4   0   6     4   0 112     4   0  64     4   4   8     4  18  33     0   0   2     0  18   0     0   0   0     0   8   0     8   0   0     0   2  81     0  16  81     0   0   1     0  16   0    32   0   1    36   4   5     0   0   3     0  32  16    64   0  16     0  32   0    64  72   0     0   0   0    66   0   0     2   0   0     0   0   0     0  32   0     2   0   0     0   0   0    16   0   0     0   0   0     0   0   2     0   0   2     0   0   0     0   0   0     0   0   0     0   0   0     0   0   0     0   0   0     0   0   4     0   0   4     0   0   0     0   0   0     0   0   0     0   0   2     0   0   0     0   0   0     0   0   0     0   0   0     0   0   1     0   0   0     0   0   0     0   0   0     0   2   0
  2   4   0     6   4   4     4   4   4     4   4   4     5   5   5     4   4   4     5   5   5     1   1   1     0   0   0    24  24  24    30  30  30    26  26  26    24  24  24    24  24  24    28  24  24     0   0   0     0   0   0     0   0   0     0   0   0     0   0   0     0   0   0     0   0   0     0   0   0     0   0   0     4   0   0     0   0   0     0   0  25     0   2  17     0  18   0    64  32   0     8  32  32     0  32   0    34   0   0     0  33  33     1  33   0     1  33  32     1  33   1     0   0   1     0  16   0     0  16   0     2   0   0     2   0  74     4   0  10     2   0  10     2   0   2    34   0   2     0   8  18     0   1  18     0   0   0     0   0   0     0   0   0     0   0   2     0   0   2     0   0  16     0   0  16     0  16  24     0  16   0     1   0  18     1   0   2     1   0   0     0   2   0     0   0   0     0   0   0     0   0   0     0   0   4     0   0   5     0   0   0     0   0   6     0   4   2     0   0   0     0   0   0     4   0 112    48   0 116     4   0   2     5   8  21     1   8   0     0   0   8     0  16   9     0   8   8     0   8   0     2   0   0     0   0   0     8   0   0    24   0   0     0   4   0     0   0   0    16   0   0    16   0   0     0   0  96     0   0   0     0   0   0     0   0   0     0   0   0     0   0   0     0   0  48     8   0  32     1   0  33     3  34   1     1  33   0     0  32   1     0   0   0     0   0   1     0  64   0     0  16   2     0  16  10     0  48  10     0   0  10     0   0   0     0   0   2     4   0   0    12   0   2     8   0   0     0   0   0     0   0   0     8   8   0     0   0   4     0   0   8    16  16   0     0   0   0     8   0   4     0   0   0     0  32   2     0   0   0     1   0   1   132   0   0     4   0   0     0   0   0     4   0   4     0   0   4     0   0   0     0   0   4   112   4   4     0   0   0     0  24   4     0   0   0     8   0   0     1  17   0    96   0   0    96   0   0     3  17   1     8   0   0     1   0   0     0   8  16     0   8  16     2   8   0     4   8   0     0   0 102     0   0 116     0   0 112    20   0  96     4   0   2     0   0   1   128   0   1     0   2   1     0  64   1     0   0   1     0   0  64     0   2  64     0   2  65     0   0  64     0   0   3     0   0   1     4   0   1     0   0  16     4  32  18     0  34  18     0  32   0     0   8   0     2   0   0     2   0   0    32   0   0     0   0   0     0   0   0    19   0   0     0   0   0    17   0   0     0   0   0     0   0   0     0   0   0     0   0   0     0   0   4     0   2   0     0   2   0     0   0   0     4   0   4     0   0   0     0   0   4     0   0   4     0   2   0     0   0   0     0   0   0     0   0   1     0   0   0     0   0   0     0   0   0     0   0   0     0   0   0     0   0   0     0   0   0     0   4   0
 10  10  10     0   4   0     4   4   4     0   0   0     1   1   1     0   0   0     1   1   1     1   1   1     0   0   0     1   1   1     0   0   0     0   0   0     4   4   4     4   4   4     0   0   0     0   0   0     0   0   0     0   0   0     0   0   0     4   4   0     0   0   0     0   0   0     4   0   0     4   4   2     4   4   9     0   0   1     0   0   1     0  16  17     0  51   0     0  32   0    64   0  32     8   1   0     0  33   0     0  32  33     1   1   1     1   1   1     1   1   1     0   0  17     0   0  16     0   0  16     0   0   0     0   0   8     0   0   2     0   0   0    32   4   0    32   0   0     1   1  18     0   0   0     0   0   0     0   0   0     0   8  34     0   0   2     0   0   0     0   0  16     1  16  16     0  16  16     9   1   0    16   0   2    16  16   0     0   0   0     0   0   0     0   0   0     0   0   2     0   8   0     0   4   0     0   3   2     0   0   6     0   0   4    16   1  18     0   1  22     0   5   6     4   0  20     0   1  22     0   1  18     0  12   0     0   0   0     0   8   4     4   8   8    12   8   8    20   8   0     2   0   0     2   0   1     1   0   1     0   0   0     0   0   0     0   0   0     0   0   0     0   0   0    16   1   8     0   0   0     0   0  16     0   0   0     0 128  16     0   0   2     0   0   0     0   0   0     1   0   1     0   0   1     0   1   1     0   0   0     0   1   1     0   0   1     0   0   2     0  48  10     0   0   2     8   8  10     0   0   2     0   0  10     0   0   8     0   0   2     4   8   0     8   8   0     8   0   0     8   0   0     0   0   0     0   0   0     0   0   8     2   2   8     0  32   0     0  34   0     0  32   2     0  32   2     4   0   0     0   0   0     0   0   4   129   0   0     4   0  64   132   0  64     0   0   0     0   0   0   112   4   0   112   4   0   120  12   0     0   4   4   120  24   0   112  16   0   112  16   0   112  16   0    16   0   0     0  16   0     0   0   0   128  32   0     0   0   0     0   8  16     0   8  16     0   8   4     0   0  32     0   0   1    16   0 114     8   0  66     8   8  64     8   0   3   128   0   2     0   0   1     8   0   0     0   2   0     4  64   1     0  32  64     0  16  96     0  16  32     0   0   1     0   0   0     0   4   0    52  32  20     0  32   0     0   0   0     0  32   0     2  24  10     2   0   0    32  32  10     0  32   0    32   0   4     0  32  32    17   0   0    17   0   0     0   4   0     0   4   0     0   4   0     0   0   0     0   0   0     0   2   0     0   0   0     0   6   0     0   2   0     0   0   0     0   0   4     0   0   4     0   0   0     4   0   0     0   0   0     0   1   0     0   1   0     1   1   0     0   0   0     0   0   0     0   0   0     0   0   0     0   0   0     0   0   0     0   0   2
  2   0   8     4   0   0     0   0   0     0   0   0     1   1   1     1   1   1    28  28  28     0   0   0     0   0   0     0   0   0     1   1   1     0   0   0     4   4   4     4   4   4     4   4   0     0   0   0     0   0   0     4   4   4     4   4   4     0   0   0     4   4   0     4   0   0     0   0   2     2   0   0     0   4   2     0   0   3     0   0   0     0  32   0     0  32  32     1  32   0    65  32  32    68  32   0    64   1   0     0   0   1     0  13   1     0   4   0     0   8  16     0   0  19     0   0   0     0   0  16     0   0   0     0   0   0     0   0  10     0   0   0    32   0   0     0   4   2     0   4   2     0   0  16    16   0   0     0   0   0     0   0  33     0   0   2     0   0   0     0  16  18     0   1  16     0   0   3     0  96   0     0  96   0     0  16   0     0 112   0     0 112   0     2   0   0     0   0   2     0   0   0     0   0   4     0   0   6     0   2   0     4   6   4     0   4   4     4   1   4     0   5   0     0   0 100     0   4  96    32   4 100     0   0 100     1   0   0     0   0   4     5   0   0     0   8   8    16   0   8     1   0   0     0   0  16     0   0   0     3   0   3     1   0   1     0   0   0     0   0   0     0   0   0     0   1   0     0   1   0     0   0   0     0   4  16     0   4  16     0   0   6     0   0   4     0   0  32     2   3   4     2   3   0    16   1  20     0   0  16     0   0   0     0   0   0    32   0   8     0  32   0     0   0   8     0   0   8     0   8   8     8   0   4     8   0   0     0   0  32     4   0   0     0   0   0     8   0   0    16   0   0     0   0   1     0   0   0     0   0   0    64   0   8     2   0   2     0   0   2     0  32   0     0  32   2     0   0   2     0   0   8     4  32   0   128   0   4     0   0   0     0   0  64     0   0  68     0   0   0     0  20   0     0   0   0   112  16   0   120  24   0   104   8   0   112  24   0   104   0   0     0   0   0    16  16   0     0   0   0     0   0   0   128  32   0     0   8   0     0   0  16     0   0  16     0   0  36    32   0  40    32   8   8    16   1  96    24   0  66    24   0   2     8   0   0     0   0   0     0   8   0     0   0   0     0  32  32     4  64  32   128   0   0     0   0   2     0   0  64     0   4  64     0  32   0     0  36   0     0   4   8     0  32   0     0  32   8     0  48   0     0   0   0     0   0  10    34   2   0     0  32   0    52  33   0    32   0   0    20   0   0    17   0   0     0   0   0     0   0  16     0   0   0     8   8   0     0   0   0     0   0   0     0   2   0     0   2   0     0   0   0     0   2   4     0   0   0     0   0   0     0   0   0     0   0   0     0   0   0     0   0   0     0   0   0     1   1   0     1   1   0     1   1   0     0   0   0     0   0   2     0   0  10     0   0  10     0   0  10
  0   8   0     0   0   0     0   0   0     0   0   0     1   1   1     1   1   1     1   1   1     0   0   0     0   0   0     0   0   0     1   1   1     0   0   0     0   0   0     0   0   0     0   0   0     0   0   0     0   0   0     0   0   4     0   0   4     0   0   0     0   0   0     0   0   0     0   0   0     2   0   2     0   0   2     0   0   2     0   0   0     0   0   0     0   1   0     1   1  32     1   0  32    97   0   0    64   0   0     0   4   0     0  25   1     1   1   1     0   8   0     0   0  18     0   0  16     0   0   0     4   0  16     4   0   8     0   0   8    32   0  72    32   0   2    32   4   2    16   5  18    16   1  18     4   0  16     0   0   3     0   0   1    16   8   0     0   0   4     1   1   2     0   1   0     0   0   1     0  97   0     0  96   0    16 112   0     4  16   0     0   0   0     0   0   2     0   0   2     0   0   0     0   0   0     2   0   0     0   0   8     0   0   4     4   4   4     0   0   1    32   1   4    36   8   0    32   8   4    32   4   0    32   4   0    32   0   0     0   0   0     0   2   0     0   6   0     0   0   0    17   0  16     9   0  17     0   0   0     1   0  33     0   0   0     0  96  32     0   2   4     0   1   0     0   0   0    16   1   0     0   0  16     0   1  16     0   4  16     0   0   0     0  16   0     0  16   0     2   2   0     0   1   0     0   1   0     0   0   0     0   0   0     0   0   8     0  16   0     1   4  12     5   8   1     0   0   0    12   0   8     8   8   8     0  16   0     1   0   0     0   0   0    24   8   9    24   0   1    16   0   1     2  32   1     2  32   0     0   0   0    64   0  10    64   0   2    64   3   2     0   1   0     0  33   0     0   0   8     4   0  12     4   0   8     0   0   4     4   0   0     0   0   0     0   0   0     0   0   0    96  16   0    10  12   0     6   0   0     0   4   0    20  20   0    24  24   0     8   0   0     0   0   0     0   0   0     0   0   0   128  32   0     0   0   0     0  40   0     0   0   0     0   1  16     0   8   0     0   8   8     0   8   8     0   0   8     0   0  64     0   0  32     8  10  32     0   0   0     0   8   0    64   8   0     0  32   0     5  64   0     4  80   0     4   0   0     0  20  96     0  68   0   132   4   0     0  64  64     0   0   8     0   0   0     0  48   0    66  48   0    66   0   0     1   0   0     0   0   0    32  34   0     4  41   0     0   8   2     5  40   2     1   0   0     5   0   0     0   0  16     8   0   0     8   8   1     1   0   1     0   0   0     0   0   0     0   2   0     0   2   0     0   0   0     0   0   0     0   0   0     0   0   0     4   0   0     0   0   0     0   0   0     0   0   0     1   0   0     1   0   0     0   0   0     1   1   0     0   0   2     0   4   2     0  24   2     8   0   0
  0   0   0     0   0   0     0   0   0     0   0   0     1   1   1     0   0   0     0   0   0     0   0   0     0   0   0     0   0   0     0   0   0     0   0   0     0   0   0     0   0   0     0   0   0     0   0   0     4   0   0     0   0   0     0   0   4     0   0   0     0   0   0     0   0   0     2   0   0     0   0   2     2   0   0     0   0   0     0   0   0     0   1   0     0   1   0    32  32  32    49  32   0    37   0  32     0   0  32     0   4   0     0  20   1     0  21  17     0  24  16    32  16   0     0   0  16     0   0  16     0   0   0     4   0  16     4   0  64     0   0  16    36   0   8    32   0  24     4  12   0     0   0  10     4   0   0     0   0   3     0   0   1     0   0   0     0   0   4     0  17   2     0   0   0     0   0   0    16 113   0     1  96   0    17 112   0     1 112   0     4   0   0     0   0   2     2   0   2     2   0   0     0  18   0     0  16   0     0   2   0     0  16   0     0   0   0     0   0   4    32   4   4    32   0  36    32   0   0    32   0  36    32   4   4    32   0  32    32   0  32    32   0   0     0   2   2     0   0   0     0   0  16     4   0  16     0   0   0     0  16   0     0  16   0     0   0   0     0   0  20     0   0  16     0   0   0    16   1   0     0   0   0     0   0  16     0   0  16    16   0  12     2  16  12     2   2   8     0   0   0     2   0   0     4   0   0     4   0  16     4   0   0     0   0   0     0   0   0     0   0   0     0   0   0     1  32  32     4   8   0     1   8   0     0   0   0     8   0   0     8   0   0     0   0   1    10   0   0    82  32   0    80  32   0     0   0   0    64   0   2    64   0  10    64   1  10     0   0   0     0   0   0     0   2   0     0   0   0     0   0   0     4  32   0     4   0   0     0   0   0     0   0   0     0  16   0     0   0   0   114  20   0   119  22   0   118  22   0     0   0   0     0   0   0     8   0   0     8   0   0     8   0   0     0   0   0   128  32   0   128  32   0   128  32   0     0   0   0     0  32   0     0   0  16     0   0   0     0   0   8     4   0   0     2   0   8     0   0  64     0   0  32     0   0  16     0   0   0     0   0   0    96   8   0    96  40   0     0  32   0     0   0   0     4  80   0     0  64  64     0  64   0   128  64  32   128  64  64     0  64   0     0   0   0     0  32   0     0  16   0     2   0  32     0   0   0     0   0   0     0   0   0     4  33   0     4  41   2     5   0   2     1   0   3    20   0   6     0   0  18     8   0  21     8   8   1     1   0   0     1   0   1     0   0   0     0   0   0     0   0   0     0   8   0     2   8   0     0   0   0     0   0   0     0   0   0     0   0   0     0   0   0     0   0   0     0   4   0     0   5   0     1   1   0     1   1   0     2   0   2     0  24   0     0  16   0     0   0   0
  0   0   0     0   0   0     0   0   0     0   0   0     0   0   0     0   0   0     1   1   1    25  25  25     0   0   0     0   0   0     0   0   0     0   0   0     0   0   0     0   0   0     0   0   0     0   0   0     0   0   0     0   0   0     0   0   0     0   1   1     0   0   0     0   0   0     2   0   0     2   2   0     2   0   2     2   0   2     4   0   2     0   0   0     0   0   0     1   0   0    32  32  32     1   4  32     0   4  32     0   4   0     0  16   1     0  17   0     0   4   0     0   8   0     0   0  16    36   0   0     4   0  16     0   6   8     0  34   1     4   0   9    36   0   8     4   0  64     0   0   0     0   4   0     6   0   0     6   0   2     0   0   3     0   8   0    16   0   4     0   8   6    16  16   0     0   0   2    17   1   0     1  17   0    17   0   0     4   0   0     4   0   0     0   0  37     2   0   4     0   0  40     0  66   8     0  64  40     1  64  32     2  80  32     1  50   0     2  96  36     0  88   4     1   0  36     2  64   0     0  68   0     0  68  32     0   0   4     0   0   0     0   0   0     1   0  16     0   0  16     0   3  16     0   0   0     0   0   0     0  16   0     0  16   0     0   0  32     0   2   4     0   1  16     0   6  16     0   0   0     0   1   0     0   0  16     0   0  16     0   0  28     2   0  12     2   2   8     2   0   0     0   0   0     0   0   0     0   1   0     0   0   0     0   0  32     4   0   0     0   0   0     4   0   1    16   0   0     0  16   1     0  16   0     1   0   2     0   0   1     8   0   1     8   0   0    32   0   0     0   0   0     2   0   0    16  32   0    16  16   2     0  16   8    64   1   8     0  65   0    68   1   0     0   2   0     4   0   0     0   8   0     4   0   4     4   0   0     0   0   2     0   0   2     0   8   2     0   0   0   114   8   0   114   0   0     2   0   0    96  20   0     0   0   0     0   0   0     0   0  65   128  32   1     0   0   1   128  32   0   128  32   0   129  32   0     0   0   0     0  32   0     0  32   0     0   2   0     4 128   0     0   0   0     4   0   0     0   0   0     0 128  32     0  16  16     0  16  16     0  24   0     0   8   0    64  40   1    64   0   0     8  32   0    64   0   0     0  64   2   149   5   0   129   1   0   145  65   0     1  65   0     0   0   0     0   0   0     0   0   0     0   0   0     0  64  32     0   0  32    32   1   0     2   0   0    32   1   2     1   0   6     1   0   5    17   0   0     0   0   2     8  10   0    10   2   0     2   0   1     4   2   0     0   0   1     0   8   0     0   8   2     0   0   0     0   0   0     4   0   0     0   0   3     0   0   2     0   0   0     0   0   0     0   0   0     0   4   0     0   4   0     0   0   0     0   0   0     2   0   0    16  16  16    32  36  32     0   0   0
  2   2   0     0   0   0     0   0   0     0   0   0     0   0   0     0   0   0     0   0   0     2   2   2     0   0   0     0   0   0     0   0   0     0   0   0     0   0   0     0   0   0     0   0   0     4   4   0     4   0   0     0   1   1     0   1   9     0   1   9     0   0   0     0   0   0     2   2   2     3   3   3     3   0   2     2   0   2     4   0   2     0   0   0     0   0   0     0   0   0     0   0   0     0   0   0     0   4  32    16   4  34     0   0   0    16   5   2     0  16   0     0  24   0     0   8   0     0   0   1     0   0   0     4   2  17     0   0  16     0   0  65     0   0  64     0   0   3     4   0   0     6   0   0     2   0   0     2   0   2     2   0   1     0   4   0     0   0   0     0   0   0     0   0   0     1   1  18     1   1   0     1   1   8     5   1   0     0   0   0    20   0   0    40   0  12     2  64  36     0  64   0     0  64  32     0  66  32     0  64   0     0  18   0     3  34   0    19  34   4     0  48   0     8  16  34    25  64   0     1  80   0     0  64   0     0   0   0     0  16   4     0   0   4     0   2   0     0   0  16     0   2  16     0   0   0     0   1   0     0   0   0     0   1   0     8   0   0     0   0   0     0   0   0     8   4   0     0   4   0     0   2   0     0   2  16     0   0  16     0   0   0     0   0   8     0   0   0     2   0   0     2   1   0     6   0  16     0   0  16     0   0   0     0   0   0     0   0   0     4   0   0     4   0   0     4  32   0     0  32   0     0   0   0     0   0   0     0   0   0     0   8   0     8   8   1    32   4   1    40   0  16     0   0   4     8   0   4     8   0   0     0   1   8     0   0   0     0   1   0     4  66   0     0  66   0    66   0   4     0  40   0     6   8   2     0   8  64     8   1   1     8  16   0     0   8   0     0   0   0     0   2   0     0   0   0     0  18   0    96   0   0     0   0   0     0   1  65     0   0   1   128  32   1   128   0   0   128   0   0     8   0   0     9   0   0     0   0   0     0   0   0     0   0   0     0   0  16     4   0  16     8   0   0     4   0   0     0   4   0     0 132   0     0   0  64     8  16   0     0  16   0     8   0   0     0  32   1     0   0   0     8   8  16     0   0  16     0   0   0     0   0   0     0  32   0   129   1   0     3  32  32     1  32  32     0   2  34     0  66   0     0   2  32     0   2  32     2   2  32     0   0   0     0   1  16    32   0   0    33   4   4     0   2   7     0   2   0     1   0  18     8   8   4    10   8   0     4   4   1     4   1   1     0   0   0     0   0   0     0   0   2     0   0   0     0   1   0     0   1   1     0   5   1     0   1   3     4   1   0     0   0   0     4   0   0     4   6   4     0   4   4     4   4   0     0   4   0     0   0   0    16   0   0     0   0   1     0   2   0
  0   0   0     0   0   0     0   0   0     0   0   0     0   0   0     0   0   0     0   0   0     1   1   1     1   1   1     1   1   1     0   0   0     0   0   0     0   0   0     0   0   0     0   0   0     4   4   0     0   0   0     0   1   1     0   0   8     0   8   0     0  10   8     0   8   8     1   1   1     2   1   1     0   1   3     0   0   2     2   4   0     2   0   0     1   0   0     1   0   0     0   0   0     0   0  16     0   0   0    16   0   0    32   0  34    16   0   0     0  24   2     0   1   2     2   2   1     0   3   0     4   3  33     4   0  33     4   0  64     0   0  32     4   0   2     4   0  96     0   0   1     0   8   0     0   0   0     4  16   0     4   0   0     0   8   0     4   8   0     4   0   0     0   8   0     0   0  16     1   1   0     0   0   2     0  64   0     4   0   0    20   0  32    48   0   0     0   0  32     4   0   8     4   2   8    64   0   0     0   0   0    64  16  32    18  16   0    19  32   2    17   0   2    25   0   0     1   8   0     8   0   1     0   0   0     0   1   0     0   1   0     0   0   0     0   2   0     0   2   0     0   0  16     0   0   0     0   0   4     0   0   4     0   1   4     0   1   0     0   4   4     8   2   0     8   4   8     0   0   0     0   2  32     0  10  32     0   0   0     0   0   0     1   0   0     0   0   0     0   1   8     0   1   8     4   0   0     4   1   0     0   0  16     0   0  16     0   0   8     0   0   8    16   0   0    16   0   1     2   2   0     2   0   0     0   0   0     0   0   0     9   0   1     0   8   1    12   8   1    12   0  16     0   0  16     4   1   0     0   0   0     0   0   0     0   9   0     0  33   0     0  98   0    64  32   0    64  64   0    64  32   0     0  40   0     0   0  66     0   9   0     8   8   0     0   8   2     0   0   0    16   0   0     0  16   0   112   0   0     0  17   1    64   0   1    32   0  64     8   0   2   128   0  82   128   0   2     0   0   0     0   0   0     1   0   0     1   0   2     0  40   0     0  16   0     0  96   0     0   0   0     0   0   0     4   0   0     0 128   0     8   0   0     0 128   0     8  18  64     0   0   0     0   0   0     0   8   0     0   0   0     8  32   0     0  32  16     0  36   2     0  32   0     2  52   0     2  48   0     1   0   0     2   0   0     8   0  16     4   0  16     4   2   2     4   2   2    32   0  18    32  34  16    32  32  17     0   0   0     1   4   6     1   4   2    17  14   4     0  12   4     0  12   0     0   0   0     4   1   0     0   1   1     0   1   1     0   1   4     0   0   2     8   0   0     0   1   0     8   9   0     8   0   4     0   9   0     4   8   2     0   0   0     0   0   0     0   0  12     4   2   9     0   2   0    12   0   0     0   0   3     0   0   0     0  16   1     0  16   0
  0   0   0     0   0   0     1   1   1     0   0   0     0   0   0     0   0   0    24  24  24     1   1   1     1   1   1     0   0   0     0   0   0     0   0   0     0   0   0     0   0   0     0   0   0     4   4   0     4   0   0     4   0   0     4   0   0     2   0   0     2   0   0     0   0   0     1   1   1     1   0   0     1   4   2    32  32   2     0   8   2     0   0   0     8   0   0     1   0   0    16   0   0    16   0   0     0   0   0    32   0   0    18  22  32    34  20  34     0  16  34     0   0   2     0   0  32     0   2  33     0  64  96     0   0  65     4   0  96     4   0  32     4   0  64     0  32   1     0  32   0   128   0   1     0   0   0     0   0   0     0   0   0     0   0   0     0   8   0     0   0   0     0   8   0     0   0   0     0   0   0     0   0   0     4  96  32     4  64   0     4  96   0    16   0   0     0   2   0     0   0   0     0   0   0     0   0   0     0  32   0    64  32   0     0   0   0     2   0   2     0   0   2     0   0   2     0  32   0    24  32   1     0  16   0     0   0   4     0  17   4     0   0   4     0   2   0     2   2   0    10   0   0     8   0  16     0   0   0     0   0   0     0   0   0     0   5   0     0   0   4     0   4   0    32   0   0     1   0  32     0   0  32    17   0   0     0  32   0     0   0   0     1   0   0     1   1   0     0   1   0     0   1   8     0   1   0     0   0   0     0   0   0     0   2   0     0   2   0     0   8   0     0   0   0     0   0   0     2   0   0     0   0   0     0   1   0     0  32   0     1   0   0     1   0   0     0   4   1    40   1   0     0   0   0     0   0   0     0   8   0     0   8   0     8   8   0     4  40   0     4  32   0    64   0   0    68   0   0     0  32   0     0   0   0    66   0   0     0   0  16    24   0  16    16   0   0     0   0   0     0   0   8     4   0   8    32   1   0   112   1   0     0   0   0     0   0   2   128   0   2     0   0  18     0   0   2     0  16  76     0   0   8     2   0   0     0   0   0    16  16   0     0  16   0     0  16   0     5   0   0     0 112   0     4   0  64     1   1  64     1 128  64     0   0  96     0  12 100     0   8   0     0   0  36     0   0  32     0   1   0     0   0   0     0   0   0     0   8   0     2  16   0    32  24   0     0  16   0     0   0  16     1   0  16     1   0  16     0   0   0    44   0   0    36   0   0    32  32   2     0  32  16     0   0  17     0   0   0     0   4   0     0   4   0     2   0   0     1   2  16     8   6   0     0   0   1     0   1   1     0   1   1     0   1   1     0   0   0     8   0   0     8   0   0     0   0   0     0   0   0     0   0   0     0   4   2     0   4   1     0   2   0     0   2   0     0   0   0     4   0   0     4   0   0     0  24  10     0  16   2     0   0   0     0   0   0     0   0   0
  0   0   0     0   0   0     1   1   1     1   1   1    25  25  25    24  24  24     0   0   0     0   0   0     0   0   0     0   0   0     0   0   0     0   0   0     0   0   0     0   0   0     4   4   0     4   4   0     4   4   0     0   4   0     4   0   2     6   4   8     2   0   0     0   0   0     0   0   0     0   0   0     1   0   0     2   1   3     9   9   2     9   0   2     1   0   2     0   2   2     0   0   4     1   0   0    32  16   0     0  16   0     0   2   0     0   0   0     0  17   2     0   0  16     0   0   0     0   2  32     0   2   0     0   0   0     0   0   0     0  64  65     0  96   2     0  64   0     0   0   0   128   0   0     0   0   0     0  96   0     0  96   0     0   0   0     0   0   0     0   0   0     0   0   0    16  16   0     0   0   0     0   0   2     0   0   0     0   0   0     0   0   0     0   0   0     0   0   0     1   0   4     1   4  16    64   4  16     1   4  32     0  20  32     3   0   0     2   0   0     0   0   0     0   0  16     0   0  16     0   0   1     4   0   0     0   0   0     0  33   0     0   3   0     0   0   0    10   2   0    10   0   0     0   0   0     0   0   0     0   0   0     0   3   4     0   6   0     0   0   4     0   0   0     1   0   0    32  16  32    32   0  32     1   0  32     1   0   0     0   0   0     9   0   0     0   1   0     0   0  32     4   1   0     4   0   0    64   0   0    64   2   0     0   0  16     2   2   0     0   0   0     2   0   0     0   0   0     2   0   0     0   0   2     0  32  32     0  32  64     0   0   0     0  32   1     1   0   3     0   0   0     0   0   0    32   0   0    32   0   0    36   0   0     4   8   0     0  40   0     0   0   8    68  97   0     0   0   0     4  33   0     4  32   0     0  32   0    16   0   2    50   0   0    16   0   2     0   0   0     0   0   0     0   0   0    52   0   0    20   0  64     0   0   0   128  64   0   128  64   0     0   0   0     0   0  16     0   0  68     4   0   8     2  32   4     0   0   8     0   0   4     0   0   4     0   0   4     0  96   0     4   0   0     1   0  96     1   0   0     1   8   0     1   0   0     0   0   0     0   8   0     0   8   0     4   0   0     1   1   0   128   0   0   128  64  64     0   0   2     8   0   0     8   4   0    64  24   0    65   0   0    33   0   0     0   0   0    32   8   0    32   0   0    32   0   0    32   0   0     0   0  16     0   0   0     2   0  16     2   0  16     2   1   0     2  18  16     0   0   0     0   2   0     0   0   0     4   0   0     0   0   0     0   0   0     0   0   0     8   1   0     0   1   0     0   0   0     0   0   0     8   0   0     0   8   0     3   0   0     0   0   0     0   0   0     0   0   0     4   0   0     4   0   4     0  26   0     0   0   1     0   0   0     0   0   0     2   2   0
  0   0   0     0   0   0     0   0   0     0   0   0     0   0   0    24  24  24    24  24  24     0   0   0     2   2   2     0   0   0     0   0   0     0   0   0     0   0   0     0   0   0     0   0   0     4   4   0     0   4   2     6   0   2     0   0   0     2   0   2     0   0   0     0   0   0     0   0   0     0   0   4     0   0   4     8   9  11     9   9   8     1   0   0     1   4   2     5   7   2     1   4   4     1   1   0     0   0   0     0   0   0    16   0   0     0   0  16     0   0   4     0   0   6     0   0   6     0   0   0     0   2   0     0   0   0     0   0   2     2   0   1     0  32   0     2   0   0     2  32   0   131   2   0   128   1   1     2   0   2     0  98   0     0   8   0     0  24   0     0   0   0    16  16   0    16  16   0     0   0   0     0   0   0     0   0   0     8   0   1     0   0   0     0  32   0     0   0   0     4   0  16     5   0   0     1   4   0     0   0  32     0   1   0     1   0   0     0   0   0     0   0   4     0   8   4     0   0   4     8   0   4     4   0   0     4   0   0     0  32   4     0  32   4     0   2   5    24   0   1     8   0   0     0   0  16     0   0   0     0   2   0    16   0   2     0   0   0     0   0   0     1   4   0     0  16   1    33   0   0    33  16  32    33   0  32     0   0   0     8   0   0     8   2   2     8   2   0     0   0   0    16   0   0     0   0   0    16   1   0     2   2   0     6   0   0    34   0   0    32   0   0     0   0   0     0   0   2     0   0   0     0   0   0    16  80   0     0  20  64     0  16   0    16   0   2     0   0   2    32   0   0    33   0   0     0   0   0    36   0   0     4   0   0     0   0   0     4   0   0     0   0   0     0   0   0     0   1   0     4   1   0     4   1   0     2   9   0     2   0   2    50   0   0    16   0  16    32   0  16     0   0   0     0   0   0     4   0   0    16   0   0     0  64   0     0  64   0     0   0   0     0  64   0     0   0   0     4  16   0     4   0   0     0   0   8     0   0   8     0   0   0     0   0   0     0   0   4     0   0   0     0   0   0     0   0   0     1   8   0     0   8   0     0   8   0     0   8   0    16   0  36     9   1  32    21   0  32     8  32   0     8   0   2    40  32  66     8   0   2    40   4  68    40   4   4    32   0   0     0   0  80     0   0  88     0   0   0     0   0   0    32   0   0     0   0   0     0   0   0     0   0   0     0   0  17     0   0  16    32   1   0     2   0  16     0   0   0     2   0   0     0   2   0     4   0   0     4   0   0     0   0   0     0   0   0     0   0   0     0   0   0     4   0   0     0   0   4     0   2   0     1   0   0     0   2   0     0   0   0     0   2   0     2   0   0     0   0   0     0   0   4     0   4   0     4   0   0     0   4   0     0   2   0     0   0   0     0   0   0
  2   2   3     0   0   1     1   1   1     0   0   0     0   0   0    24  24  24    24  24  24     0   0   0     2   2   2     0   0   0     0   0   0     0   0   0     0   0   0     0   0   0     0   0   0     0   0   0     0   0   0     2   2   2     2   0   2     0   2   0     2   0   2     2   0   2     0   0   0     0   0   0     0   0   0    24  24  24     0   0   0     1   0   0     0   0   0     5   4   0     0   0   0     1   1   0     0   0  16     4   0   0     0   0   0     0   0   4     0   0   4     0   0   6     0   0   6     8   0   4     0   2   2     0   0   0     0  32   2    50  16   1    32  32   0     0   0   0     0   8   0     2   0   0     6   2   0     0 128   2    12   0   0     0   0   8     0  17   0     0   0   0    16  16   0     4  18   0     0  16   0     0   0   0     0   0   0     8   0   1     8   0   0     0  32   1     0   0   4    20   0  48     5   0  33     1   4   0     1   0  32     0   1   0     0   0   0     0   0   0     0   0   4     8   0   4     0   0   0     0   0   4     4   0   4     4   0   4     0  32   4     0  32   6     0   0   0     0   0   3     0   0   0    16   8   0    16   8   0    24   2   0     0  16   0    24   0   0    16   0   0     0   0   0    17   4   1    32 128   8     0   4   8    32   4   0    40   0  32     0  16   0     8  80   2     0   2  32    20   0  32     4  17   0     0   0   0     0   0   0     0   0   0     2   0   0    34   0   0    32   0   0     0  64   0    64   0   0     0  64   0     0  65   0    16  64   0    16  20   0    16  20   0    16  16   0    16   0   0     0   4   0     1   4  32     4   2   0     4   2   0     0   0   0     4   0   0     4   0   0    64   0   8     0   0   0     0   0   0     0   0   0     0  32   0     0   1   0     2   1   0    18   1   2     2   0   2     0   0   0     4   0  64     0   0   2     0   0   2    16   0   2     4  64   2     0  64  64     0   0  64   132   0   1   132   0   0     0   0   0     4   0   0     0   0   0    10   0   0     0   0   2     0   0   0     0   0   1     0   0   0     0  96   4    17   8   0     0   8   0     0   0   0     0   0   0     1   0   0    16   0  32     0   0  32     5   0  32    37   0   0    32   0   0    32  32   0     0   0   0     0   0   0    32   0   4    32   2   0     0   0   0     0   8  10     0  24   0     0  16   0     0  16   0     0   0   0     0   0  16     0   0  16     0   0   1     2  16   0     2   0   0     2   1   8     2   0   8     2   0   0     2   0   0     0   0   0     0   0   0     0   0   0     0   0   0     0   0   0     0   0   0     6   0   4     0   0   0     0   2   4     2  10   0     0   2   0     0   2   8     0   2   0     0   0   0     0   0   0     0   0   0     0   4   4     0   4   0     0   4   0     0   0   0     2   0   0     0   2   2
  1   1   1     1   1   1     0   0   0     0   0   0     0   0   0    28  28  28    24  24  24     0   0   0     0   0   0     0   0   0     0   0   0     0   0   0     0   0   0     0   0   0     0   0   0     0   0   0     0   0   0     0   0   0     2   2   2     2   2   2     0   0   0     0   0   0     0   0   0     0   0   0     0   0   0     2   2   2     0   0   0     2   2   2     0   0   0     0   0   0     0   0   0     0   0   0     0   0  16    20   4  16     4   4   0     0  36   0     0   0  16     0   0   0     0   0   2     0   0   0     1   0   0     9   0   0    32  34  10     0  32   8    32  32   0     0   0   0     0   0   0     2   0   0     6   2   0    10   0  98    20   0   2     8   0   8     0   0   0     0   0   0     2   0   0     0   2   0     0   3   0     0   0   0     0   0   0     0   0   1     0   0   0     0   0  12     0   8  48     0   0  16    36   0  48     5   0   0    33   3   0     1   3   0     0   2   0     0   0   0     0   8   0     8   0   0     0   0   0     4   0   0     4   0   4     1   0   0     4   0   0     4   0   0     0   0   2     0   0   6     0   1   1     0   0   0     0   2   0    16   2   0    24   2   2    24  32   0    16   0   0    16   0   0    32   0   0    48   0 128     0   0 128    32   0   0    36   0  32    10  16   2     0  80   0     0  18   0    16  18   0     0   1   0    16   0   0     0  16   8     2   0   0     0   0   0     0   0   0     0  64   0     0  64   0    64  64   0     0   0   0    16  64   0    16  80   0    16   1   0     0  16   0     0  16   0     0   0   0     0   0  32     4   0  32     4   0  32     0   0  32     4   0   8    64   0   0    64   0   0     0   0   0    32   0   0    32   0   0    32   0   2    32   1   0     0   1  34    34   1   2     0   0   0    16   0   0    96   0   0     0   0   0   128   2   0   136  10   2    12   0   0    24   0   2     2   0   0     3   0   0     0   0   0   128  16   0     0   0   0     0   0   0     0  32   0     8   0   0   138  32   2   130   0   0    16  32   0     0  32   0     0  48   0     1  64   0     0  64   0     1   8   0     0   0   0     3   2  68   128   0  32     1   0  34     0   0   0     8   0   2     0   2  64     8   2  32     0   0  36     0   2  32    32   2   4     0   8   0     0  10   0     0   0  10     1  41   0     1  16   2    32   0   0     0   2  16    32  32   0    32   0   0    34   2   0    35  16   0     2  16   0     4   1   0     0   0   0     2   1   0     2   0   0     0   0   4     0   0   4     0   0   0     0   0   0     0   0   0     0   0   0     0   0   4     0   0   4     2   0   4     0   0   0     0   0   0     0   0   0     0   0   0     0   0   0     0   0   0     0   0   0     4   4   0     0   0   0     4   4   4     6   6   6     0   0   0     0   0   0
  1   1   1    37  37  37     0   0   0    32  32  32     0   0   0     5   5   5     5   5   5     4   4   4     4   4   4     0   0   0     0   0   0     0   0   0     0   0   0     0   0   0     0   0   0     0   0   0     0   0   0     0   0   0     2   2   2     2   2   2     0   0   0     2   2   2     0   0   0     0   0   0     0   0   0     0   0   0     0   0   0     0   0   0     0   0   0     0   0   0     0   0   0     0   0   0     0   0   0     4   0  16     0   0   1     0  33   1     2   1   1     2   0   0     0   0   2    64  64   0    64  64   8     0   0   0     0   0   0    48   0   8    32   0   8    48   0   0     4   8   4     0   8   0     0   0   0    12 128   8    16   0   8    12   0   0     2   0   4     2   0   0     2   0   2     0   4   0     0   0   8     0   0   0     0   0   0     0   0  12     0  32   0     0   2  12     0  18   0     0   0   0    36   2  32    16   4   4    16   2   0     0   0   0     0   0   0     0   0   0     0   0   0     0   1   0     0   0   4     0   1   4     0   1   4     5   0   0    35   0   0     2   0   0     2   0   0     0   0   0    16   0   0     0   0   0     0   0   0     8   0   0     8   0   0     0   8   8    20   1   0     0   5   0    16   1   2    32   8 128    32   8 128    32   8   0    32   0   0     4   4   0     0  20   2     4   0   3     1  16   0    20   0   0     0   0   0     0   0   0     0   0   0     0   0   0    32  64   0    32  72   8     0  64   8    64  72   0     0   0   0     0   0   0     0   0   0     0   0   1    16   0   1     0   0   0     4   0   0     0   0   0     0   0  32    64   0   0    64   0  32    65   4   8    64   0   0     0   0   0    32   0  64     0   0   0     8   0   0     8   0   2     0   1  32    32   1   2     0   0   0     2   2   0     0   2   0     0   2   0     8   0   0   128   2   0     0   0   0     4   0   0    20  16   0    16   8   0     1   0   2     0  10   0     0   4   0     0   4   0     1   4   0     8   0   0     2  32   0    10   8   0     0  40   2     8  16   0     0  32   0     0  32   0     0   0   0     1   0   0     1   8   0     0   0   0     0   0   0   128   0  64   128   0   0     0  32  64     1   2   8     0   2  16     0   2  16     0   2  36     0  65  32     0   0   0     0   2   0     0   0   0     2  40   0     1  41   0     3  16   2     0   0   2     2   2   0    32   2  18    32   2   0    32   2  16    17  16   0    12   0   0     2   9   0     2   0   0     2   0   0     2   0   0     0   0   4     0   0   0     0   0   0     0   0   0     0   0   0     0   0   0     2   2   4     0   0   4     0   0   4     0   0   4     0   0   0     0   0   0     0   0   0     0   0   0     0   0   0     0   0   0     0   0   0     0   0   0     0   0   0     0   0   0     0   0   0     0   0   0
 32  32  32     5   5   5     1   1   1     1   1   1     0   0   0     0   0   0     0   0   0     0   0   0     0   0   0     0   0   0     0   0   0     0   0   0     0   0   0     0   0   0     0   0   0     0   0   0     0   0   0     0   0   0     0   0   0     3   3   3     2   2   2     0   0   0     0   0   0     0   0   0     1   1   1     1   1   1     0   0   0     0   0   0     0   0   0     0   0   0     0   0   0     4   0   0     0   0   1     0   8  18     4   0   3     2  32   0    34   1  49    32  33  19    34  32   3    96  97   0    65  64   1     0   0   0     0   0   0     0   0   0     0   0   0     0   0   0     0  16   4     0   0   4     4   4   4    12 128  96     0   0   8     4   0   0     0   0   2     0   0   0     0   2   0     2   1   0     0   0   0     0   0   8     0   1   0     4   0   4     0   0   4     0   0  12     0   0  12     0   0   4     5   2   4     5   0   0     0   2   0    16   0   0     8   8   0     0   0   0     0   0   0     0   0   0     0   0   0     0   0   1    64   2  64    33   2   0    32   0   0    33   0   0     2   0   0    32   0   0    18   0   0     2   2   1     2   2   1     0   0   0     8   0   0     0   0   0    16   4   0    16   4   0     6  16   0     0   0   2     0   0   0    34   0   0    32   0  32     6  20   0     0  16   2    12  16   2    17  16   0    16   0   0     0   0   0     4  64   0     8  64   0     8  64   0    72  72   0    32   0   8     0   0   0     0   8   8     1   8   8     0   0   8    16   0   0     0   5   0     0   1   0     0   0 128     0   0   0     8   0   0     8   0   4    80   0   4    82   0   4     0   4   0    33   0  64    32   0   0     0   0   0     0   0   0     0   4   0     8   1  16     8   0   0     0   0   0     0   0   0     0   2  16     0   0   0     0   0   0     0   0   0    32   0   0     0   0  16    32   8   0     0  16   0     0   0   4     1   0   2     0  10   0     1   0   0     4   0   4     1   0   0     0   0   0     2   0   0   128   0   0     2  34   0    12   0   0     4   0   8     2   0   0     3   0   0     1   0   0     2   0   0     0   0   0     0  16   0   128   0  64   128   0  10     2   0   0     0   0   0     1   2  64     1  64   0     0  64  32     0  64   0     0   0   0     0   1   0     0   0   0     0   0   0     1  33   0     0   9   0     0   2   0     0  48   0     0  34   2    40  32   8     8   0   8    10   2   0     0   0   0    14   1   0     0   0   0    12   9   0     0   0   0     0   0   1     0   0   0     0   0   0     0   0   0     0   0   0     0   0   0     2   2   0     0   0   0     0   0   0     0   0   4     0   0   2     1   1   1     0   0   2     0   0   0     8   8   8     0   0   0     0   0   0     0   0   0     0   0   0     0   0   0     0   0   0     0   0   0
  0   0   0    37  37  37    32  32  32     0   0   0     0   0   0     4   4   4     0   0   0     4   4   4     0   0   0     0   0   0     0   0   0     0   0   0     0   0   0     0   0   0     0   0   0     0   0   0     0   0   0     3   3   3     2   2   2     3   3   3     2   2   2     2   2   2     0   0   0     0   0   0     1   1   1     5   5   5     4   4   4     4   4   4     4   4   4     0   0   4     1   0   1     4   4   0     0   0   0     4   0   2     8   8   2    32  32   2    48  48  32     3   1   0     1   0   3    32  32   0   104  96  16    96  96   0    32   0   0     0   0   0    32   0   0     0   0   0     0  16   4     4   2   4     0   0   4     4   0   0     8   0  96     8   0   8     8   0   2     0   2   2     0   2   0     0   0   1     0   0   8     0   0   0     0  33   1     5   1   0     4   2   0     4   2   0     4   0   0     4   4   2     7   0   4     0   0   0     0   0   0     0   0   0     8  32   0     8   0   0     8  32   4   128   0   0     0   0  68     0   1  65    64   2  68     4   2  16    64   0   0     0   0   8     2   0   0    18   2   0     2   0   0    16   0   0    24   0   1     0   0   0     8   8   0     0   8   0     4   4   0     6   4  66     4   0   2     0   0   2     0   0 128     2   0   0    32   0   1    18   0   0     0   4   0     8  20   2     0  16   0    13   8   0     0   0   0     8   0   0     0   0  16     0   0  16    40   0   0    32   0  48    40   0   4     0   8   6     0   0  14     0   0   2    16   0   0    16   4   0     0   0   0     0   1   0     0 128   0     8   0   0     2   0   0    16  64   0    16   0   0     1   0   0   160   4   0   128   1   0   129   0   0     0   0   0   128   0   0    10   1   0     8   0  32    32   0   0     0   1   0     0   0  16     0   0   0     0   0   0     0   0   0     0   0   0     0   0   0    32   0   0     0   0   0    32   0   4    32   0   0     0   0   0     4   0   0     4   0   4     0   0   0     0   0   0     0   0   0     0   8   0     0   0   0     2   0   0     2   0   0     0   0   0     0  36   0     0  32   0     0  32   0    32   8   0     1   8   0     2   0   0     0   0   4     0   0  16     1  32  16    17  32   0     5   0   0     0   2   0     0   0   0     0  65   0     0   0   0    32   0   1    32   0   0     0   0   0     9   1   0     2   0   2     0   2   0    14   0   2    12  34   9    32   0  24     0   2   0     0   0  16     4   0   0     0   0  16     0   0   0     0   0   0     0   0   0     0   0   0     0   0   2     0   0   0     0   0   0     0   0   0     0   0   0     0   0   0     0   0   0     0   0   0     0   0   0     1   1   1     0   0   0     8   8   0     8   8   0     8   8   0     0   0   0     2   2   2     0   0   0     2   2   2     0   0   0     0   0   0
  0   0   0    33  33  33    32  32  32    32  32  32    32  32  32     4   4   4     0   0   0     0   0   0     0   0   0     0   0   0     0   0   0     0   0   0     0   0   0     0   0   0     0   0   0     0   0   0     0   0   0     2   2   2     2   2   2     1   1   1    27  27  27     1   1   1     0   0   0     0   0   0     3   3   3     7   7   7     4   4   4     4   4   4     4   4   4     4   4   0     4   4   0     4   0   0     4   0   0     4   0   0     8   0   2    32  32   0    16  16   0    33  32  49     1   0   1    32  32   1     8   0   0     8   8   0    32   0   0    32   8   0    32   0   0     0   0   0     4   0   0   132   0   0     4   2   0     4   0   4     8   0   0     8   0   0     8  16   0     0   2  34     0   2   0     0   0   0     4   0   0     4   1   1   133  33   0     1   1   1   132   0   1   132   0   1     0   0   0     0   0   0     1   0   0    17   0   0     8  16   2     8   0   2     8   0   0     0   8   0     0   0   0     0   0   4     0   0   5     9   0   5     0   0   0     8   0   0     0   2   0     0   6   0    66   0   0     0  34   0    88  20   0     8  16   0     0   0   0     0   6   0    48   2   0    32   0   0    50  24   2     6   4  66     6  16   2     4   4   0     2   0   1     2   0   0    32   0   0     2   0   0    18   4   0    16  24   0     3  16   0    16  12   0    16   0   0     0   0   0     0   0   0     0   8  32     0   0   0     8 128   0     0   0   4     0   0   0     9   0   6     0   0  18    33   0   0    17   0  16     1  32   0     0   2   0     8  32   0     0   8   0    10   0   0     1   0   2     1  80  64     0   0   0   128  64   0   128   3   0     0   2   0   128   0   8     0   2   0     2   0  64    42   0   0    10   0   0     0   0  16     0   0  16     0  32  16     0   0   0     0  32   0     0   0   0     0   0   0     0   0   0     0  16   0    32  16  32     0   0   0     0   0   0     4   0   0     4  32   4     0   0   0     0   0   4     2   0   0     2   2   2   116   0   0     4   0   0     0   0   8     2   0   0     0  32   0     2  32   0     0  52   0     2  56   0     0   4   2     0  68   2     0   4   0     0   0   4     0   0   0     0  32   0     0   0   1     0  64  16     0   0  17     0   0  65     0   4   1    32  16   0     0   1   0    32   0   0     2   8   0     2   0   2     6  48   2     6   0   0     2  32   8     0  32  11     0   3   0     0   6   0     0   3   0     0   0   0     0   0   0     0   0   0     0   1   1     0   0   0     1   1   1     0   0   0     0   0   0     0   0   0     0   0   0     8   8   0     0   0   0     0   0   0     1   1   1     1   1   1     1   1   1     8   8   0     0   0   0     0   0   0     0   0   0     2   2   2     2   2   2     2   2   2     2   2   2     2   2   2
  0   0   0    32  32  32     0   0   0    32  32  32     0   0   0     0   0   0     6   6   6     4   4   4     0   0   0     0   0   0     2   2   2     0   0   0     0   0   0     0   0   0     0   0   0     2   2   2     3   3   3     1   1   1     3   3   3     0   0   0     1   1   1     0   0   0     2   2   2     0   0   0     0   0   0     0   0   0     0   0   0     0   0   0     0   0   0     0   0   0     0   1   0     5   0   0     0   0   0     0   0   0    17   0   0    16   0  16    33   0  16     0   0   0     0   4   0     8   4   0     0   1   0    32  40   0    16   0   0    32   0   0     0   0   0     0   0  16   128  64   0   132   0  12     4   0   0     4   0   0     8 128   0     9   1   8     0   1   8     0   0  34     0   0   0     0   2   0     1   2   8     4   0   0     1  32   0     0  34   1   129   3   0     0   1   1     0   0   0     0   0   0    24   0   0    16   0   2    24   0   0    16   0   0    24   0  32     0   0  32     0   0  32     0   8   0     0   8   0     8   8   0     0   0   0     0   0   0     0   0   0     0   0   0    64  32   0    16  34   0    16  32  32     0   0   0     0   0   0     4   0   0    16   0   2     0   2   2     2   8   2     2   0   2    18  16   2     2   0   0     2   0   1     0   0   0    18   0   0     0   0   0     0   0   0     1  12   0     1   8   0     0  32   0     0   4   0     0   0   0     0   0   0     0   0   0     0   0   0     0   0   0    12   0   4     4   0   4     8   0   4     0   0   4     1   0   0    17   0   0     1  32  32     2  98   0     8  66  32    10  32  16     8  32   0     3   0   2     0  64   0     1   0   0     1   0   0     0   0   0     0   2   0     0   2   8     0   2   8     0   2   8     2   2  32    34   0  32    34 128   0    32 131   0     0   0   0     0   0   0     0  32   0     8   0   9     0   0   0     0   0   0     4   0   0     0   0   0     0   0  34     4   0   0     0   0   2     0   0   0     0   0   0     0   0   4     2   0   4   114   2   0   114   0   0    96   0   2   112   0   0     2   4   8     0  32   8     0  36   0     0  24  32     0  32   0   128   0   0     0   4   2     0   5   6     0   9   4     0   0   0     4   0   0     4  12  64     0  32   0     0  34   0     0   2   0     4   0  66    32   4   2    32  34   0    32  10   0    40  40   0     1   0   2     8   0   2    32   0  33     0   0   1     0   0   2     0   0  16     0   0   0     0   0  16     0   2  16     0   0   0     0   0   0     0   0   2     0   0   0     0   0   0     0   0   0     0   0   0     0   0   0     0   0   0     0   0   0     0   0   0     0   0   8     0   0   0     1   1   1     1   1   1     8   8   0     0   0   0     8   8   8     0   0   0     0   0   0     0   0   0     2   2   2     2   2   2     0   0   0
  0   0   0     0   0   0     0   0   0     0   0   0     0   0   0     0   0   0    14  14  14    14  14  14    18  18  18     8   8   8     0   0   0     0   0   0     0   0   0     0   0   0     4   4   4     6   6   6     2   2   2     2   2   2     0   0   0     1   1   1     0   0   0     1   1   1     0   0   0     0   0   0     2   2   2     0   0   0     0   0   0     0   0   0     0   0   0     0   0   0     0   0   0     0   0   0     0   0   0     0   0   0     0   4   0     1   4   0     1   4   0    33  32   0    32  36   0    40  36   0    32  32   0     0  10   0    17   8   0     1   0  32     0   0   0   128   0   0     0   0   0   129   0   4   128  32  12     0   0  20    41   0 137    32   0   8     8   0   0     0  32  40     0   1   0     1   0   0     0   0   0     4   0   0     1   6   0     1   0   0   130   0   4     4   0   4     0   0   4     0   0   0    24   0   0     0   0   0     0   0   2    24   0  66     0   0   0     0   0   0    16   0   0     8   0   0     8   2   0     0   0   0     0   0   0     0   0   0     0   0   0     0   0  32     1  32   0     0  32  32     0  32   1     0  17   0     0   0   0    36  19   0    32  18   0     2   2   2     2  18   2     0   0   0    34   0   0     0   0   0     2   0   0     0   0   0     2   0   0     0   0   0     0   8   0     1   0   0     1  16   0     0   4   0     0   0   0     0  32   0     0   0   0     0   0  32     0  16   0     0  16   0     4   0   4    12   0   0     0   0  16     1   0   0     0   0   0     0   0   0     0   0   0     3 104   0     3  98  32     2  32   0     8  64  64     2  64  16     1  64   0     1  16   0     1  17   0     0   0   8     0   2   0     0   0   8     0   0   8     0   2   0     2   2  66    34   3   0     2   5  48     1   3   2     0   0  16     0   0  17     0   0  16     0   0  32     0   0  96     1   9   0     1   1   0     0   0  32     0   0   0     0   1   0     0   0  18     0   0  20     0   0   4     8   0   4     0  10   4     0   3   0   116   2   0    96   0   0    96   0   0     0   0   1     0   4   0     0  52  32     0  36  32     0  32   0   128   0   0     0   6   0     0   6   4     0   9   4     0   5   4     6  13   1     0   8   1     4   8   1     0   2   0     8   0   0     0  64   2     0   6   0     0  22   2     8   2   2     2  32   0     0  32   2     8  32   0    16  36  32    48   4   3    16  36   0     0   0   0     0   4   2     0   0   0     0   0   0     0   0   0     4   0   0     0   0   2     0   0   0     0   0   0     0   0   0     0   0   0     1   1   1     9   9   1     0   0   0     0   0   0     0   0   8     0   0   0     0   0   0     0   0   0     0   0   0     0   0   0     0   0   0     8   8   8     0   0   0     2   2   2     2   2   2     2   2   2     0   0   0
 32  32  32     0   0   0     0   0   0     0   0   0     0   0   0     0   0   0     0   0   0     2   2   2     0   0   0     0   0   0     8   8   8    24  24  24     0   0   0     2   2   2     6   6   6     0   0   0     0   0   0     0   0   0     0   0   0     1   1   1     0   0   0     0   0   0     0   0   0     0   0   0     0   0   0     0   0   0     0   0   0     1   1   1     0   0   0     8   8   0     0   0   0     1   0   1     0   0   0     1   0   1     0   0   0     0   0   1     5   4   0     9   8  16     4  32   0     0  32   0     0   0   0    48   0   0    48   4  16     0   0   0     0   0   0   128   0   0   128   0   0   128  64   0   128   0   8     0   0   8    32   0 153     1   1   8     0   1  16     0   1   0     0   1   4     0   0   0     1   1   0     1   0   8     3   0   0     3   0   0     0   2  68     6   0   4     0  24   0    18   8   0    24   0   0    24  32   2    24  32   0     0   0   0    16   0   0     0  64   2     0  40   2     0  32   0     0   2   0     0  32  32     0  33   0     0   0  32     0   0  32     0   0  32     0   0  32    17  16   0     0  64   0     0   3  32     0   2   0     0  22   0    40  19   0     0   1   2     0   0   0     0   0   0    10   0   0     0   8   0     0   0   0     0   0   0     3   0   0     1   0   0     0   0   0     1   0   4     0  16   0     0   0   0     0   0   0     0  32   0     0   0   0    17  16   0    16  24   0     8   0   0     0   4   0     0   0   0     0   0   0     0   0   0     0   0   0     0  16   0     2   0  32     2   0   0     0   0   0     2   0   2     0   0   0     2   0  18     1   0   0     3   0  32     1   0   0     0   1   0     0   0   8     0   0   8     1   0   8     1   0   0     1 144   0     5   5   2     3   3   2     7   1   0     0   0  16     0   0  16     0   0   0     0   0  96    33   5  64     0   8  96     0   1   0     1   1   0     0   1   0     0   0   0     0   0   2     0   0   6     4   0   4     8   0   0    16   0   6   112   3   0    96   0   1    96   0   1    20   0   1    20   0   1    18   0  32     2  64  32     0  68   0     0  32   0   128   0   8     0   2   0     0 130   2     0   2   2     0 128   0     0 136 128     0   0   1     0   8   0     0   8   0    37   0   0    96  82   0     4  20   0     0   6   8     0   2   0     0  34   0     8  32   0     8   0  19    16   4   1    32   4   1    17   0  20    17   0   0    16   8  16     0   0   0     0   0   0     0   0   0     0   0   0     0   0   2     0   0   0     0   0   0     0   0   0     0   0   0     8   8   0     0   0   0     0   0   0     0   0   0     0   0   8     0   0   0     0   0   4     8   8   0     8   8   0     0   0   0    24  24  24     0   0   0     0   0   0     2   2   2     0   0   0     2   2   2     0   0   0
  0   0   0     0   0   0     0   0   0     0   0   0     0   0   0     1   1   1     1   1   1     0   0   0     0   0   0     0   0   0    24  24  24    16  16  16     8   8   8    24  24  24     0   0   0     0   0   0     0   0   0     0   0   0     0   0   0     0   0   0     0   0   0     1   1   1     0   0   0     0   0   0     0   0   0     0   0   0     1   1   1     0   0   0     1   1   1     1   1   1     0   0   0     8   8   0     0   8   8     8   0   8     0   8   8     0   0   8     4   0   0    36  32  16     0   0  16    32   0   0    32  32   0     2   4   0     0   4  16     0  32  32     0   0   0     0   0  32     0   0   2     0   0  16     0   0  17     0   0  24    36   0  16     0   0   4     0   1   8     0   0  36     0   1   0     0   0   8     1   0   0     2   4   0     5   0   0     2   0   4    14   0   0    14  24   4     6  16   0    16   0   4    16   0   0    24  64   6     8  96   0     8   0   4     0   2   4     0 104   4     0  48   2     0  48   2     0  33  32     0   0  32     0   1  41     4  16   8     0   0  32     0  16  32     0   2  32     0   1   0     4  67  32     0   1  64     4   0   0     0   4   0    12   1  32     8   1  36    50  17  34     2   1   2     2   0   0     0   0   0     8   0   0     0   0   0     1   0   0     0   0   0     0   0   4     0   0   4     0   0   4     0   0   0     0   0   0     1   0   0     5   2   0    21   4   0     0  16   0     0  20   0     0   4   0     0   0   1     0   0   0     0   2   0     0   0   0     0  16   0     0  16  32     0  24   0     0   0   0     2   0   0     0   0  64     2   0   0     0   0   0     2   0  32     1   1   1     0   0   8     0   0   0    32   2  32     0   0  32     9   0   0    12  16   0    21  16   0     1   5   2     5  19   2     0   0   0     0   0  16     0   0  16     0   4  32     1   9  96     0   8  96     1   4   0     0   0   0     0   1   0     0   0   0     0   0   0     4   0   6     4   0   2     4   3   4     8   2   2     0   0   0     0   0   1     4   0   1     0   2   0     4   0   0     0   0   0     0  64  32     2  96   0     0  96   1     0  64   1     0   0   1     0   0   0     0   0   2     0   0   0     0   0 130     1   8   0     0   9   0     0   8   0     0   0   0     0  64   0    10   0   0     0   2   8     0   2   0     0   0   0     0   0   0     0   0   1     0   4   0     0   4  23     0   8  20     1   0  20     1   0   0     0   0   0     2   0   0     0   0   0     0   0   4     0   4   0     4   4   4     0   0   0     2   2   0     0   0   0     0   0   0     0   0   0     8   8   0     0   0   8     0   0   0     0   0   0     0   0   4     0   0   0     2   2   0     8   8   0    16  16  16     0   0   0     0   0   0     0   0   0     2   2   2     2   2   2     0   0   0
  0   0   0     0   0   0     0   0   0     0   0   0     0   0   0     1   1   1     1   1   1     0   0   0     0   0   0     0   0   0    24  24  24    24  24  24     0   0   0     0   0   0     0   0   0     0   0   0     0   0   0     0   0   0     0   0   0     0   0   0     0   0   0     0   0   0     0   0   0     0   0   0     0   0   0     0   0   0     0   0   0     1   1   1     1   1   1     8   8   8     0   0   0     0   0   0     0   0   0     0   8   0     0   9   0     0   3   0     0  35   0    36   0   0    32  32  16     0   0   0    32   0  16    34   0   0     1   4  16    64   0   0     0   8   0     0   0   0     0   0   3     0   0   0     0   4   0     0  16  16     4   4   1     0   0   0     0   8   0     0   1   4     0   0   0     2   0   8     2   0   0     0   0  24     0   0   0     0   0   0    10   0   4    10  24   0    10   8   0     1   0   4     8   0   0    24   0   0    76   1   0     4   0  32     4  32   0     0  64  68     0  48   1    16  64   0     0  16   0     0  32  32     0  33  40     0   0   0     0  16  33     0  16   0     0   0   0     4  68  32     4  32  40     0   8  32     4   0  32     4   1   0     0 128  32     0   1  32     0   1   0    20  16   0     0   0   0     0   0   0     0   0   0     0   0   1     0   0   2    16   0  32     0  32  38     0  32   0     0   0   4     0   0   0     0   0   4     0   0   0     4   7   0    20   0   0    16   6   0     0  16   0     0   0   1     0   4   1     0   4   0     0   2   0     0   2   0     0   1   2     0   0   2     0   4   2     0   4   4     0   4   0     0   0   0     2   0  64     2   0   0     0   0   4     0   8   1     0   0   1     0   0   0     4 128   0     0   0   0     0   0   0     8   0   0    14   0  32     0  64   0     0   2   0     0  64   0     0   0  16    16  16   0     0  20   0    33   5   0     1  13  96     1   0   0     0   1   0     2   1   8     8   0   0     0   0   0     4   0   2    12   0   6     4   3   2    16  16   3    22  16  64     2   0  65     0   2  64     0   0   0     0   2   2    16   0   0     0   0   2   128  96   0   130  64  32     0   0   1     0   0   1     0   0   2     0   0   2     0   0   2     4   8   2     0   0   0     1   1   0     0   0   0     1   1   0     1   1   0     1   0   0     0   1  12     0   0   4     0   2   0     0   0  17     0   0   0     0   0  17     0   0  20     0   0  20     0   0   0     0   0  16     4   0   0     0   2   0     0   0   0     0   0   4     0   0   0     0   0   0     0   0   0     0   0   0     0   0   0     0   0   0     0   0   0     0   0   0     0   0   0     0   0   8     0   0   0     2   2   4     0   0   0    10  10   0    16  16  24    24  24  24     0   0   0     0   0   0     0   0   0     2   2   2     2   2   2     0   0   0
  0   0   0     0   0   0     0   0   0     0   0   0     0   0   0     0   0   0     1   1   1     1   1   1     0   0   0     0   0   0     0   0   0     0   0   0     0   0   0     0   0   0     0   0   0     0   0   0     0   0   0     0   0   0     1   1   1     1   1   1     0   0   0     0   0   0     0   0   0     0   0   0     0   0   0     0   0   0    17  17  17     1   1   1     1   1   1     0   0   0     0   0   0     0   0   0     0   0   0     0   0   0     2   3   0    32  35  32    32   2  32     0   0   0     0  32   2     0  32   2     0   0   8    32  32   2    33   0  17    32   0   1     0   0   0    64  32   4     0  16   0     0   0   0     0  16  16     0   4  16     4   6  16     4   0   0     0   0   0     8   1   0     8   8   8    10   0   0     0   0   0     0   0   0     0   0   0     8   0   0    12   1   4    36   9   4     1   1   0     8   0   4     1   0   0     0   0   0     0   1   0     0   1   0     4   1   0     4  98   4    16  66   1     0  80  32    16   0  96     0   0   0     0   0   0     4   0   1     0   0   0     4  16   1     0   5  32     0   5  32     0   2  32     0   8  32     4   0  32     2   9   1     6   1  64     6   0   0     4   0  64     4   0   0     0   0   0     0   0   0     0   0   0     0   0   1     0   0   0    32   0  34     0  32  38     0  32   1     0   2   0     0   0   0   129   0   0     0   0   0     0   2   0     0   0   0     0   0   0     0  20   0     0   4   0     0  20   0     0  16   0     0 112   0     0 114   0    32   1   0    32  16   0    32   0   0    32  16  32     0   4   0     0   0   0     2   0   0     0   0   0     2   0   0     0   0   5     0 128   1     8   0   0     2   0   0     6   0   0     0  32   0     4  32   0    12   0   0     0  64   1     0  66  32     0  64   0     0  16   0    16   0  16     0   4  16     0   4   0     1   1   0     0   1   0     0   4  32     0   0   8     2  32   0     4   0   0     0   0   0     4   0   0     0   0   2     0  16   1    18   2   0    16  16  64     0   0   0     0   0   0     0   2   2     1  64   2   128  64   2     0  64   2     0  64  34     2  64   0     2   0   2     0  33  34     8   4   0   140   4  16    12   0  18   128   0   2     3  32   0   129  37  34     1  53   0     1   5   0     0  17   0    32   0  16     0   0   0     0   2   0     0   0   0     0   8   0    32   0   1     0   0   0     0   0  16    20  16   0    20  16  16    18   0   0     0   8   0     0   0   0     0   0   0     0   0   0     0   0   0     0   0   0     0   0   8     0   0   2     0   0   2     0   0   4     0   0   0     2   2   8     2   2   8     0   0   0     0   0   0     2   2   0    24  24  16    16  16  16     0   0   0     0   0   0     0   0   0    32  32  32     0   0   0     0   0   0     2   2   2
  0   0   0     0   0   0     0   0   0     0   0   0     0   0   0     0   0   0     1   1   1     0   0   0     0   0   0     0   0   0     0   0   0     0   0   0     0   0   0     2   2   2     0   0   0     0   0   0     0   0   0     1   1   1     1   1   1     0   0   0     0   0   0     0   0   0     0   0   0     0   0   0     0   0   0     4   4   4     0   0   0     1   1   1     0   0   0     0   0   0     0   0   4     0   0   4     0   0   0     4   4   0    38  38  32    32  35  32     0  34  32     0  32   0     0   0   2    33   0   0    40  32   0    32  32   0     1   0   1    64   0  33     0   0   0     0  32  36     0  16   4     0   0   0     0  16   1     0  20   0     5  18   0     0   2   0     0  11   0     8   9   8     8   8   0     8   0   0     8   4   0     0   0   8     8   0   0     0   0   0     0   0   0    11  24   0     0   1   0     8   0   0     1   0  68     0   0   4     0   1   0     0   0   0     0   2  64    16   0   6    16   0   4    16  24   0     0   8  80     0   1   0    36   0  16     4   1   0     4  16   0     4  20   1     0  20  32     0   6   0     8 108  32     8   0   0     8   0   0     2   1   1     6   0  64     2   0  32     1   0   0     4   0   1     1   0   8     0  16   1     0   0   0     0   0   0     0   0   0    32   0  34    32  33  36     0  34   1     0   2   0   128   0   4     0   0   0     1   0   0     1   0   0     1   0   0     0   0   0     0   0   0     0   0   0     0   4   0     0  20   0     0 112   0     0  96   0     8   0   2     0   0   0     0   0   0     0   4   0     0   0   0     0   0   0     2   0   0     0   0   0     0   8   0     0  32   0     2   0   0     2   0   0     0   0   0     2   0   1     0   0   0     0  96   8     0   0   8     8  64   1     0   0   0     0  16  16     0  16  48     0   0  16     0   0   0     1   5   0    33   1   2     1   0   0     2   0   0     0   0  12     2   0   8     4  32   4     0   1   1     0   1   1     0   0   1     0   8   0    28   8   0     8   0  64    14   0  64     0  16   0     0   0   0     0   0   2     0   0   0     0   0   0     0  64   0     2   1  32     0   1  32   136   1   2     8  12   0   128   4  18    12   4  18   128   0  33   132  34  34     4  32   0     4  52  32     4   0   4    17  24   2     0   1   0     0   1   0    32   0   0     0   0   0     0   8   0    32   0   0     0   0   0     0   0   0     6   0  16     2   0   0     0   0   0     4   0   0     0   0   0     0   0   0     0   0   0     0   0   0     0   0   0     0   0   0     0   0   0     0   0   2     0   0   0     0   0   0     0   0   8     0   0   8     0   0   8     0   0   0     0   0   0     0   0   8     0   0   0     0   0   0     0   0   0     0   0   0     0   0   0     0   0   0     0   0   0     6   6   4
  0   0   0     0   0   0     0   0   0     0   0   0     0   0   0     0   0   0     0   0   0     0   0   0     0   0   0     0   0   0     0   0   0     0   0   0     0   0   2     2   0   2     0   0   0     2   0   0     0   0   0     3   1   0     1   1   1     0   0   0     0   0   4     0   0   0     0   0   0     2   8   0    32  36  32     0   0   0    32  32  32     0   0   1     0   0   0     0   0   4     0   0   4     4   6   0     0   2   0    34  34  32    34  34  32     0   0   0     0   0  32     0  32  32     0  36   8     8  36   2     0   8  10     8   0   0     0  64   0     0  64   0     4   0   0     0  32  12    65   0   8     1   0   8     0   0   8     5   2   0     7   0   0     0   3   0     0   3   0    16   1   0     8  32  32     0  24   0    12  12   0     0   0   3     8   0   0     0   0   0     0   1   0     0   9   0     0   1   4     0   0   4     0   0   8     2   0   0     0   1   0     0   3   0     0   2  64     0   0   0     0  74  64     0   8   0     0   1  80     0   1   0     4   0   0     0  21   0     4  21   0     0  21   0     0  68   0     0   4  32     0  42   0     8   8  33     0   0   1     0   0  65     0   0  32     0   0  32     0   0   0     5   0   0     0   0   1     0   0   0     0   0   0    64   0   0     0   0   0     0   5   2     0   0   4     0   2   0     0   2   0     0   0   0     8  16   0     0   0   0     0   0   0     0   0   0     0   0   0    16   0   0     0   0   0     0   0   8     0  12   0     0 100   0     0  96   0     4   0   0    32   0   0     0  16  32    32  20   0     0   0   0     0   0   0     0   8   0     2   8   0     0   8   0     4  40   0     8   0   0     6   0   1     0   0   4     6   0   4     4  32   0     0   0   0     0   0   8    12   0   0    32   0  34     0   0   0     0   0  16     0   0  16     0   0   8     0   0   0     0   0   0     0   0   0     0   0   8     0   0   8     4   0   4     0   0   4     0   1   1     2   1   1     0   0   0     0   0   0     0   0   4     8  10   0     2   0   4     0  16   0     0   4   4     0  64   0     0   1   0     1   0   0     2  68   0     2   4   0     0  37   0     1  36  32     0   1  32     8   4  50     8   0  57   128   0  49   132   4  44     4  36   4     1  52   0     1  32   2    17   0   0    16   0  16    16   0   0     0   0   0     1   2   0     0   2   0    33   2   0     0   0   1     9   0   0     6   0   0     6   0   0     0   0   1     0   0   4     0   0   4     0   0   0     0   0   0     0   0   0     0   0   0     0   0   2     0   0   8     0   0   0     0   0   0     2   0   0     0   0   0     0   0   0     4   2   0     0   4   0     0   0   0    16  16   0     0   0   0     1   0   0     0   0   0     2   2   0     0   0   0     4   0   4     4   0   4     4   0   2
  0   0   0     0   0   0     2   0   0     2   0   2     0   0   2     0   0   0     0   0   0     0   0   0     0   0   0    32   0   0     1   1   0     0   0   0     0   0   2     2   0   0     0   0   0     0   0   0     0   0   0     1   1   0     2   4   0     0   4   1     0   0   0     0   0   0     0   0   0     0   0   2    36  36  36    36  32  36     0   0   0     0   0   0     0   0   0     0   4   4     2   0   0     0  10   0     0   0   0     8   8   0    32  32   0     0   0   0     0   0  32     1   0  32     0  32   0    36  36   0     0   4   0     1   8   0     0   0   0     4   0   0     0   0   0     0   0   0     4   0   0     4   0   9     0   2   9     4   2   0     0   2   0     2   0   0     0   9   0     0   2   0     0   0   0     0   0   0     0   0   8     0   2  20     0   2   1     0   0   0     0   0   0     0   0   0     0   0   0     0   0   0     0   0  16     0   2  16     0   1  64     0   3   0    32   2  64     0   0   0     0   0  16    16   8  16     0   0  16     0   1   1     0   5   0     0   0   0     0   1   0    32  12   0     0   0   0     0   2   0     0   0   0     8   0   0     1   0   0     8 128   0     0   2   0    16   0   0    16   0   0     4   0   0     0   0   8     4   9   0     0   0   0    64   1  16     0   1   0     0   4   0     0   4   0     0  32   0     8   2   0     0   0   0     0  16   0     0   0   0     0   0   0     0   0   0     0   0   0     0   0   0     0   0   0     1   0   0     0   0   0     0   0   0     4   0   0     4   0   0     0   2   0     0   6  33    32   0  32     0   0   0     0  64   4     8   0   4    10  16   4     9   0   0     0   0   0     0   0   0     0   0   1   128  16  72     0  16   1     0   0   4     4   0   0     4   0   0     4   0   2     0  16   8     0   0   0     0   0   4     0   0  12     0   2  12     0   2   0     0   2   0     8   0   0     0   0   0     0  32   0     0   0  12     0   1   4     0   1   4     0   0   0     0   0   0     0   0   0     0   0   0     0   8   0     8   0  64     0  17   0     0  16   0     0   1   0     0   0   0     1  16   0     2   0   4     0   2   0   130  36  32     1  32  50     0   0   0     0   0  32    16   1  41    16   1  41   128   0   0     0   4   4     1   4   0    33   0   0    16   8   2    16   9   4    16   9   0     0   9   0    32  16   0     0   0   0     1   0   0     1   2   0    11   0   0     8   0   0     4   0   0     4   0   0     4   0   0     0   0   0     0   0   0     0   0   0     0   0   0     0   0   0     0   0   2     1   1   0     0   0   9     1   1   1     1   1   1     0   0   0     0   0   0     0   0   0     0   4   0     0   0   8     8   4   0     0   4   8     0   2   0     0   0   0     2   2   0     0   0   4     0   0   4     0   0   4     4  32  18
  6   0   2     2   0   2     2   0   2     0   0   0     0   2   2     0   2   0     0   2   0     0   2   0     0   0   0    32   0   0     0   0   0     2   4   0     0   0   2     0   0   0     1   3   0     1   1   0     0   0   0     3   1   0     2   4   0     2   4   1     2   4   1     0   0   0    32  32  34     0   8   2     0  12   2    34  40  34    32  32  32     0   0   0     2   0   0     2   0   4     2   0   0     4   4   0     0   2   0    32  32  40    32  32  40     0   0   8     0   0   0    32  32   0    32  32   0     1   4   0     9  12   8    12  12   0     4   4  64    64  64   0    64   4   0     4   0   0     4   0  64     0   0   0   128   0   2     4   0   0     0   0   0    16   0   0     0   8   0    16   0   0    16   0   0     0   4  32     0   0   0     0   2  15     0   2  21     0   0  24     0   0  16     0   0  32     0   0  16     1   0   0     2   3  16     0   0   0     0   2  64     0   3   0     0   8  16    16  40   0    16   8  16    16   0  17    18   0   0     0   1   0     2   1   0     2   0   2     2   0   3     0   0   0     0   0   0     0   2  32     0 128  32     0   0   0     0   0   0     0   0  32     0   0   4     0  96  32     0  96   0     0   8   0     0   8   0     0   8   0     8   0   0     0   0  16     1   0   4     0   4   0     0   0   1     0  33   0     8   0   0     0   1   0     0   0   0     0  16   0     0   0   0     0   0   0     0   8   0    16   8   2     4   8   0     0   0   2     0   0   0     0   0   0     0   0   0     0   0   0     0   0   0     0   1  16     0   0   0     0   0   0     0   2   0     0  16   0     8  16   0     8   0   0     8   0   0     0   0   0     0   0   0     0   0   8     2  16   8    16   0   4    16   0   0    21   1   0     5   1   8    14   0   2     0   0   8     6   0   4     0   0  12     0   0   8     8   0   8     0   0   0     0   0   0     0   2   0     0  48   0     0   0   0     0   0   4     0   0   0     0   0   0     0   0   0     0   0   0    10   0   0     0   0   0     2  16  68     0   8  64     0  16   0     0   0   0     0  16   4     0  16   0     0   2   2     8   0  64     8 134   0     0 128  18     0  21  82     0   0   0     0 128  33    16   0   1     0   1  12     0   0  16    32   0   8    64   1   0    32   0   0     0   8   0    32  24   0     0  24   0     0   2   0     0   0   0     0   0   0     9   2   0     1   0   0     4   0   0     4   0   0     0   0   0     0   0   1     0   1   0     0   0   0     0   0   0     0   0   8     0   0   8     9  25   2     1   1   0     1   1   0     0   0   0     0   0   0     0   2   0     0   2   0     0   6   0     1   1   0     0   1   2     0   4   8     0   0   8     0   0  16     0   0   0     2   2   0     2   0  32     0   0   0     0   0   4     4  32   2
  0   0   2     2   0   3     0   0   2     0   0   0     0   0   0     0   2   0     0   2   0     0   0   0     0   2   0    32   0   0     0   0   6     3   5   6     2   0   0     1   1   0     1   3   0     0   2   0     0   2   0     0   4   0     0   4   0     2   0   0     0   4   0     0   0   0    34   0   0     0   0   2    36   0   0     4  40  34     0   0   0     0   8   0    16  16  16     0   0   0     0   4   0     0   0   0     0  32  32     0  32  32     0   0  32     0   0  36     0   0   4     0   0   0    17  16   0    17  17   1     7   4   0     0   4   0     0   0   0     4   4   0     4   4   0     4   4   0     0  16   0     4   0   0   128   0   0     1   0   0     0   1   0    16   9   0     0   8  16    16   0   4    16   0   0     0   0  32    16  20   0    16  20   0    16   0   0     0   0   8     0   2   0     0   0  40     2   1  32     2   0   8     3   2   0     6   0   0     0   2  64     0 128   0     0   8   0    16   8  16     0   0   0     0   0  16     0   0   1    16   0   1     2   1   2     0   1   1     2   2   1     0   0   9     0   0   8     0   0   8     0 128   0     1   0   0     1   0   0     0   2   0    16   0   0    16   0   0    16  32  16     0   0  16     0  32  16     0   8  16     8  33   0     0   1   4     0   0   2     0   5   4     0   0   0     8   1   0     0   0   0     8   1   0     0   0   0     0  24   0     0   8   0     2   8  16     2   8   2     0   0   2     0   0   2     0   0   0    33   0   0     0   0   0     0   0   0     0   0   0     0   0   0    16   1   2     0   3   0     0   4   0     0   0   0     8  16  64     0   0  64     0   0   0     0   2   2     0   0   0     0   0  12     0   0  10     0   0  12     0   0   0     0   0   0     0   0   0     1   1   8     3   0   0     0   0   0     4   0   0     0   0   0     0   2   0     0   0   8     0   0   0     0  16   0     0  48   0     0  16   0     0   0   0     0   0   0     2   0   4     0   0   0     2   0   0     0   0   0     0   0   0     0   0   4     0   8   0     0   9   0     0  25   0     1  16   0     1  16   0     0   2   4     0   0  70     8   0 114   128 130  98     0   0  18     0  20   2     0   0   0     0   0  72    16   2  40    16   0   8     0   0   8     0   1  72    32   9   0     0   1   0     1   0   0     0   1   0     0   2   0     0   0   0     0   0   0     0   0   0     0   0   0     2   0   0     0   0   0     0   0   0     0   0   0     0   0   0     0   0   0     0   0   0     2   0   0     0  24   0     0   0   0     1   1   0     1   1   0     0   0   0     0   0   1     0   0   4     0   0   4     0   2   0     0   4   0     0   4   2     4   5   0     0   0   8    28   4   8    32  34   0    32  34  32     2   2  32     0   0   0     0   0   4     0   0  12     0   0   4
 30   0   0     0   0   1     2   0   0     0   0   1     0   2   0     0   2   0     0   2   1     0   0   0     0   0   0     0   0   0     0   0   4     2   0   0     0   0   0     0   0   0     1   3   0     0   2   0     0   2   0     0   0   2     2   0   0     1   1   0     0   0   0    34   0   0    34   0  34     0   0   0     4  32  34     0   0   2     0   0   0     0  16   2     0   4   0     0   4   1    32   0   5    36   0   0     4   4   4    32  32  36    36  36  36    32  32  32    32  32  32     0   0   0    32  32  32     1   1   1     0   1   1     0   0   0     0   0   0     4   4   0     4   4   0     8   4   8     0   0   0     0   0   0     0   0   0     0   0   0     0   1   0     0   0   0     2   1  16     0   0   4     0   4   0    16   0  32    20   4   1     0   4   8     0   4   9     0   0   0     0   0  56     4   1  32    21   0   8     7   1   8     0   1   0     1   2   0     0   0   0     6 128  32    16 128   0     0   8   0    16   0   0     0   0   0    16   0   0     0   0   2     0   0   0     0   8   2     0   0   0     0   2   0     0   2   8    32   0   0     0 128   0     0   0   0     0   0  20     0   0   4    16   0   4     0   0   0     0  32   0     0   0   0     0  32   0     0   8   0     8  32   0     8   0   4     8   0   0     0   0   0     8   1   0     0   0   0     8   0   0     0   0   0     2   0   0     0   0   0     4   8   0     4   8   0     0   8  16     0   0   0     0   0   2    10   0   0     0   0   0     0   0   0     0   0   0     0   0   0     0   0   4    16   0  12     0   2   0     0   0   0     0   0   0     0  16   0     0   2   2     0   2   3     0   0   2     0   0   4     0   8   4     0   0  12     0   0   8     0   0   8     0   0  16     0   0  16     1   0   8     7   0   8     5   0   0     4   0   0     0   0   8     0   4   9     0   2   8     0   6   0     0   0   0    16  24   0     0  16   0    16   0   0     0   0   2     0   0   0     8   0   0     2   0   0     0   2   0     0   0   2     0   0   6     2   0   2     0   1   0     0   0   0     1  16   0     1  16   0     0   0   2     8   2   2     8 128  32     0 128  48     0 128  96     0   0   0     0   0   2     0   0   0     0   2  24    16   0  32     0  64  28     0   0   0     0   0   0     0   0   0    32   0   0     2   2   0     0   8   0     0   2   0     0   0   0     0   0   0     8   0   4     0   0   0     0   0   0     0   0   0     0   0   0     0   0   0     0   0   0     0   0   0     0   0   0     0   0   0     0   4   0     1  29   0     0   0   0     0   0   0     0   0   0     0   0   4     0   0   0     0   0   0     0   2   0     0   0   0     8   0   0     8   0   0     0   0   0     0   0   0     0   0  32     0   0  32     0   0   0     0   0   0     0   0   0     2   0   4
 20   0   0     0   0   0     0   0   1     0   0   1     0   0   1     0   2   1     0   2   1     0   2   0     0   0   0     0   0   0     0   0   4     0   0   0     2   0   0     1   1   0     1   3   0     1   3   0     1   3   0     0   0   2     0   0   2     0   0   2     2   0   0    34   4   0     2   4   0     0   0   0     0   2   0     0   2   2     0   8   2    24   0   0     0   6   0     0   4   1    36  36  37    32   0   4     4   4   0    36  32  32    36  36  36     0   0   0    32  32  32    32  32  32     1   1   1     1   1   1     0   0   0     0   0   0     0   0   0     0   0   0     0   0   0     4   0   4     0   0   0     0   0   0     0   2   0     0   0   0     0   0   0     0   0   0     0   0   0     0   0   4     0   0  12     0   2   0     4   0   1     0   4   0     0   0   2     4   0   8     0   0   0     6   0   0     4   0   0     5  16   8     1   0   8    34  16   0     6  16  32     2   2   0    20 128   0    16   0   0     8 128   0     0   0   0     0   0   0     0 136   2     0 128   0     0 128  18     0  10   0     0   2  16     0   0   0     0   0   8     0  16   0     0   0   0     0   0   4     0   0   4     0   0   0    16   2   0    16   0  16    16   0   0    32   0  16     0   0   0    64  32   0     0  32   0     0   0   0    32   1   0     0   1   0     0   1   0     4   0   0     8   1   0     0   0   0     0   0   0     0   0  16     6  40  10    20   8   8     2   0   0    24   0   0     8   0   0     0   0   0     0   0   0     0   0   0     8   0   0     8   0   0     4   0  12     4   2   4     0   1  12     0   0   0     0  16   2     8  16   0     0   0 112     0   2   0     0   0   4     0   0   6     4   0   2     0   0   2     0   0   0     0   0   0     0 128   0     2   0   8     0   0   8     4   0   8     0   0   8     4   0   0     0   0   1     0   4   0     0   0   0     0  24   0     0   0   4    16  16   0     0   1   0     0   1   0     0   0   0     8   0   0     0   0   0     3   0   2     0   0   2     0   0   2     0   0   0    16   1  64    18   1   0    22   0   0     0   0   0     0   0  64     0   0  80     0 128  16   129   0   0     0   0  32     0   0  40     0  16  42     0   0  32     0   2   0     0   2   0     0   0  16     0   0  64     0   0   0     0   2   0     0   0   0     8   2   0     8   0   0     1   0   0     0   0   0     0   0   0     0   0   0     0   0   4     0   0   4     0   0   0     0   0   0     0   0   0     0   0   0     0   0   0    16  16   2     0   4   0     0   4   0     0   4   0     0   0   2     0   6   0     0   0   1     0   0   0     0   2   4     0   0   8     9   1   8     9   1   0     9   1   8    14   0  16     8   0   8     2   0   8     0   0   0     2   0   0     0   0   0     0   0   0     0   0   0     4   0   4
 24   0  32    28   0   0     2   0   0     2   0   0     0   0   1     0   0   1     0   0   3     0   0   0     0   0   1     0   0   0     0   0   0     0   0   0     1   1   0     0   0   0     1   1   2     0   2   0     0   2   0     0   0   0     2   0   0     2   4   0    32   4   0    32   4   0     0   0   0     0   0   0     0   0   2     0   0   0     0   2   2     0   0   2     0   0   0     0   0   0    32   0  32     4   4  36     0   4   0     4   0   0     0   0   0     0   0   0     0   0   0     0   0   0    32  32  32    32  32  32     0   0   0     0   0   0     0   0   0     0   0   0     0   0   0     4   0   4    36  40  36     4   8   0     0  10   0     4   0   0     0   0  48    16  16   0     2   0   0     2   4   0     1   0   0     0   0   0     1   0   9     2   0   8     0   4   0     2   0   8     2   0   0     2   0   0     2   1  40    16   0   8    16   0  72    32  16   0     2  48   0    20  16   0    18  16   0     0   0  16     8   0  16     0   2   0     8   0   0     0   2   0     0  10   0     0   0   2     0   0   0     0   0   0     0  68   8    32  20  16    32   0  40     0   0   0    16 144  32     0   0   0     0   0  32    16   0   0     0   0   2     0   0   4     0   0   0     0   0   0    64  32   4    64  32   4     0   0   8     0   0  24     0   0  24     0   2   0     0   0   0     0   1   0     8   0   0     0   0   0     0   0  16     0   0  16     0   8   8     0   0   4     8   0   0     0   0   4     0   0   0     0   0   0     0   0   0     0   0   4    16   0   4    20   0   0     4  10   0     0   2   0     0   0   0     0   0   0     0   2   0     0   0   0     4   0   0     5   0   8     1   4   0     4   0   2     1   0   2     1   0   0     0   0   0     0   0   0     2   0   8     2   0   8     1   0   8     4   0   0     4   0   1     4   8   1     0   8   0     0   0   0     0   9   0     0   9   1     0   0   0     0   1   0     0   1   0     0   0   2     0   2   2     0   4   0     1   0   2     0   0   0     2   0   2    18   1   0    20   1   0     6   1   0    32   0   0    20  16   0   132   0   0     0  16  64     0   0   0     9   0   0     0   0   0     0   0   0     0   0   0     0   0   0     0   0   0    64   0  28     0   0  20     0  16   0     2   0   0     0   0   0     0   0   0    10   0   0    10  10   0     0   0   0     8   0   0     0   0   0     0   0   0     0   0   4     0   0   4     0  10   0     0   0   0     0   0   0     0   0   0     0   0   8     0   2   2     0   2   0     0   0   0     0   0   0     0   0   4     0  24   0     0  24   0     0   2   0     0   0   0     0   0   0     0   0   0     0   2   0     1   1   0    16   0   0     0   0   0     2  32   0     8   8   0     0   0   0     8   0   0     0   0   0     0   0   8     0   0   8
  4   0   0    20   0   0     4   0   0     0   0   0     0   0   0     0   0   0     0   2   0     0   0   0     0   0   0     0   0   0     0   0   0     1   1   0     0   0   0     0   0   0     0   0   2     0   2   0     0   0   0     0   0   0     0   0   0     0   0   0     0   4   0     0   0   1     0   4   0     0   2   0     0   2   2     0   0   2     0   0   0     0   0   2     0   0   3     0   0  33    32   0  33     0   4   0     0   4   0     0   4   0     0   0   0    32  32  32     0   0   0     0   0   0     0   0   0     0   0   0     0   0   0     0   0   0     0   0   0     0   0   0    32  32  32    32  32  32     4   0   0     4   0   0     4  72   0    12  72  64     4   8  16     0  16   0    19   0   0     0   0   0     0   0   8     1   4   0     0   0   1     0   4   2     1   4   2     0   4   3     0   0   1     4   4   8     0   0   8    20   0   2    16   0  98    16   0  34    18   2   0    22   0   2    29  17   0     1   0   2     1  19   4     8   2   4     0   0   4     0   8   0     0  16   4     0  16   0     0   8   0     0   0   0     0  64   0    20   4  16     0   6  16    24  16   0    16   0  96     0   0  32     0   0  32     0  96   0     4   0   2     0   0   0    32   1   6     0   0   0     0   0   8    64   0   0     0   0   0    32   0   0    32   0   0     4  17   0     4   0   0     0   0   0     0   0   0     0  32   0     0   0   0     1   0   8    18   0   0     0  16   5     0   0   4     0   1   1     0   4   5     0   4   1     0   4   0     0   4   4     4   0   0    20   0   0    16   2   0     0   2   8     1   0   0     1  16   0     1   0   0     1  18 128     1   0   0     4   0   0     1   0   2     0   0   0     0   0   2     0   0   0     5   4   0     3   0   2     0   0   2     1   0   0     0   0   0     0   8   0     0   8   0     0   8   1     0   0   1     0   0   4     9   1   0    13   1   1     0   1   0     0   0   0     0   0   0     0   0   0     1   0   3     1   0   0     0   0   0     0   0   0    16   0   0    16   2   0    22   0   0     6  16   8    12 129  12    16   0   4     0   0  64     0   0   0     0   0  64     0   0   0     0   0   0     0  16  32     0  16   0     0   0   2     0   0   2    96   0  18     0   0   0     0  18   0     2   4   0     2   5   0     2   0   0     0   0   0    12   2   0     0   0   0     0   0   0     0   0   0     0   0   4     0   0   0     1   1   0     8   0   0     0   0   0     0   2   0     0   0   0     0   6   0     0   2   0     0   4   2     8  26   0     0  16   0     0   8   0     0   8   0     0  24   0     0  18   4     0   0   0     4   0   0     0   0   0     4   0   0     1   1   8     0   8   8     0   0   0     0   0   0    10   8   8     8   0   8    10   8   0    14  12   8     2   4   8     0   0   0
  0   4   8     2   0  24     2   0   4     0   0   0     0   0   0     2   0   0     0   0   0     0   0   0     0   0   0     0   0   0     2   0   0     0   0   4     0   0   0     0   0   0     0   0   0     0   0   0     0   0   0     0   0   0     8   0   0     0   0   0     0   4   0     0   6   1     0   6   0     0   0   0     0   0   2     0   0   2     0   2   0     0   0   3     0   0   0    32   0   1     0   0   1     0   0  32     0   0   0     1   1   0     0   0   0     0   0   0    32  32  32     0   0   0     0   0   0     0   0   0     0   0   0     0   0   0     0   0   0     0   0   0     0   0   0    32  32  32     0   8   0     0   0   0     4  64   0     4  64  64    21  64   0    28  16   0    16   0   0    16   0   0    16   4   8     2   4   8     4   4   2     3   0   2     1   0   0     0   0   0     0   0   0     0   1   8     0   0   0     0   0   0     0   0   0    16   0  66     2  16   2    18   0   2    16  16   2    17   0  34     0   2  34     8   2  34     8   0   0     8   0   0     0   8   0     0   8   0     0   8   0     0  64   0     0   0  16     0  16   0     4   0  16    28   4  64     4   0   0     0   0  48     0   0   0     4   0   0    12   0   2     8   0   2    32   0   4     0   0   2     0   0  14     0  32   4     0   0   0     0   0   0    32  16   0     0  19   0     0   0   0     0   0   0     8   2   0     0   0   0     0   0   0     1   1  64     0   1  64     0   0   0     0   0   4   128   0   0     0   4   4     0   6   4     0   6  16     0   4  16    16   4   0    16   0   0     0   0   0     4   2   0     0   0   0     1   2   0     1   0 128     1  16 128     1   0   2     0   0   0     5   0   8     1   0   8     1   0   8     0   0   0     1   4   0     1   0   0     4   0   0     1   0   0     0   0   0     0   0   0     4   0   1    16   0   1     0   0   0     0   0   0     1   0   0     0   8   0     8   8   0     0   0   0     0   0   2     0   0   2     1   0   1     1   0   1     0   0   1     0   0   0    16  17   0     0   1   0     4   0   0     0  16  64     0 128  64     0   0  72     0   0  20     0   0 100     0   0   0     0  40   0    32  32   1    96  32   0    64  32   0     0   1   0     0  32   0    64   0  16    32   0   0    98  16  16    34   0   0    34  16   0     4   4   0     4   0   0     4   2   0     0   0   0     0   0   0     0   0   0     1   0   0     9   0   4     1   1   4     9   0   0     0   0   0     0   2   0     0   0   0     0   6   0     0   4   2     0   0   0     0   2   0     0   0   0     0  24   0     0  16   4     0  16   0     0   0   4     0   0   0     4   0   0     4   0   0     0   0   0     0   4   0     0   0   2     0  36   0     0   8   0     8   8   0     2   0   8     0   0   0    12   0   0     8   4   0     0   6   8
 16   0   0     0   0  16     6   0   4    24   0  29     4   0   4     4   0   0    24   0  24     0   0   0     0   2   0     0   0   0     0   0   0     0   0   0     0   0   0     0   0   0     0   0   0     0   0   0     0   0   0     0   0   0     0   0   0     0   0   0     0   0   0     0   4   0     0   4   0     0   2   0     0   2   0     0   0   2     0   2   2     0   0   0     0   2   3    32   0   0    32   0   0    32   0   0     0   0   0     0   4   0     0   0   0     0   0   0     0   0   0     0   0   0     0   0   0     0   0   0     0   0   0     0   0   0     0   0   0     0   0   0    16  16  16     4   4   4    32   0   0     8   0   0     8   0   0     8   0   0     0   8   0    16   8   0    16  20   0    16 144   1     0   4   0     5   0   8   128   4   0     0   4   8     1   0   0     8   0   0     0   0   1     0   0   8     4   0   0     0   0   0     4   0   0     0  16  98     4   0   2     2   0   2    16  16   2    16   0   2     0   0   0     0   2   4     0   0   0     8   8   5     0   0   0     4   8   0    32   0   0     0   0   0     0   0  16     0  16  32     4   0  98    20  18  96     0   6  20     0   0  16     0   0   0     0  96   8     0   4   2     8   4   4     0   0   0     0   0   4     0   0   0     0   0   0     0   0   0     0   0   0    32   0   0     0   0   0     0   2   0     0   0   0     0  34   0     8   0   1     8   0   1    96   1   9    16   1  64    16   0   8     0   0   0     0   0   0   128   0  16   137   3  64    32   2   1    32   0  48     0   0  48     4   0   0     0   0   0     0   0   0     0   0   0     0   0   0     0   0   0     0   0   0     0   0   0     0   0   0     4   0   0     1   0   0     0   0   8     0  12   8     0   0  10     1   4   0     0   4   2     0   0   0     0   0   0     0   0   2     0   0   0     0   0   0     0   0  16     0   0   0     0   0   2     0   0   0     1   0   1     0   0   0   128   0   0     0   0   2     0   4   2     0   0   0     1   4   1     1   0   0    16  16   0     0   0   0    16  16   0     0  16  72     0 129 104     0   1 104     0   0 112     0   0  32     0   0  32     0   0   0    32  16  17    32   0   0     0   0   0     0  33   0     0  32   0     0   0  16    32   0  16     0   0  16    32   0   0   102  64   0    36   0   0     4   0   0     0   0   0     4   0   0     0   0   0     0   0   0     8   0   4     1   0   0     9   3   0     8   2   0     8   0   0     0   0   4     0   0   0     0   4   0     0   4   0     1   7   0     8   2   0     0   0   8     0   0   8     8   0   0     0   0   0     8   0   0     2   0   0     0   0   0     0   0   0     0   0   1     0   0   0     0   0   0     0   8   1     0   0   1     2   0   0    10   0   0    12   0   8    12   0   0     8   0   2     0   2   0
  0   0   0     0   0   0    24   0   4     0   0   4     0  32  28     0   0  28     0   0   0     0   0   0     0   0   1     0   0   1     0   0   0     0   0   0     0   0   0     0   0   0     0   0   0     0   0   0     0   0   0     0  32  32     0  32  36     0   0   0     2   4   0     0   0   0     0   0   0     0   0   0     1   1   0     0   0   0     0   2   2     0   2   0     0   2   0     0   0   0     0   0   0     0   2   2     0   0   0     8  12   0     0   0   0     0   0   0     0   0   0     0   0   0     4   4   4     0   0   0     0   0   0     0   0   0     1   1   1     1   1   1     0   0   0    20  20  20     8  12  12     8   4   8    24   0   0    16   0   0     0   0   0     0   0   0     0  28   1     0   1   1     0   4   0     0   0   8     0   0   0     1   0   0     1   0   0     0   0   0     0   0   4     0   0   8     0   0   0     0   0   0     0   0   0     0   0   0     0  16   0     2   0   8     0  16   0    34   0  32     2   0   0     0   1   2     0   0   1     0   0   4     0   0   0     0   0   0     0   0   5     0   0   1     0   8  16     0   0  16     0   0  35     0   4   0    16   0   4     0   0   1    16   0   0    25   0   8     8   4   0     0   0   8    40   0   4     0   0   4     0   0   6    64  32   0     0   0   0     0   0   0     0   0   1     0   0   0     0   2   0     0  18  32     8  16   5     8   0   1     8   0   8     0   0   0     0   0   0    16   0   0    17   0   0     1   0   0     4   0   0     1   1   0     0   2  16     0   2   0     0   0   0     0   0   0     0   0   0     4   0   0     0   0   0     8   4   0     0   0   0     0   0   0     0   0  16     0   0  24     0   2   0     0   2  24     0   2   0     0   0   8     0   0   0     0   0   8     0   0   0     0   0  32     0   0   0     0   4   0     4   4   0     4   0   0     0   0   0     0   0   0     4   0   1     0   0   0   128   0   0     0   0   0     0   0   0     0   0  18     0   0   0     1   0   1     1   0   1     1   0   5     0  24   4   128  16   4     0   0   0     0   0   0     0   0  96     0   0   0     8   0   0     8   0  32     8   0   0     0   8  33    32   8  17    96   0   0     0  32   0     0   0   0     4   1   0     0  64   0     1   0  16    67  64   0     2   2   8     2  16   0     0   0   0    34  32   0     0   0   0     0   0   0     0   0   0     4   0   0     8   8   0     0   2   0     1   1   0     0   0   0     8   0   0     0   0   0     0   0   0     0   0   0     0   0   0     0   2   0     0   2   0     0   0   0     0   0   0     0   0   0     0   0   8    10   0   8     8   0   0     0   0   0     0   0   0     0   0   0    16   0   0     0   0   0     0  16   0     2   0   0     0   0   0     0   0   0     8   0  12     4   0   2     0   0   1     4   0   3
 24   0   0    24  32   0    24  32   0    24   0   0     0   0   1    24   0   0     0   0   1     8   0   1     0   0   0     0   0   1     0   0   1     0   0   0     0   2   0     0   2   0     0   2   0     0   0   0     0   0   0     0   0   0     0   0   0     0   0   0     0   0   2     0   0   0     0   0   0     9   1   0     1   3   0     0   0   0     0   2   0     0   0   4     0   0   4     0   0   0     0   0   2     0   0   0     4   0   0     0   4   0     0   0   0    16  16  16    16  16  16     0   0   0     0   0   0     2   2   2     0   0   0     0   0   0     0   0   0     1   1   1     0   0   0     0   0   0    20   4  16     0   4  12     9   0  16     9   1   0     0   0   3     0   8   1     0  28   3     0   1   1     0   1   2   128   1   0     1   0   0   129   1   8   144   0   0     8   1   4     0   0   4     0   0   0     0   0   0     0   0   8     0   0   0     0   0   8     2  16   8     2   0  16     2  16   8     0   2   8     0  11   0     0   8   0     0   8   0     0   0   2     0   0   4     0   0   4     0   0   5     0   0   5     0   0   5     0   0   1     0   0 112     0   5  17     0   1  17     1  32   0     0   0   0     1   0   0     0   4   0     8   0   0     8   0   8     0   0   0     0   0   0     0   0   2     0   0   0     0   0   1    16   0   1     0   0   1     0   0   0     0  16  35     1  32   7     8   0  11     0   0   1     0   0   0     0   0   0    16   2   0    17   2   0    20   2   0     4   1   0     1   2   1     0   0  16     0   2  32     0   1   0     0   2   2     0   0   0     0   0   2    32   0   0     0   4   0     0   0  16     0   0  16     0   0   0     0   4   0     0   0   0     0   2   2     0   1   0     0   0   2     0   0   0     0   8   0     0   0   0     0   0   0     0   0   0     0   0   0     0   4   0     4   0   0     4   0   0     2   0   0     0   0   1   128   0   2   129   0   1     0   0   0     0   0   0     0   0  18     0   0   0     0   0   0     9   0   0   113   0   0     0   8   4     1   0   0     0   0   0     0   0  32     0   0   0     0   0   0     8   0   0     8   0  32     0  16  48    68  16  16   100   0   0     0   8   0     0   0   0     0   0   0    16   0   0     0   0   0     1   0   0     3  16   0     0  64   8     2   0   0     0  64   0     0  32  32     0   0  32     0   0  32     0   0   0     8   8   0     0   8   0     0   0   0     0   0   0     0   0   0     0   0   4     0   0   0     0   0   4     0   0   0     0   0   0     0   0   0     0   4   0     0   0   0     0   0   0     2   8   0     8   0   0     0   0   0     0   0   0     8   0   0     8   0   0     0   0   0    16  32   8     0   0  24     0   0   2     0   2   0     2   0   4     0   2   0    16  32   0     0   0   2     0   0   3     0   0   1
  0   0  33    24   0   0     0   0   0     0   0   0     0   0   0     0   0   0     0   2   0     0   0   0     0   0   1     2   0   0     0   0   1     0   0   0     0   2   1     0   2   0     0   0   0     0   0   0     0   0   0     0   0   0     0   0   0     0   0   0     0   0   1     0   0   0     8   0   0     9   1   0     1   1   0     1   1   0     0   0   0     0   0   0     0   0   0     0   0   0     0   0   0     0   0   2     0   0   0     0   0   0     0   0   0     0   0   0     0   0   0     0   0   0     0   0   0     2   2   2     0   0   0     0   0   0     0   0   0     0   0   0     8   8   8     0   0   0    12   4  12     9   1   0     0   1   4     0   2   2     0   6   0    24  14   0     0   3   1     0   0   0     0   8  16     0   0   0     0   1  16     0   0   0   129   0   0     0   0   4     0   0   0     0  16   0     0  16   0     2   0   0     2   8   0     0   0   0     2   0   0     0   0  24     0  16   8     0   2   8    32   0  32     0   1   0     0   1   0     0   0   0     0   0   0     2   0   0     2   0   0     0   0   0     4   0   0     4   0   1     0   0   2     0   0   2     0   0  17     0   0   1     0   0   0     8   0   1     8   0   0     8   0   0     8   0   0    16   0   0     0  32   0     0  32   0     0  32   0     0   0   1     2   0   9     2   0   3     0   0   3     1   0   3    20  16   0    17   0   1     0   0   0     0   0   0     0   0   0     4   2   0     0   1   0     1   8   0     0   0  16     0   2   4     0  11   0    64   0   0     0   0   0     0   4   2   128   8   8    16   0   0    32   0   0    34   4  34     4 128  32     4   4   8     0   4   8     0   4   0     0   4   0     0   0   6     0   0   0     0   0   0     0   0   0     0   0   0     0   0   0     0   0   0     0   0   0     0   0   0     0   0   0     2   0   0     2   0   0     0   0   0   128   0   0     0  25   0     0   1   0     0   0   0     0   0   2     0   0   0     0   0   4     0  16   1     0  16   0   112   8   0     1  24   0     1  16   0     0   0  32     0   0   0    16   0   0     0 128   0     0   0  32     8   0  32     4   8  48    64  32   0    68  32  16     4   8   0     0  64   0     8   0   0     8   0   0    32   2   0     0   0   0     1   0  32     1   0  32     0  32  32     0  96  58    10  32  32     8   1  48    16  16  16    16   8   0    16   8  16     8   8   0     0   0   0     8   0   8     0   0   0     8   0   0     8   8   8     0   0   0     0  16   0     0   0   0     0   0   0     0   0   0     0   0   0     2   0   0     2  24   0    12   0   8     0   0   4     0   0   2     0   0   0     8   0   4     0  32   0    24  32   8     0  32  10     4  16  18     0   0  16     8   0  16     8   0   4     8   0   4     0   0   2     0   0  34     0   0   2
  0  32   0     0   0   0     0   0   0     0   0   0     0   0   0     0   4   0     0   0   0     0   0   0     2   0   0     2   0   0     2   0   1     0   0   2     0   0   0     0   0   0     0   0   0     0   0   0     8   0   0     0   0   0     0   0   0     0   0   0     0   0   0     0   0   0     0   0   0     0   0   0     0   0   0     1   1   0     2   0   0     0   0   0     0   0   0     0   0   0     0   0   0     1   1   2     4   0   0     4   0   2     0   0   0     0   0   0     0   0   0    34  34  34     0   0   0     0   0   0     0   0   0     0   0   0     0   0   0     0   0   0     0   0   0     1   1   1    20  16  20    17   3  18     0   2   2     0   0   0     0   0   0    16   8   0     0   0  24     0  11  32     0   8  64     0   1  32   128   1  32     1   0   0   129   0   4     0   0   0     0   0   0     0   0   0     0  16   0     0  24   0     6   0   0     0   0   0     0   0   0    16   0   0     0   0   0     0   0   0     0   0   0     0   0   0     0   1   0     0   0   0     2   0   0     0   0   0     0   0   0     0   0   4     0   0   4     4   2   0     0   2   0     0   0   3     8   0   1     0  32   0     0  32   5     4  32   5     4   0   1     0   0   0     0   0   0     0   1   0     0   0   0     0   1   0     0   0   0     2   0   0     0   0  10     2   0   2    16   0   2     0   0   2    16   0   1    16   8   0     0   0   0     0  32   0     0  32   0     0   2   0     0   0   0     0   0  16     0   1  16     0   1   4     0  10  16    32   8   0     0   8   0     0  10   2     0   8  72   128   8  72    32   0  32    34   4   2    36   1  32     4   0   2     4   0   0     0   0   0     0   0   0     0   0   2     0   0   2     8   0   2     8   0   0     8   0   0     0   0   0     0   0   0     0   0   0     0   1   0     0   1   0     0   0   0     2   0   0     2   0   4   128   0   0   130   1   2     0   1  10     0   0   2     0   0   0     1   0   1     0   0   0     4   0   1     0  16   0   113   0   0   120   8   0     0   0   0     0  16  32     0   0   0     0   0   0    16   0   0     0   1  32    12   1  32    76   1  16   100   2  16     0  16  16     0   0   0     0   0  64     8   0   0     8   0   0    32   2  16     1   2   0     0   2   0     0  36  32     0  32   0     0  96  32     8  64   0     0  81  48    16   1  16    18   8  16    16   8  16    10   0   4     0   0   0     8   0   0     8   8   8     8   0   0    24   0   8     0   0   0     0   0   0     0   0   0     2   0   0     2   0   0     0   0   0     0   0   0     2   0   0     2   0   0     8   0   9     0   0   2     0   0   4     0   0   4     0   0   4     1   1  10     0   2  10     0   0   0     0   0   0     1   1   0     9   1   0    16   0   0    24   0   2     0  32  34     0   0   2
  0   0   4     0   0   0     0   0   0     0   0   0     0   2   0     0   4   0     0   2   0     0   0   0     2   0   0     2   0   0     2   4   1     0   4   0     0   0   2     0   0   0    24   0  32    24   0  32    20   0   0     8   0   0     8   0   0     0   0   1     0   2   1     0   0   0     0   0   0     0   0   0     0   0   0     1   1   0     0   4   0     0   4   0     0   0   0     0   2   0     0   2   0     1   1   0     0   0   0     0   0   2     0   0   0     0   0   0     0   0   0    34  34  34     0   0   0     0   0   0     0   0   0     0   0   0     0   0   0     0   0   0     0   0   0    24  24  24     2  16   0    18  16  16     2   0   2    16   2   2     0   0   0     0   0   0     0  24   0    32   0   0     0   1   0     0   1   0   128   0  32     0   1   0     0   0   0     0   0   0     0   0   0     0   0  16     0   0   0     0   0   0     4   8   0     5  12   0     4   4   0     4   0   0     0   0   0     0   0   0     0   0   0     0   1   0     0   0   0     0   1   0     8   8   8     0   2   0     2   0   0     0   2   0     2   2   4     4   2   6     0   2   0     0   0  10     8   0   0     0  32   8     4  36   4     4   0   0     4  32   4     4   8   0     0   0   0     0   0   0     0   0   0     2  32   0     0  32   0     2  32   0    32   0   2     0   0   2     0   0   2     0   0   0     4   0   0     0   0   0     4   0  32     4   2   0     8   0   0     8   0   0     0   0   0     0   0   0     0   0   0     0   0   4     0   0  12     0   8   8     0   4   0    16   4   8   128   8   4     0  12  10     0   8   8     0   8   8     0   8   8     0  16   0     0  24   8     0  20   0     0   0   0     0   0   2     0   0   2     8  16   0     0   0   0     0   0   0     0   0   0     0  16   0     0   0   0     0   0   2     2   0   0     2  24   0     2   0   0     0   0   0     0   0   0     0   0  10     0   0   2     2   0   0     2   0   0     5   0   1     0   0   0     5  18   0   120  16   0     4   0   0     4   8   0     0   0   0     0   0   0     0   1   0     0   1   0   144   1   0     0  17  32     0  17   0    10  17   0     0  16   2     1  16   2     0  16  48     1   0  16     0   8   0     0   2   0    32   2   0     1   2   2     1   8   1     1   8   4     0   0   0     0   0  64     0   0  72     2  64   0     0  32  16     2   8  16    16   0   0    16   0   0     0   0   0     1   0   0     4   0   8    18   0   8    24   8   8     0   2   0     0  16   0     0  24   0     0   0   0     0   0   0     0   0   0     2   0   0     2   0   0     2   0   0     0   0   0     0   0   6     0   0   6     0   0   4     0   8   4     8   0  10     0   0  10     4   0   0     0   0   0    44   0   0     8   0   0     0   0  32    24   0   2     0   0  32     0   0   0
  8   0   0    24   0   0     0  28   4     0   0   0     0   4   0     0   0   0     2   0   0     2   0   0     0   0   0     0   0   0     0   0   3     0   0   3     0   0   0     1   1   0     0   0  32     0   0   0     0   0   0     8   0  10     9   1   8     0   0   0     0   0   0     0   0   0     0   0   0     0   0   8     0  24   0     0   0   2     0   4   0     0   4   0     0   4   0     0   0   0     1   1   0     0   0   0     0   0   0     0   0   0     0   0   0     0   0   0     0   0   0     0   0   0     0   0   0     2   2   2     0   0   0     0   0   0     0   0   0     0   0   0     0   0   0     0   0   0    18  16  16     2  16   0    18   0  18     2   0   2     2   0   2    64   0   0     0  64   8    64  16   8     0   0  32     0   0  33     0   1   0     2   0   0     8   1   0    12   0   0    12   0   2     9   0   0     0   8   0     0   0   0     4   4   0     4  13   1     4   5   2     0   5   1     4   0   2    16   0   0     0   0   2     0   0   0     0   0   0     0   0   0     8   8   8     0   0   0     0   0   0     0   0   4     0   0   4     0   0   1     0   0   3     0   4   3    12   0   2     4   0   1     0  32   4     4   0   0     4   0   0     0   0   0     0   0   0     2   0   0     0   0   0     2   0   8     0   0   1     0   0   0     0   0   0     4   4   0     4   0   0     0   0   0     4   4   0     0   4   0     0   0   0     0  32   0     0   2   0     0   0   0     0   0   0     0   0   0     0   0  16     0   0   0     0   0   8     0   0   0    16   0   8    16  10   4     0  12  14     0   0  36     0  12  12   160   0  98     0   6  34     0   6   6     0   6   2     0  48   0     0  16   0     0   0   0     0   0  10     8   0   0     0   0   2     0   0   0     0   0   0     2   4   0     0   1   0     0   8   2     0  24   0     0  24   0     0   0   8     0   0   0     0   0   8     0   0   0     0   0   8     0   0   8     0   0   0     0   0   0     0   0   0     8  18   0   112   2   0     4   2   0    96   0   0     0   0   0     0   0   0    16   0   0     0  96   0   128   0  32     0   0   0     2   1   0    72   1   2     8  17   2     0  16   0     0  24  48     0  40  80     0   8  64     0  18   0     0   2   0     1   0   2     1   8   3     0   0   0     0   0   4     0   0   4    64  96  72    66  64   0     2  34   0     2   0   0     0   3   0    16   8   0     8   0   0     0   0   0    24   0   0    28   0   0     4   0   0     0   0   0     8   2   0     0   2   0     0   0   0     2   0   0     0   0   0     0   0   0     2  24   0     2   0   1     0   0   0     0   0   0     0   0   4     0   0   0     1  17   0     1   3   8     0   2   8     0   0   0     0   8  10     0   8   8     0   0   0    24  32   0    24  32   0     8  32   0     8   0   0
 10  16   0     2  17   0     4  28   0     0  24   4     0   2   0     0   0   0     0   0   0     0   0   0     0   0   0     0   0   2     0   0   2     0   0   0     0   0   2     0   2  32     1   1   0     1   3   0     0   0   8     0   0   8     0   0   8     0   0   3     0   0   0     0   0   0     6   0   0     6   0   1     0   0   0     0   0   0     0   0   4     0   0   4     0   0   0     0   0   0     0   0   0     0   0   0     0   0   0     0   0   4     0   0   0     0   0   0     4   4   4     2   2   2    14  14  14     6   6   6     0   0   0     0   0   0     0   0   0     0   0   0     0   0   0    32  32  32    16  16  16     2  16   0    18   0  18     0   1   0     2   0   0     0   0   0    64  64   0    64  64   0    64  64  64   128   0   0    10   0   0    10   0   0     8   0   0     8   0   0     0   0   0     0   0   0     8   0   0     0   8   0     2   1   1     0   4   0     0   0   0     0   0   1     4   4   0     4   4   1     0   1   0     0   0  16     0   0   0     0   0   0     0   0   0     0   2   0     0   0   0     0   0   0     0   0   0     2   4   0     0   0   2     8   4   2     0   0   8     0   4   4     0   4   0     4   0   4     0  16   0     0   8  32     0   0   0     2   0   0     0   4   0     0   4   0     0   4   1     0   4   1     4  12   1     4  12   0     4  12   0     0   4   0     0   4  32     0   0   0     0   4   0     0   2   5     0   0   4     8   0   0    32   0   0     0   0   0     0   0   0     0   0   0     0   0   8     4   0   4    16   2   0    20   0   8     0   8   4     0  12  36     0   4   4     0   4  32     0   4   5     0   4   7     0   4   4     0   0   0     0   0   0     8   0   0     0   8  10     8   0   0     0   0   0     0   0   4     0   0   0     0  16   0     0  28   0     0  29   0     2  16   0     0   0   0     2   0   0     0   0   0     0   0   0     0   0   0     0   0   8     0   0   0     0   0   1     0   0   0     0   2   0     8   2   0    96   2   0   104   0   0     0   0   4    16   0   0     0  96   0     0   0   0     0   1   0   136   8   0     0  72   0     8   0   0    10   0   0     0   1   2     0  33   0     0   0  32     0   8  32     0 128   0     0 130  16     1   0   0     4   0   0   129   0   0     0   0   0     0   0   0     0   0   0    32  64  64    32  96   0     2   0   0     0   0   0     0   0   0     2   0   0     0   8   0     0   0   0    12   0   0    28   0   0     4   8  16     0   8   0     0  10   0     0   0   4     0   0   0     0   0   0     0   0   0     0   0   0     0  24   0     1   5   0     2   0   0     1   1   4     0   0   2     1  24   0     1   8   0     1   0   8     1   0   0     0   0   0     0   8   8     0   8   8     8   0   0     9   0  32     0  32   0     8   0   0     0   0   0
 28   0   0     0   0  16     4   0   0     0   0   4     0   0   0     0   0  24     0   0   0     0   0   0     0   0   2     0   0   2     0   0   0     0   2   0     0   0   0    33   3  34     0   0   2     1   1   0     0   0   0     0   0   0     0   0   8     0   0   0     0   0   0     4   0   6     6   0   0     4   0   0     0   0   0     0   0   0     0   0   4     0   0   4     0   0   4     0   4   0     0   4   0     0   0   4     0   0  12     0   0   4     0   0   0     0   0   0     4   4   4     6   6   6     2   2   2     6   6   6     0   0   0     0   0   0     0   0   0    32  32  32     0   0   0     0   0   0     0   0   0    16  16  16     0   0   0     2   0   2     0   0   0    64   0   0    80  64   0    64  72   0    16   8   0     4   0   0     6   0  64     0   0   2     8   0   2     0   0   0     0   0   8     8   0  16     8   0  24     0   8   0     0   9   0     0   1   0     0   0   0     0   4   8     0   4   1     0   6   0     0   2   0     0   0   1     0   0   0     0   0   0     0   0   0     0   1   0     0   0   0     0   0   0     0   0   0     0   0   0     0   4   0     8   4   2     0   0   0     0   0   0     4  32   4     4   8   2     0   0   0     0  24   0     0   0   0     1   1   0    32   1   0     0   4   0     0   4   0    16   4   1    32   0   1     0   0   0     0  20  33     4   4  33     4  32  32     0   0   0    64   0   1     0   0   4     0   1   1     1   0   0    32   0   0     1   8   0     0   0   0     0   1   0     0   0  16     0   2   0     0   2  16     4   2   0     0   0   0     4   8  36     0   0   0     0   0   1     0   0   1   130   4  67   130   0  66     0   0  16     0   0   0     0   0   0     5   0   0     0   0   0     0   0   0     1   0   4     0   0   4    16   8   0     0   8   0     0   0   0     1  16   0     0   0   0     2   0   0     0   0   0     0   0   0     0   0   0     0   0   0    20   0   8    16   2   0     0   2   0     0   0   0   104   1   0    96   0   0    80   1   0     2   0  16    73   0   0     1   2   0     1   0   0     0   0   0     8   0   2     8  64   2    12   0   2     4   0   2    64   2   0     0  32   0     0   8  16     0   0  16     0 136   0     0 130   0    37   0   0     7   0   0   129   0   0     1   0   0     1   0   0     0  64   0    96   0   0    32   0   0     0   0   0     0   0   0     2   0   0    18   2   0     0   8   0     0   0   0     8   0   0     8   0   0     0   0  16     0   0   0     0   0   0     0  32   4     0  32   4     0   0   0     0   0   0     0   2   0     0  24   0     1   0   0     1   5   0     0   0   0     1   1   4     1  24   0     1   0   0     8   0   0     0   0   0     0   0   0     0   0   0     0   8  10     1   8   0     1   0   0     8  32   0     8   0   0    12   1   0
 11   1   0     1   1   4     4   0   4     4   0   0     0   2   2     0   0   2     0   0   2     0   0   0     0   0   0     1   1   0     0   0   0     0   0   0     0   0   0     0   0   2     0   2   2     0   0   0     0   0   0     0   0   0     0   0   0     0   0   0     0   8   0     0   8   6     6   8   6     6   0  11     4   2   0     0   2   0     0   0   0     0   0   0     0   4   4     0   4   4     8   4   0     0  12   4     0   0  12     2   4   2     0   4   4     0   0   0     0   0   0     2   2   2     2   2   2     8   8   8     2   2   2     0   0   0     0   0   0     0   0   0    32  32  32    32  32  32     8   8   0     0   0   8     0   0  16     0   0   0     0   0   0     1   0   0     1   0   0    65  64  64    17   0   0     4   0   0    20   0   0     0   0   6     0   0  34     0   0  34     0   0   0     8   1  24     8   1   8     0   1   0     0   0   0     0   3   0     0   0   0     0   0   8     0   4   8     0   4   0     0   0   0     0   0   1     0   0   0     0   0   0     0   0   0     0   0   0     0   0   0     0   0   0     0   0   0     0   0   0     0  12   8     0  72  32     8   4   0     0  32   0     0   0   2     0  32   6     0  50   0     0  17  98     0   1  96     0   0  64     1   0   0     1   1   0     1   1   0     0   4   0     0   4   0     0   4  33     0   0  33     0   0   1    64   0   0    64   0   0    96   0   0     0   0   1    33   1   1     9   0   0     0  16   0     0  16   0     0  16   0     0   9   0     0   1   0     0   2  16     4   2  16     0  34  16     0   0   0     0   8   0     0   8   0     0  96  16     0   0   8     0   0   1     0   0   0     0  68   1     0   2   0     0   0   0     4   2   0     0   0   0     1   0   0     1   0   4     0   8   0     0   0   4     0   4   0     0   0   0     0   0   4     0   0   0     0   0   0     0   0   0     0   4  20     0   4  20     0   4   4     0   0   8     0   0   0     0  16   1   112   0   0    16  16   0    98   0   0    82   9   0     8   8   0     9   1   0     9   1   0     1   0   0     1   0   0     8   0  34     0   0  32     6   2   0     8   2   0   100   2   2     0   0  32     0   0  16     0   8  48     0   0   4     0   2   0     4   0 128     0   8 144     0   0 130     0   0   0     8   0   0     0   0   0    32   0   0     0   0   0     0   0   0     2   0   0     4   2   2     0   8  10     4  10   8     8   2   0     8   0   0     0   0   0     0   0   0     0   0   0     0   0   4     0  32   0     0   0   4     5   1   0     1   3   0     1   1   0     0   2   0     0   0   0     0   5   2     0   0   2     0   0   0     0   1   0     0   0   0     0   1   0     0   0   1     0   0   0     0   0   1     0   8   0     0   2   4     9   0  48     5   0   0     9   0   0     1   1   0
  0   0   0    17   5   4     5   1   0     0   2   0     4   0   0     0   0   0     0   0   0     0   0   0     0   0   0     0   0   0     0   0   0     0   0   0     4  32   0     4   0   0     0   0   0     0   0   0     0   0   0     0   0   0     0   0   0     0   0   0     0   0   0     0   8   0     0   0   3     0   0   0     0   2   0     0   0   0    10   4   0     2   0   0    12   4   4     8   0   4     8   4   4     0  12   0     0  12   8     6   0   4     0   0   0     0   0   0     0   0   0     0   0   0     0   0   0     0   0   0     0   0   0     0   0   0     0   0   0     0   0   0    32  32  32     0   0   0     8   8   0    16  16  24     0   0   0     0  16  16     0   1   0     2   0   0    65  64  64     0   0   0     0   0  64     0   0   0     0   0  64     0 128  68     0   0  19     0   0   1     0   0   0     0   1  10     8   2   0     8   1  16     0   0   0     0   0   0     0   2   0     0   4   8     0   6   0     0   4   0     0   0   0     0   0   0     0   0   1     0   0   0     0   4   2     0   4   2     0   4   0     4   0   0     1   0   0     0   0   2     0   0  10     0  64   0     0   0   0     0  40   0   128  32   0   128  34  96     0   0  34     0  17  64     2  25  72     2  17  64     0   0   4     1   1   4     0   0   4    32   1   4    32   0   0     0   0   0     0   0   0    32   4   0    64   0   0    32   0   0    32   0   0     4   0   0    32   1   0     1   0   0    33  16   0    32  16   4    32   0   0    34   8   8     0   1   0     4   3  16     4   3   0     4   0   0     0   1  32     1   0   0     1   0   0     0  96   8     0 112   0     0  64  10     0  20   0     0   4   0     0   6  65     4   2  65     4   2   0     4   0  64     0   0   0     1   0   1    17   0   1     0   0   1    48   0   0    96   0   0    96   0   4     0  16   0     0   0   0     0   0   0     0   4  20     0   4   4     0   0  28     0   0   8     0  16   0     0   0   0    96  16   4   112   0   0    16   0   0     0   0   0     0   0  32     0   0   0     0   0   1    65   0   0     1   4   0     3   0  32     0   0   0     0   2  34     0   0  10    96   0  10     0  32  32     4   0   0     0   9   0     0   0   0     0 128   0     0   0   0     0   0   0     0   0   0     0   0   0    17  48   0     5   0   4    36   0   0     0  32   0     0   0  16     0   0   0     0   2  26     0   2  10     2   8   0     2   6   0    10   0   0     2   2   0     0   0   8     0   0   0     0   0   0     0   1   4     0   4   0     1   3   0     1   3   8     0   2   0     0   0   8     0   0   0     0   0   0     0   0   0     0   0   0     0   0   0     0   1   0     8   1   1     0   0   1     0   0   1     0   0   1     0   0   1     0  38  32     0   6   8     0   2   0     5   2   0    16   2   0
  0   1   0     0   0   0     0   0   0     4   2   0     0   2   0     0   0   0     2   0   0     0   0   0     2   0   0     0   0   0    24   0   0    24  32   0    24   0  24     4   0   0     4   0   0     0   0   0     0   0   0     0   0   0     0   0   0     0   0   0     0   0   0     0   0   0     0   0   0     0   0   0     2   2   0     2   0   0     8   2   0     6   4   0     8   4   4     8   0   4     8  28   0     0  16   0     0   4   0     0   4   0     0   0   0     0   0   0     2   2   2     0   0   0     0   0   0     0   0   0     2   2   2     0   0   0     0   0   0     0   0   0    32  32  32     0   0   0     8   8   0     0   0   0     8   8  16     0   0  16     0   0   0     1   0   0     0   0   0     1   0   0     0  64   0     0   0   0    64  64   0     0   0  42    16   0  26     4   0  23     4   0   8     0   1   8     0   1   0     0   0  17     0   2  16     0   0   0     0   2   0     0   0   0     0   9   0     0   8   0     8   0   0    24  16   0     0   0   1     0   4   0     0   0   0     4   0   0     0   0   0     0   0   2     0   0   2     0   0  10     0   0   8     0   0   0     8   0   1     0  96   0     0   0   0     0   3   0     0   3   0     0   1   0     2  16   0     2   0   4    17  17   4     1  33   0    16  96  64     0   0  64     0   0   8    32   4   8    32   0   0     0   0   0    32   0   0    32   0   0    32   0   0    32   0   0     0   0  16     1  24   0     8  24   0    32   0   0     0   0   0     0   2   0    32   0   0     4   0   0     0   0   0     0   1   0     0   8  32     1   8   0     0  96   0     0 104   0     0 112   8     0  16   8     0  16   0     0  16   0     0  16   0     0   8   0     0   2   0     0   0  64     2   1  81     0   0  81     0   0   0     0   0  32     0   0  33    32   0   0     0   0   4     0   8   2     0   0   0     0   0  18     4   0  84    96   0  84     0   0   0     0   0   0     0   2   0    96   0   0    96   0   0     0  24   0     0   0   0    16   1   0    16   9   2     0   0   0     0   2   0     0   0   0     0   0   0     0  16  32     0   0  32     0   0   0     0   0   0     0  52  32    96   0  32     0   0  32     0   1   0     0   0   0     0   1   0     0   0   0     0   1  17     0   0   8     0   0  42     0  32   0     5   0   4     4   0   0     0  16   4     0  16  20     0   0   8     0   0   8     0   0  16    13   0   0    10   0   0     6   4   0     3   1   0     0   0   8     1   0   0     0   0   0     9   1   4     1   3   0     0   0   0     0  26   0     0   0   0     0  24   8     0   0   1     0   0   0     0   0   0     0   0   0     0   0   0     0   1   0     0   1   1     0   1   0     0   0   1     0   8   9    32  40  40     8  54  40     0   4   0     0   6   0     4   2   8     8   0   8
  1   1   0     0   0   0     0   0   1     4   2   0     0   0   0     2   0   0     0   0   0     2   0   0     0   0   0     0   0   0    16   0   0    24  32   0     0   0   0     0   0   0     0   0   1     0   0   0     0   0   0     0   0   0     0   0   0     0   0   0     0   0   0     0   0   0     0   0   0     0   2   0     8   4   0     8   4   0    10   2   4    10   4   4     8   0   4     8   4   4     0   0   0     0   0   0     0   4   0     0   4   0     0   0   0     0   0   0     0   0   0     0   0   0     0   0   0     0   0   0     2   2   2     0   0   0     0   0   0     0   0   0     0   0   0     0   0   0     8   8   0     8   8   8     0   1   1     0   0  16     0   0   0     0   0   0     0   0   0     0   0   0    64   0   0    64   0   0    64   0  64     0   0  24     0   0  24    16   0  14     4   0   8     8   0   0     0   4   0     0   4   0     0   4   0     0   0   0     0   0   0     0   0   0     0   1   0     0   0   0    24   0   0    24   0   0     0   0   0     0   0   0     0   0   0     0   4   0     0   0   0     0   0   0     3   1   0     1   0   2     1  32   4     0   0   0     8   0   3     8   1   0     0   5   0    32   3  56     0   7   0     0   0  32     0   0   4    16   0   0     0   0   4     0  16   4    64   0   0    64   0   0    64   0   8    32   0   8    32   0   2     4   0   2    32   0   0     2   0   0     0   0   0    32   0   0     0   0  16    33  24   0     0  16   0     0   0   0    32   0   0    32   0   0     0  16   0     4   0   0     4  16  64     5   0   0     1  16  32     1   0   0     0   8  32     0   8   0     0  32   8     0  16  40     8   0   8     0   0   0     0   4   0     0  12   0     0   0   4     0   1   0     0   0  16     0   0  16     0   0  17     0   0   1     0  64   1     0   0   5    32   1   0     0   0   0     0   0   0     0   0   2     0   0  84     0   0  16   113  18   0     0   0  16    32   1   0    32  14  16    32   8   0    96   8   0     0   0   0    16   0   0    64   0   0    80   0  32     0   0   4    96   0   0     0   0   0     0  16   0     2   0   0     2   0   0     0  16   1     0  20  33     0  36  32    64   4  32     0   1   0     0   1  64     0   1   0     0   2   0     0   0   0     0   0   0     0   1  45     0   0  48    32  32  16     4  40   4     0  16  16     2  16   4     0  16   4     0  16  16     0   0  16    13   0   0    24   8   0     8   8   0     0   0   0     0   0   0     1  25   0     8   0   0     9   1   0     0   0   0     0   2   0     0   2   0     0   0   0     0   0   0     0   0   1     0  28   0     0   0   0     4   0   0     0   2   0     0   0   0     0   0   0     0   0   0     0   0   0     0   8   8     0   8   8     0   0   0     0  34  32     0   0  32     4   0   0     0   0   2
  8   0   8     0   0   0     0   0   1     0   0   1     0   0   0     0   0   0     0   0   2     0   0   0     0   0   0     0   0   0    16   0   0     0   0   0     0   0   0     0   0   0     0   0   2     0   0   0     0   0   0     0   0   0     0   0   0     0   0   0     0   0   0     0   0   0     0   0   0     0   2   0     0   4   0     8   4   0    10   2   4    10   4   4     8   0   4     8   4   4     0   0   0     0   0   0     0  28   0     0   0   0     0   0   0     0   0   0     0   0   0     0   0   0     0   0   0     0   0   0     0   0   0     0   0   0     0   0   0     0   0   0     0   0   0     4   4   4    13  13  13     8   8   8     0   0   0     0   0  16     0   0   0     1   0   0     0   1   0     0   0   0    64   0   0    64   4   0    64   4   0     0   4   0    16  32   0     0   0   8     0   8   2     0   0   2     0   0   0     0   0   0     0   1   1     0   0   0     0   3  16     0   1   0     0   1   0     0   0   0     0   0   0     0   0   0     8   0   4    16   0   0     2   0   0     0   0   0     0   0   0     0   0  10     0   1   0     0  33   0     1  33   4     0   1   4     0  65   3     0   1   3     0   1   0    32   1   0     1   0   0    18   0   4    16   0   0     0  64   4     0  16   0    64   0   0    80   0   0    64   0   0    80   0   2     2   0   0    32   0   0     0   0   0    32   0   0    34   0   0     2   0   0     0   8  16     0   8   2     0   0  16    32   0   0    32   0   0     0   0   0    32   0   1   100   0   1     0   0   1     4   0  64     0   1   0     0   1   0     0   0   0     0   0   0     0   0   0     0   0   0     0   0  40     0   0   8     0   0   8     0   2   0     0   0   8     0   0   4     0   0   4     0   0  16     0   1  16     0  32   0     0   0   0     0  96   0     0  80   4    64   1   0     0   0   0     0   0  68     0  32   4     0   1   4     0   2   0    96  20   0     0   4   0     0  12   0    64  14   0     0   2   0     4  12   0     0   0   0    82   0   0    64  16   0    16   0  32     0   2   0     0   0   0     4   0   0     0   0   1     0   0   0     0   0   0     0  48   1     0  24   1     0  58  32    16  40  32     0  32   0     0  66   0     0  65   0     0   0  64     0   1  64     0   1   5     0   3  52     0   0   4    32   2   4     0  12  52     0  20   0    16   0   0     0  16   0     0  16   4     0  16   4     0   0   1    16  24   0     0   8   0     8   8   0     1   1   0     9   9   0     9   1   0     0   0   0     0   0   8     1   1   8     0   0   0     0   0   0     0  26   0     0   2   0     0   0   0     0   0   0     0   0   0     0   2   0     0   0   0     0   0   0     0   0   0     0   0   0     0   8   0     0   0   0     8   0   0     0   0   0    36   2  32     0  32  40     0   0   8
  3   1   0     0   0   0     0   0   1     4   0   0     0   0   0     0   0   0     0   0   2     0   0   0     0   2   0     4   0   0     0   2   0    24   0  24     0   0   0     0   0   8     2   0   0     0   4   0     0   0   0     0   0   0     0   0   0     0   0   0     0   0   0     0   0   2     0   0   2     0   4   0     2   2   0    10   4   0     8   2   0     6   4   0     8   4   4     8   0   4     0  28   0     0  28   0     0   0   0     0   0   0     0   0   0     0   0   0     0   0   0     0   0   0     0   0   0     0   0   0     0   0   0     0   0   0     0   0   0     0   0   0     0   0   0     4   4   4    14  14  12     4   4   8     0   0   0     0   0   0     0   0   0    16  16  16     0   0   0     0   0   0     0   0   0     0   0   0    64   4   0     0  68   0    32   4   0     0   2   0     0   0  65     0   0   0     0   4  33     0   5   0     0   0   0     2   3   0     2   2   0     0   2   0     0  34   0     0   0   0     0   0   0     0   0   0     0   4   0    22   4   0     2   0   8     0   0   8     0  16   0     0  16   0     1   9   0     2  43   0     0   0   4     0   1  20   128   1  18     0   0  34     0   1   0    32 128   0     1   0   0    18   0   0     2  32   0     0  49   0     0   0   0    64  16   0    32   0  16    32   0  18    34   0  18     2   0   0     0   0   0     0   0   0     0   0   1     0   0   0     0   0   0     0   0  18     0  32  18     1   1   0     0   0   0     0  16   0     1  17   0     0   0   0     0   0   0     0   0   5     0   0   1     0   0   1     1   1   0    16   0   8     0   0   0     0   0   8     0   0   0     0  16  32     0   0   0     0   4  32     0   2   1     0   6   0     0   0   0    32   0   0     0   0   0     0   0  16     8  33   0     0  32   0     0  32   0    16   1   0    16  16   0     0   0   4     0  33   4   128   0   0   128  34   0     1   0   0     0  22   0    16  10   8     0  14   0     0  10   0    64   0   0    32  16   0    66  16   0    70   0  32    64   0  48     0   0  48     0   0   0     0   0   0     0  32   0     0   0   0     0   0  16     0   8  16     0  58   0     0   8   0     0  32  32     0  42   0     0   0   0     0   8  64   128   0   0     0   0  64     0   3   1   128   1   5     0   3   4     4   0   0     4   0   4     0   0  32     0   0  64     0  16   0     0   0   0    16  16   0     0   0   4     0   0   0     8   8   0     8   8   0     0   0   0     0  16   0     0   0  10     1   9   0     0  12   0     0   0   8     0   0  10     0   2   0     0   0   0     0   2   0     0   0   0     0   0   0     0   0   0     0   0   0     0   0   0     0   0   0     0   4   0     0   0   0     0   0   0     0   8   0     8   0   0     8   2   0    32  34  32    32  32   0     4   0   0     3   1  32
  0   0   0     0   0   0     0   0   0     0   0   0     0   0   0     0   0   0     0   2   2     0   2   0     4   2   0     0   0   0     4  24   0     0   0  24     0   0   0     0   4   0     0   0   0     2   0   2     4   4   0     0   0   0     0   0   0     0   0   0     0   0   0     2   0   2     0   0   0     0   0   0     0   4   0     0   2   0     6   4   0     2   4   0     4   4   0     2  16   0     0   0   4     0  20   0     0   0   0     4   0   0     0   0   0     0   0   0     0   0   0     9   9   9     0   0   0     0   0   0     0   0   0     0   0   0     0   0   0     0   0   0     0   0   0     0   0   0     4   4   4     0   0   4     0   0   0     0   0   0    16  16  16     1   0   0     0   0   0     0   0   0     0   0   0     0   0   0     0   0   0    64  64   0     0   0   0     0   0  65     0   0  66     0   0   0     0   0   4     0   2   0     0   1   0     0   1   0     2  16   0     2   0   0     0   0   4     0   0   0     0   4  16     0   0   0    12   0   0     4   0   0    10   0   0     8   4   0     8  16   0     0  16   8     4  16   8     0   2   0     0   6   5   128   0  18   129   1  18     2   0  18     0   0  16     1   0  16     1   0   0     3   0   0     2   0   0     0   0   0    32   0   0    32  16   2    32   0  18    52   0   2    38   0  18    18   0   0     0   0   0     0   0   0     0   0   0     0   0   0     2  32   1     1  33  18     0  32   2    40   0   0    32   0   0     0   0   0     0   0   0    36   0   0    68   0   4     0   0   4    36   0   1    64   0   1     0   0   1     0   0   4     0   0   0     0   0   0     0   0   0     2  16   2     0   4   0     0   6   1     2  38   1     0   6   0     0   0  64    48   4  64    16   4  64    16   0   0     0  32   0     0   1   0     0  32   0    16  32   0     0   0   4     0   0   4   128  35   4   128  32   0     0   0   4     0   2   0     0  16   4     0   8   0     0   0   0    64   0   0    72  20   0     0   0   1    64   0   0    68  32   1     0  16   0     0   0   0     0   2   0     0   0   0    24   8   1    12   8   0     0  40   1     8  48   0     8  48   0     0  26   0     0  82   0     0   8   2     0  32   0   132  64  68   128  32   0   128   0   0     0   1  65   128   1   1     2   1  65     2   0   4     2   0   4    64   0  36     0  66  32    68   0   0     0   0   0    16   0   0     0   0   0    16   0   1     0   0   4     0   0   0     0   0   0     0   0   0     1   9   8     1   1   0     1   5   0     0   0   0     0   0   0     4   0   2     0   2   0     0   0   2     0   0   0     4  32   2     0  32   0     0  32   0     0   0   0     0   0   0     0   0   0     0   0   0     0   4   0     0   2   0     0   2   0     0   2   1    32   2   0    32   0   0    33  33  32     3   1  32
  0   0   0    32   0  32    34   0  32     2   0   0     0   0   0     0   2   0     0   0   0     0   0   1     0   2   1     4   0   0     0  28   0     4  28   0     4   0  24     0   4   0     0   0   8     0  12   8     4   4   0     0   0   0     0   0   0     0   0   0     0   0   0     0   0   0     0   0   0     0   4   0     0   0   0     0   0   0     0   0   0     4   0   0     0   0   0     4   0   0     8   0   0     4   0   0     0   0   0     0   0   0     0   4   4     2   2   2     0   0   0     0   0   0     0   0   0     0   0   0     0   0   0     0   0   0    32  32  32     0   0   0     0   0   0     0   0   0     0   0   0     0   0   0     0   0   0     0   0  16     0   0   0     0   0   0     0   0   0     0   0   0     0   0   8     0   0   8     0   0   0     0   0   0     0   0  64     0   0  64     2   0  74     0   0  64     0   6  16     0   2  32     0   2   0     0  16   2     2  16   8     0   0   0     0   0   4     0  32   0     8   4  16     0   4   0     0   0  16     2   4   0     0   0   8     0  12   0     9   4   8    13   8   0     4  16   0     0   2   0     0   0  16   128   0  16    32   0   2     2   0  16     3   0   2     0 128   2     0 128   0     0   0   0     2   0   0     2  32   0    98  32   0     0  16   4     0   0   4     0   0   0    48   0   0    48   0  16     0   0   0     0   0   0     0   0   1     0  32   1     2  32  16     0   0   2    32   0   2    33   1   2    33   1   0     0  16   0     0   0   0     4   0   0    32  32   0     0   0   0    32   0  24     0   0  11    32   0   1    32   0   0    32   0   0     0   0   0     2   0   0     2   0   2     2   4   3     0   4   2     0   6   1    64   5   0    64   0   0    16   0   0    16   4   0    16   0  16    16  10  16     4   1   0     0   0   1   132  33   0   128   0   4     0   1   4     0  33   0   128   1   0     0   1   0   128   0   0     0   0   0   128   0   8     0   0  64     0   0   0     0   0   1     0   0   1     0  16   3     0  32   2    96  32   0     0   0   2     0   0  32     0   0   0   148   0   8     4   0   0     2   0   0    32   0   0    64  32  36     1  48  32     1  16  64     0   0  64     0   4   0     4   0  68   128   0   0     0   0  64     0   0   1     0   0   0     2   0   0   130   0   0     2   0  64     9   2   5     0   2  65    68  68   1     4   0   0    16   4   0     1   4   0     0   0   0     1   0   1     9   8  19     9   9  16     1   1   0     1   1   0     0   0   0     4   0   0     0   0   0     4   8   0     4  26  14     0   0   4     0   0   1     2   0   0     0   0   2     0   0   0     0   0   1     0   1   1     0   0   0     0   0   0     0   0   0     0   4   0     0   0   0     0   0   0     0   0   0     0   2   0    32   0   0     0   0   0     0   0   0
  1   1   0     0   0   0     0   0   0     2   0   0     0   0   0     0   0   2     0   2   2     0   0   0     0   0   0     4   0   0     0   2   0     4   0   4     0   0   2     0   0   0     0   4   0     0   0   0     4   0   0     4   0   0     4   4   4     0   0   0     0   0   0     0   0   0     1   1   0     0   0   0     0  16  16    16  16   0     0   0   0     0   0   0     0   0   0    16   0   0    20   0   0     0  32   0    24  32   1     8   0   8     0   0   0     2   2   2     2   2   2     2   2   2     3   3   3     1   1   1     0   0   0     0   0   0     0   0   0     0   0   0     0   0   0     0   0   0     8   8  12     0   0   0    16  16  16     0   0   0    16  16   0    16  16   0     0   0   0     0   0   8     0   0   8     0   0   8     0   0   0     0   0  64     0   0   0     0   8  64     0   0  66     0   0   4     2   2   0     0   2   0     2   2   0     0   0  34     2   1   0     0   0  40     0   0   0    12   0   0     8   4   0     0  33   0     0   1   0     2   2   0     2   0   0     0   0   0     0   4   0     5   0   0     1   0   0     0   0   0     0   0   2     0   0  18     0   0  18     2   2   2     3   0   0     0   0  64     0   0   2    32   0  64    32   0   0    34   0   0    42   0   0    32   0   4    32   4   4    36  32   0     0   0   0    16   0   0    16   0   0     0   0   0     0   0   0    10   0   1    66   0   1     8   0   2     0   0   0    56   0   0    48   0   0    32   0   0    32   0   0     0   0   0     1   1   0    32   8   8     0   8   0    64  32  10    64   0   4    32   0   2     0   0   0     3   0   0     1   0   0     2   0   8     2   4   0     0   2   0     0   0   0     0   0   0    32   4   0    32   0   0    16   4   0     0   4   0    64   2  16     0  32   0     4  32   9    20   4   0     0  32   0     0   0   0     0   1   0     0  65   4     4   0   0   132   0   0     0   0   0     0   0   0     0   2   0     0   0  16     0  32   0     0   0   0     0  48   0    64   0   0    32   0   0    64   0   0     0   0   0     0   0   0   132  32   0   132   0   0     2  32   4     2  32  36     6  16   0    21  16  36     4  16  12   128   0   0     0   0   0     0   0  64     0   0  64     0   0  72     0   0   0   128   0  64     2   0  64   138   4  64    10   4  64    72   4   0     0   2  64     4   4   0     4   0   0     1   4   0     1   4  17    17   0  17     1   0   1     0   0  18     0   0   4     0   8   0     0   0   0     0   0   0     0  24   0     0   0   0     0   0   0     0   0   4     0   0   0     0   0   1     0   0   0     4  32   0     0   0   1     0   0   1     0   0   0     0   8   0     0   4   0     0   0   0     0   4   0     0   4   0     0   4   0     0   0   0     0   0   1     0   2   0     0   0   0     1   1   0
  0   4   0    32  36  32     0  32  32     2   0   0     0   0   8     0   0   2     0   0   2     0  32   3     0  32   1     0   0   4     4   0   0     0   0   0     0   0   0     0   0   0     0   0   0     0   8   8     0   8   0     0   0   0     0   0   0     0   0   0     0   0   0     0   0   4     0   0   4     0   0   0     0   0  16     0   0   0     0   0   0     0   0   0     0   0   0     0   0   0     8   2   0    12   2   0    12   0   8     2   0   0     2   6   0     2   2   2     0   0   0     0   0   0     2   2   2     0   0   0     0   0   0     0   0   0     0   0   0     0   0   0     0   0   0     0   0   0     8   8  12     0   0   0     0   0   0     0   0   0     0   0   0     0   0   0     0   0   0     0   0   0     0   0   0     0   0   0     0   8   0     0   0   0     0   0  64     0   8   2     0  16   0     0   0   0     0   2   0     0   0   0     0   2   0     0   0   4     0   0  12    16  96  40     8  96  40     0   0   0     0   0   0     8   1   0     0   0   0     0  34   8     1   2   0     2   2   0     5   0   0     5   0   0     5   0   0     4   0   0     0  16   0     0   0  16     0   0  16     0   0   0     0   0   2     2   0   0    32   0   2    32   0  64    32   0   0     0   1   0     0  18   0     0  18   0    32   2   0    32   0   0    32   0   0     1   0   0     1   2  16     2   0   0     0   4   0    36   4   0     0   4   0     0   8   1     0   0   0    48   0   1    16   0   0    24   0   0     1   1   0    16   0   0    16   0   0    16   0  16    32   8  66     0   0  24     0   0   0     0   0   0     1   0   0     1   0  16     1   0   8     0   0   0     1   0  32     0   0  32     0   2   0     0  16   0     4   0   0     0   4   2     0   0   0     0   0  16     0   0  16     0   0   8     4   0   0     4  16   0     4   0   0    16  64   4     0  64   0   128   0   4    22   1   0   128   0   0   128   0   8   128   0   0     0  64   0     0  32   0     0  34   0     0  32  16     0   0   0     0   0   0    64   0   0     0   1   0     1   0  32     3   0   0     6   0   0     6   0   0     0   0   0    16   0   0     2   0   0     6  16  32     1   0  40     8   0  72     8   5  72     0   4   0     8   0  72   137 128  72     1   0   0     0   0   0     0   4  16     8   4  80    72   0  64    72  64  64    65   2   0     0   0   0     0   0  18     0   0   0     1   0   4     1   0  17     9   8  21     0   0   6     0   8   0     8   0   0     0   0   0     0   0   0     0  28   0     0   0   0     0  24   4     0   0   4     8   0   0    16   2   0     0   2  32     0   0   2     0   0   0     0   0   0     0   0   0     0   8   0     0   0   0    33   0   0     0   0   4     0   0   4     1   0   0     1   1   0    32   0   0     0   2   0     0   0   0     0   0   0
  0   4   0     0   4   0     0   4   0    34   8   0    32  32  32     0   0   0     0   0   2     4   0   0     2   0   1     2   0   0     0   0   1     0   0   0     0   0   0     0   0   0     0   0   0     0   0   0     0   0   0     4   0   0     4   4   4     4   4   4     4   0   0     0   0   4     0   0   0     0   0   0     0   0   0     0   0   0     0   0   0     0   0   2     0   0   0     0   2   0     0   0   0     4   0   0     0   8   8    32  32  32     8   0   8     0   0   0     0   0   0     0   0   0     0   0   0     0   0   0     0   0   0     0   0   0     0   0   0     0   0   0     0   0   0     0   0   0     0   0   0     0   0   0    16  16  16     1   0   2     1   0   0     1   0   8     0   0   0     0   0   0     0   0   0    32   0   0    32   0   0     0  32   0     0   8  64     0   0   0     0  16   6     0   0   0     0   0   0     0   0   0     0   0   0     0   0   4     0   0   0     0  96   8    24 112   8    24   1   0     8   0   0     0   0   0     0   2   0     8   2   0     0   2   0     0   0  16     0   0   0     0   0   2     5   0   0     0  16   0     0  16   0     0   2   0     0   0  16     0   0  16     0   0   6     8   0   6     0   0   2    32   0   2    64   1   2     0   0   0     0   2   0     0  16   0     1  48   0     5  16   0     1   0   0     0   0   0     0   0   0     0   2  16     0   0   0     0   0   0     0   0  64     0   8   0     0   0   0     0   4   0    16   4   0     0   0   0    24   1   0    16   0   0     0   0   0     0  24   0     0  24   2    16   8   0     0  16   0    24   0  16     2   0   0    16   0   0    18   0   8     8   0   8     1   0  32     1   2  34     4   2   2     0  18   2    36  16   0     2   0   2     4   0   0     0   0   0     2   0  16     2  32   4     0   0   4     0   0   0     0  64   0    64   0   1     0  64  56     0   0  33    16  64   0   128  64   1     0   0   0     0  64   0     0  40  32     0   8   0     0  32   0     0   0  28     0   1   8     0   0  64     0   0   0     0   1   0     1  64  32     3   0   0     5   0   0     1   6   0     1   6   5    16   0   4     6  16  32     6  20  32     0  20  72   128   0   8     0  33  64     0   0  64   136   0   0     0   0  16     0   0   0     0   0  64    64   4   4    64   4  16    64   8   0    64   0   0     0   0   0     0   0   2     0   0   6     0   0   0     1   0  17     1  16  25     0   0  20     0   0   0     0   8   0     0   0   0     0   8   0     0   0   0     0   0   0     0   0   0    24   0   0    24  32   0    16   0   0     1   1   0     0   2   0    32   0   2     0   4   2     0   0   4     0   8   0     0   4   0     0   0   0    32   4   0    32   0   0     1   0   4     1   0   0     3   1   4     0   0   0     0   2   0     0   0   0     0   4   0
  0   4   0     0   4   0     0   4   0    32   8   0    32  32  33    32   0   1     0   0  34     6   0   0     2   0   1    10   0   8     0   0   0     0   0   0     0   0   1     0   0   0     1   1   0     1   1   0     0   0   0     0   0   0     0   0   0     0   0   0     4   0   4     1   1   0     0   0   1     0   0   1     0   0   8     0   0   0     0   0   0     0   2   0     0   0   0    12   0   2     4   0   0     4   8   8     2   8   2     2   0   2     8   0   8     0   0   0     0   0   0     0   0   0     0   0   0     0   0   0     0   0   0     0   0   0     0   0   0     0   0   0     0   0   0     0   0   0     0   0   0     0   0   2     0   0   2     0   0   0     1   0  16     1   0   0    17  20  20     0   0   0    48  48  36    32  32  32    32  32  32     0  32   0     0  64  64     0   4   0     0   0 128     2 128 128     0   0   4     0   0   0     0   0   0     0  32   0     0   0   4     0  64   8     8  96   0     8   0   0     8  16   0     0   0   0     0   2   0     0   0   0     0   0  16     0   0  16     0   6   0     0   0   2     0   0   0     0  17   0     0  18   0     0   2   0     0   0   0     0   0  16     0   0  16     4   0   0    36   0   2     0   0   2    64   0   6     0   0   0     0   0   0     0   0   0     5   0   8     5   2   0     0   0   0     1   0  32     0   0   0     0   0  32     0   0   0     0   4   4     0   0  64    32   8  64     0  12   8     0   4   0     0   4   0     8   2   0     0   1   0    16   0   1    16   0   0    16   0   3     0   8   2     0   8   0    16   9  16    18   0   0     0   2   0    24   0   0     0   0   0     0  16  16     0   0  16     0   0  16     0  32   0     0   2   0     0   0   0     0   0   2    38  34   4     6   0   0     0   0   4     2   0   0     2   0   0     0   2  16     0   0   0     0  66  65     0  64  96     0  64  65     0   0  48     0   0  32     0   4  32     0  36   0     4  96  32     2  32   0    16   0  16     0   0  24     0   0  16     0   0   0     0   0   0     0   0   0     4   0   0     0   0  34     1   0   1     0   0  17    33   2   1     2   2   9     0   0  32   130   4  34   130   4  34     8  17 120   128  97  48   128   0  96   128  96   0     0   0  32     4   0  32     0  64  32     0   0   4     0  64   0     0   8   0    64   0   0     0   0   0     0   0   4     0   0   2     8   0   0     0   0   0     0   0   0     0   0   0     0   0   0     0   0   2     0   0   8     0   0   0     2   0   0     2   0   0     0   0   2     2   0   2     0   0   0    19   1   0     3   1   0     0   6   0     0   4   0     0   1   4     0   4   4     8   0   8     1   4   8    32  32   0    32   0   0    32  32   0     0   0   0     0   2   0     0   0   0     0   2   0     0   0   0     0   0   0     0   0   0
  0   0   0     0   0   0     0   0   0     0   0   0     0   0   1     0  32  34    16   0  34    20   0   0     0   0   0     2   0   8     0   0   0     0   0   8     0   0   0     0   0   8     0   0   0     4   0   0     0   0   0     4   0   4     4   4   4     4   4   4     0   0   0     0   0   1     0   0   1     0   0   0     0   0   1     0   2   8     0   6   0     2   0   2     0   0   2     0   0  10     2  16   2     0   0   2     2   0   0     0   0   0     0   0   0     0   0   0     0   0   0     0   0   0     0   0   0     0   0   0    32  32  32     0   0   0     0   0   0     0   0   0     0   0   0     1   1   1     0   0   0     1   0   2     1   8  22     0   8   0     4   0  16     0   0   0    16  16  16    16  16  16    16  16  20    48  32  32    16  32  32     2  40   0     0   8   0     0   0   0     8   4   0     2   4   0     0   0   0     0  32  20     0  36   0   128  32  12     8   0   0     0   0   0     0   0   0     0   0   0     0   0   0     8   2   0     0   2   0     0   0   0     8   2   0     0   0   0     8   4   0     0   0   0     0   0   0     8   3   0     0  65  32     0   1  32     0   0   0     0   2  20     0   0  16     0   0   4     0   0   0     0   0   0     0  16   6     0   0   6     0   0   0     0   0   0     1   0   8     5   0   0     4   0   0     0   0   0     1   0   0     0   0  32     0   0   4     0   0   0     0   4  68     0   0   4     0   0   0     0   2   0     0   2   8     0  34   0     0   0   0     0  10   0     0   0   0     0   8   2     0   0   0    16   2   0     0   2  16     0  26   0     2   4   0    18  20   0     1   0   0     0   0   0     0  16   0     0  34   0    32   2   0    16   2   0     0   0   0     0   0   0     0   4   0     0   4   0     2   6  16     0   0  24     0   0   0     0   0   0    64   0   0    64   0   1    32   0   8    32  64  40   128   2   0     0   0   0    12   0   0     9   0   0    12   0  32     0  32   0    16   0   0     0   0   4     0   0   4     0  64  80     0  32   8     4  64  64     4   4   2     0   4   5     0   4   0     0   2   5    32   0   1    32   0   8     2   4   0     2   4  10     0  16  32     0   0   8   128  65  48   128   0   0     0  96  32     0   0  66     0   0   0     0   0   0     0   0   0    64   8   0     0   4   0     0  12   0    32   4   0     0   0   0    32   1   0     0   0   0     4   0   0     4   0   0     0   0   0     0   0   2     0   0   0     0   0   0     0   0   0     2   0   0     2   0   0     0   0   2     2   0   2     0   0   0     2   0   0     1   1   0     0   1   0     0   5   0    12   5   0     0   0   0     0  20   6     0   0   0     0   0   0    32   0  32    32  33  32     0   0   0     0   2   0     0   0  24     4   0   0     0   0   4    32   0  32    32   0  32
  0   0   0     0   0   0    16  16  16    18  16  18    16   0   0     0  32  34     0   0  32     1   0   0     0   0   0     0   0   8     0   0   9     0   0   9     0   0   0     6   0   0     6   0   0     1   1   0     5   1   0     5   1   4     4   4   4     0   0   0     4   0   4     4   0   4     4   0   0     0   0   1     0   0   1     0   0   0     0   0   0     0   0   0     0  16   2     0   0   0     0  16   0     0   0   0     0   0   0     0   0   0     0   0   1     0   0   0     0   0   0     0   0   0     0   0   0     0   0   0    32  32  32     0   0   0     3   3   3     0   0   0     0   0   0     1   1   1     1   4   2     1   0   0     2   0   6     0   0   4     0   0   0     0   0   0     0   0   0     0   0   0     0   0  16     2   0   0     2   0   4     0   0   0     2   0   0     2   4   0     0   4 128     0 132   0     2   0  12     0   0   8     2   0   4     0   0  20     0   0   4     0   0   0     0   0   0     0   0   0     0   2   1     0   2  17     0   2  17     0   0  16     0  32   0     0   6   0     0   6   0     0   0   0     0   0   0     0   0  32     0   0  32     0   2   1     0   2   0     0   8   1     0  32   0     0   8   8    36   0   0     5   8   0     0  16   0     0   0   6     0   0   2    32   0   0     0   6   0     4   2   0     4   2   0     5  16   4     1  20   4     1   0   4    16  32   0     0  96  68    64   0   0     0   0   4     0   2   4     0   0  12     0   2   8     1  32   0     1   0   0     1   2   0     0   4   0    16   0   0     0   0   0     0   8   0     0   8   0     0  16   0     0  18   0     0   0   0     0  16   0     2   0   0    32  24   0     0  40  16    48  32  16    16   0   0    16   0   0     0   4   0     0   4   4     0  32   0     8   2   0     0   2   0     0   0   0     0   2   0     0   2   2     0   2   0     0   2   0     0   2   8   144   2  32    17   2   8    24   0   0     8   4   8     0  64   0     2  64   8     1  64   4     0  68   4     1  68   4     0  64  16     0   4   0    12   4   1     0   0   4     0   0   5     0   0   5    64   0   0    33   0   0     5   0   0     0   0   0     2  80   8     0  81   0   128  49   0   128   0  32     0  32  32     0  32  32     0  96   0     0   0   0     8   0   2     0  64   0     0   0   0     0   0   0     0   0   0     0   1   0     0   1   0     4   0   0     0   1   0     6   1   0     0   1   0     0   0  18     0   1  18     0   1   5     0   1   1     0   1   0     0   0   0     0   0   0     0   0   2     0   0   0     2   0   0     2  16   0     0   8  24     0   0   0    16   2   0     8   0   2     8   8   4     8  16   6     0   0   0     0   0   0     0   0   0     0   0   0     0   0   0     0   0   0     0  24   0     0   0   0     0   8   0    32   0  34     0   0   0
 32  34  32     0   0   0     0   0   0     0   0   0     0   0   2     0   0   2    16   0  34    16   0   0    16   1   0     8   0   8     4   0   0     4   0   8     0   0   0     4   0   0     0   0   0     4   2   0     0   0   0     4   4   4     0   0   0     0   0   0     0   0   0     4   0   4     4   4   5     0   0   5    16  20  17     0   4   1     0  16   2     0   0   2     0   0   0     0   0   4     0   0   0     0   0   0     0   0   0     0   0   0     0   0   0     4   0   4     4   0   4    16   0  16     0   0   0     0   0   0     0   0   0     0   0   0     0   2   2     0   2   2     3   1   0    24   0   1    25   0  14     1   0   0     0   0   0     0  16   0     4   0   0    17   8   0     8   8   2     0   0   0     2   0   4     2   2   0     2   0   0     2   0   0     0   0   0     2   0   0     0   0   0     1 128   0     1   0   0   130   0  16     2   4   4     2   0   4     0   0   0     0   0   4     0   0   0     0   0  32     0   2   0     8   0   1     0   1  17     0   0  16     0   6   0     0   6   0     0   4   0     0   0   0     0   0   0    64  64   0    64   0  32    64   0   2     0   0   2     0   0   0     0  32   2     1   0   0    32  13   0     0   0   8    37  12  15     0  16   0    32  84   0    32  21   0     0  69   0     0   4   0     8   4   0     4   4   0     8   0   0     0   0   0    64  32  48     0  32  16     0   0   0     0   2   0     0   2   0     0   0   0     4   2   4     5   2   8     0  32   0     8   0   0     8   0   0     0   0   0     8   0   0    32   0   0     0  24   0     0  16   0     0   8   0     0   0   0     0   0   0     2   0   0     0  10   0    32   8   0    48   8   0    32   8   0    16   4   0    16   4   4    16   4   4    16   0   0    24   0   8     0  10   0     0   0   4     0   0   0     0   2   0     0   0   0     0   0   8     0   0   8     0   2  40     0   0   0     0   0  40     8   0   0   136   0  48   128  64   0     0  64   0     2   0   0     0  64  20     0   0  20     0   0  16    36   4   0     0   4   4     0   8   5     2   2   4     0   0   0     4   0   0    37   0   0     0  16   0     0   0   0     0  17   2    16  48   0    16  32  32     0  40   0     0  40  32     0   0   0     0   0   0     0   0   0     0   0   0     0   0   0     0   0   0     0   1   0     8   1   0     8   1   0    12   9   0     4   0   0     0   1   0     0   0   0     0   1   0     0   0   6     0   9   5     0   1   1     0   4   0     0   0   0     0   0   0     0   0   0     0   0   0     2   0   0     2   0   0     0   0   0     0   2   0     0   0   8     8   2   2     8   0   0     8   0   0     8   0   0     0   0   0     0   0   0     0   0   0     0   0   0     0   0   0     0  24   0     0   0   0     0   0   0     0   2  34     0   8   0
  0   0   0     0  16   0     0   0   0     0   0   0     0   0   2     0   0   2     0   0   0     0   0   0     0  25   0     0   0   0     0   0   0     4   0   0     0   0   0     6   0   0     0   0   0     4   2   0     0   2   0     6   2   0     0   0   0     0   0   0     0   0   0     0   0   0     0   0   1     0   0   0     0   0   0     0   0   2     0   0   2     0  16   6     0  16   0     0   0   0     0   0   0     0   0   0     0   0   0     0   0   0     0   0   0     0   0   0     0   0   0    16   0  16    16   0   0     0   0   0     0   0   0    32   0  33     0  34   0     0   0   0     0   0   2    28   0   0     6   0  30     4   0   0     0   0   0     0   0  16    16  16   0     0  16   8     8   8   2     0   0   0     0   0   0     2   0   0    64  64  64    66  64  64     0   0   0     0   8   0     0   0   0     4   0   4     0   0   0     0   1   0     2   1   0     2  16   4     0   0   0     0  16  32     0   0   0    16  96  32     0   2  17     0   2  17     0   2   1     0  34   0     9  34   0     8   0   0     8   0   2     0   0   0     0   0   0     0   0  16    96   0   0     0   4   0     9  36   2     1  32   8     1  32   0    64   0   0     0   8   2    64   4   0     0   4  13     0  20   5     0  64   2     0   0   2     0  69   0     0   4   0     0   4   0     4   0   0     0   0   0     0   1   0     0   0  48     0  48  16    80  32  48     0  18  32     0   2   0     0   2   8     0   2   8     0   0   8     0   0   0     0   0   0     4   0   0     8   0   0    41   0   0     1   0   0     1   0   0    33   2   0     0   2   0     0   2   0     0   2   0    32   2   0     0   2  16     0   2   4    16   2   8    16   8   0    64   0   4    64   0  36     8   0   2    24   0  32     0   2   0    17   2   0     1  32   4     0   0   2     4   0   0     0   0   4     0   0  12     0   0   4   128   2   8    16  64   0    16   0  24    16  65  25     0  64  25     2   0   0     0   0  32     0  64  32     0   0  16     0   0  16    32   0  16    32   0   0    32   0   4     0   0   4     0   2   0     0   0   0     1   0   0     0   0   0     0   0   0     2   0   0     2   0  64     2   8   0     0   0   0     0   0   0     0   0  32     0   0   0     1  32   0     8   0   4     0  32   0     0   0   0     0   0   0     0   0   0     8   0   0     0   0   0     2   8   0     2   8   0     0   5   0    16   1   0     0  17   0    16  17   0     0   9   0     0   0   1     0   4   0     0   4   0     0   4   0     0   0   0     0   0   0     0   0   0     0   0   0     0   0   8     0   0   0    24   2  24     0   8  18     8   8   6     0   0   2     0   0   0    32  32   0     0   0   0     0  32   0     0   0  32     0   2   0     0   2   0     2   0   0     0   0   0     0   3   0     0   2   0
  2   0   0     1   0   0     4  16  16    21   0   0     4   0  16     0   0   0     0   8   0     4   1   2     0   0   0     0   0   0     0   0   0     6   0   0     6   0   0     7   1   0     4   0   0     4   0   0     4   2   0     0   0   0    16   0   0    24   0  16     0   0   0     0   0   1     0   0  17     0   0   0     0  16   0     0   0   2     0   4  10     0   0   2     0   0   2     0   0   2     0   0   0     0   0   0     0  16   4     0  16   4     0   0   4     2   0   0    24   0  28    12   0  16     0   0   0     0   0   0     0   0   0    32   0   0    32   0  32     0   0   0     0   0   0     4   0   4     6   0   0     4   0   0     0   0  24     0  16  24    20   4  24    24  24  16     8   8   8     0   0   0    32  32  32     0   0   0     0   0   0     0   0   0     0   0  16     1   2   0     0   0  20     0   8   0   128   0   0     1   0  32   128   1   0     2  17   0     0  16   0     0  16  32     0  96   0     0  96   0     8  32   0     8   0  16     8   1  17     0   0  16     0   2   0     0   0   0     0   0   0     0   0   0     0   0  64     0   0  16     0   0   0     0   0   0     9  32   0     9  32   0     9  40   8     8   8   0     8   8  12     0   4   0     0   0   4     0  52   7     0  16   2     0   4   0     0  33   0     2   4   0     0   0   8     0   0   8     0   1   8     0   1   2     8   1   6    64  16  32    64   2  32    16  56   0    16   1   0     2  18   8     0   1   8     0   0  16     0   0   4     8   0   0    12   0   0     0   0   0    32   0   0     1   0   0    32   2   0    32   0   0    32   0   0     0   0   0    32   0   0    34   0   0     2   2   8     0   2  12     0   0   8     0  32   8     0   4   0     0   0   0     0   0   2    24   2   0     1   2   0    17  16   4    29  48   0     0   0   0     0   0   0    64   0   0     0   2   4     0   0   0     0  64   0     0   2   0     0   0  16    24   0  16     0   0  16     8   0   1   130   0  33     0   0  32     0   0   0     0   0  20    32  32  20     0   1   0     8   4   4     0   0   0     0   0   0     0   2   0     1   0   0     0   0   4     0  16  16     2   0  16     2  80  16   130   0   0     0   0   2     0  16   0     0  16   0     0   8   0     0   0   0     6   0   0    38   0   0     0   0   0     0   0   0     0   0   0     0   0   8    16   0   8     4   8   0    20   8   0    14   4   0     2   4   0     2   1   0     0   0   1     0   8   0    16   0   1     0   0   0     0   0   1     0   0   0     0   4   0     0   0   0     0   4   0     0   4   0     0   4   0     8   0   8     8  18  16     8   0   8     0   0   0     0   0   8     0   0   0    32  33   0     0  32  32     0   0   0     0   2  32     0   0  32     0   0   0     0   2   0     0   0   0     0   2   0     0   2   0
  1   0   1     0   4   9    20  20  24     1  16  16     1   0   0     0   0   0     0  16  16     0   0   0     0   0   0     0   0   0     0   0   0     0   0   0     0   0   0     1   1   0     4   0   0     4   0   0     0   0   0    16   0   0    16   0   0     0   0   0     0   0   1     0   0   1     0   0   1     0   0   0     0   0   8     8   0   8     8   4   2     0   4   0     0   4   2     0   0   2    34   0  34     0   0  19     0   0   0     0  28   0     0   8   0     0   0   0     0   0   4     0   0   0     0   0   0     0   0   0     0   0   0     0   0   0    32   0   0     0   0   0     0   0   0     0   0   4     0   0   4     4   0   0     0   0   0    20  16  24     4   0  16    28  24  24     4   4   0     0   0   0     1   0   0     0   0   0     0   0   0     0   0   0     1   2   0     1  10   0     0   8   4     5   0   0     0   4   0     0   0  32     0   0   8   136  16   8     2  16  40     0  16  40     0  16   0     0  96   0     0   6   0     8   0  32     0  34   0     0   0   0     1   0   0     0   0   4     0   0   0     0   0   0     0   0  64     1  64  64     1   0  16     2  32   0    10   0   0     0  40   0     8   0   2     0  40   0     8  24   2     0  16   0     0   0   2     0   0   0     0   0   0     0   0   0     0   0   0     0   0   0     0  33   0     0   1   0     0   0   8     0   0   8     8   0   8    72  16   0    16   0   0     0   8   0     0  12   0     2  14   8     0   6   0     0   4  16     0   0  24     0   0   8     0   0   0     0   0   0     0   0   0    64   0   0    64   0   0    64   0   0     0   0   0     0   0   0     0   0   0     0   2   8     0   2  24     2   0  16     0   0   8    16   2   0     0   4   2     0   0  10     8   0   2     8   2  34     0   0   0    21  48  16    30  16   0     8   0  16    24  64  16     0   0   0     0   0   0     0  32   0     0   0   0     0   0   0    32  32  17     0   1  16     0   0   0     0  32   1     2   0   1     0   0   0     0   0   0     0   0   4     0   0   0     1   1   0    32   0   4     0   0   0     0   8   0     0   2   0     1   0   0     0   4  36     0   0   0     2   4  16     2  80  16     0   0   0     0   0   0     0   0   0     0  16   0     0  17   4     0   0   0    32   0   4     0   0   0    32   0   0     0   2   8     0   0   0    16   0   9    16   0   8     2   0   1     4   8   0     2   4   0     2  20   8     0   8   8     2   0   0     0   8   0     0   0   0     0   8   0     0   0   0     0   0   0     0   0   1     0   4   0     0   4   0     0  28   0    16   4  16     8   0   8     0   0  24     0   0   8     0   0   0     0   0   0     0   0   0    32  32   0    32  32   0     0   4   0     0   0   0     4   0  32     4   2  32     0   0  32     0   0   0     0   0   0     0   0   0
  0   8   0     1   0   0     1   4   8     0   0   8     0   0   0     2   0   0     2   0   0     0   0   4     0   0   4     0   0   0     0   0   0     0   0   1     0   0   0     2   0   1     0   0   0     0   0   0     0   0   0     8   0   1    24   0   1    24  16   1     4   0   9     8   0   0     0  16  16     8   0   0     8   0   0     8   0   8    10  12   8     0   0   2     0   0   2     0   0   0     0  32  18     0   0   0     0   0   0     8   4   0     0   0   4    24   0  28    24   0   6     0   0   2     0   0   1     0   0   0     0   0   0     0   0   0     0   0   0     2   0   0     0   0   0     0   0   0     0  32   5     0   0   0     0   0   0    28   8  16    16  16  16     4   0   0    20  20  16     4   4   0    20  20   0     0   0   0     4   4   0     0   0   0    32  32  32    64  64  64     0   8  64     1   0  64     0   0   0     0   0   0     0   0   0     8   0   0   138   0   0    10   8   0   130   0   0    10   0   0     0  32   0     8   0   0     1   0   0     1   0   0     0   0   4     1   0   0     0   0  20     0   0   4     0   0   0     3  40   0     3   8   2     2  40   0    66   0  16    64  40   0     0   8   6     0  48   0     8  16   0     0  16   0     0   0   2    16  16   0     0   0   0     0   0   0     0   0   0     0   0   0     0   0   0     0   1   8     0   0   0     8   0   8     0   0   4     8   0   4    16   8   0     0  40   0     0   0   0     0  12   0     0   4  24     0  68  16     0   0  16     0   0   2     0   0   2     0   0   0     0  33  16    64   0   0    64   0   0    64   0   0     0   0   0     0   0   1     0   0   0     0   0   8     0   0   8     6   2   8     0   0   8     0   2  10     0   4   0     0  18  10     0   0   0     0   0   0     0   8   0     0  32   4     8   0   0    16   0  16    16   4   0    16   1   0     0   0   0     0   0   0     0   0   0     0   0   0     0   0   0     0   0   0     0   0   1     0   0   0     2   0  32     2   0  40     2   0   8     0   0   0     0   1   0     1   1   4     0   8   4     0   0   4     8   8   0     0   0   0     0   0   4     0   0  84     0   4   0     0   0  16   129  96   0   129  96   4     1   0  26     0   0   0     8  16   0    16  16   0    24   0   1     0   0  64    32   0   0    32   0   0    66  66  72     0   0   0     0   0   1    16   0   0     0  16   1     4   0   1     0   2   0    10   4   1     2   0   0     0   0   1     0   0   0     0   0   0     0   0   0     0   0   1     0   0   0     0   0   0     0   0   0     0   0   0     0   0   0     4   0   0    16  16   0     0   0   1     0   0   1     0   0  17     2   0   1     0   0   0     0   0   0     0   0   4     0   0   4     0   0   0     0   2   0     4   0   0     0   0   0     0   0   0     0   0   0     2   0   8
  0   0   8     0   0   1     0   4   8     0   0   0     0   0   8     0   0   0     0   0   0     0   0   0     0   0   0     0   0   0     0   0   0     0   0   1     0   0   1     0   0   1     0   0   1     0   0   1     0   0   1     0   0   0    24   2   1     0  16   1     8   0   1     0  20  16     8   4   0     0   4   0     8   0   4     8   8   9     8   0   8     2   4   0     2  20   0     0   0   2     0   4   2     0   4   0     0   4   0     0   2   0     0   0   4     0   2   2     0   0   2     0   0   0     0   0   0     0   0   0     0   0   0     2   0   0     0   0   0     2   0   1     0   0   1     2   0   0     0  32   4     0   0   0     0   0   0     4   0   0     0   0   0     0   0   0     4   4   4     0   0   0    20  20   0     4   4   0     4   4   0     4   4   0     8   0   0    68  64  64    68  64  64     0  68  64     1   0   0     0   0  80     9   0  80     8   0  96   138   0   0   144  64  32   128   0   2     0   2   0     8  18   0     8   2   0     0   0   0     1   0   0     0   0   4     1   0   4     0   0   4     0   0   0     0  32   4     2  32   0     4  32   0    18  32   0    64   8   2    64  40   6    64   0   0     0  32   0    65  24   0    80  16   0    80   0   0    80  16   0     8  24   0     8   0   0     0   0   0     0   0   0     0  32   0     0  32   0     0   0   0    16   0   0    24   0   0     0   0   0     0  64   0     0   4   1     0  12   0     0  72   1     8  76  16     0  64   0     0   0  24     0   0   0     0   0  10     0   0   2     0  32   2     0   0   8     2   5   0     0   0   0     0   0   0     0   0   0     0   0   0     0   0  16     0   0   8     4   2  16     0   2   8     0  18   8     0   2   0     0   0   9     8   2   0     0   2   1     0   0   0     0   0   0     0   1   0     0  68   0    16  65   0     0   1   0     0   0   2     0  32   0     0   0   2     0   0   0     2   0   0     0   0   0    32   0   0     0  32   0   128  16  32     2   0  32     3   1  12     2  16   2     0   0   0     1   1   1     1   1   5     0   0   0     0   0   0     0   0   0     0   0   0     0   0   0     0   4   0     1   0   0     0   4   2     1   4   0     0   0   2     0   4   0     8  16  10     8   0   0    72  16   1     0  32   0    96   0   0     0   0   0     0   2  64     0  16  64    16  16   1     0   0   1     1  16   0     0   0   0     1  16   0     9  16  16     8   8   0     8  20   1     0   4   0     0   0  16     0   4   0     0   0   0     0   0   0     0   0   1     0   0   0     0   0   0     4   0  20     0  16   4    20   0   0     0   0   1     0   0   0     2   0   0     2   0   1     0   0   0     0   0   0     0   0   5     0   0  12     0   0   4     0   1   1     0   4   2     0   0   0     0   0   0    32  32   0     1   0   8
 32  12   0     1   0   0     0   0   0     0   0   8     0   0  12     0   0   0     0   0  36     4  20   4     4   0   0     0   0   4     2   0   0     0   0   1     0   0   1     0   0   3     0   2   1     0   8   0     0   8   1     0   0   9     0   0   8     8   0   1     4  20  24     0   4   0     0  20  16     0   0   0     0   0   0     0   0   0     2  16   0     2   0   0    16  16  22     0   0   6     0   0   2     0   0   0     0   0   0     0   0   0     0   0   0     0   0   0     0   0   2     1   1   0     0   0   0     0   0   0     0   2   0     2   0   0     0   0   0     0   0   1     0   0   1    28   0   0     2   0   1     2  32   0     0  32   0     0   0   0     0   0   0     0   0   0     0   0   4     4   4  20     4   4  16     0   4   0     4   4   0    12   8   0     0   8   0     0   0   0     0   0   0     0   0   0     1   0   8   128   0  16     0   0  80   128   0  96   128   0  32   144   0   0     0   0   0    16   1   0     0   0   0     1   0   2     1   0   2     0   0   0     0   0   4     1   0   0     0   2   0     0   0   0     2   0   0     6  32   0    28  32   0    84   0  16    80   8  16     0  32  18     0  32  16     0  32   2    64   8   4    64   0   0     0  24   0    40  24   0     0  16   0     8   8   0     0   0   0     0  40   0     0  32   0     0  33   0     0   1   0    48   0   2    16   0   0    16   0   4     0  64   0    32 100   0     0   4   0     0  68  64     8  68   1     0   4   0     0   0   8     0  32   8     0   0   0   136   0   8   128   0  72     0  32   8     2  32   0     0  32   0     0  32   0   128   0   0     0   1  10     0   2  16     0   0   8     4  16   0     0  16   0     0  18   8     0  18   9     0   2   8     0   2   0     0  10   0     0   3   8     0  69   0     0   0   0     0  65   0     0  65   0     0   0   2     0   0   0     0   0   0     0   0   0     0   0   0    32   0   0    32  16   0     0   4   0     0  16  32     1   1   0    32   0   0     2  16  33     0  48   0     0   0   0     0   1   0     1   1   1    32   0   0     8   0   0     0   0   0     0   0   0     0   0  64     0   0   2   128   0   2     1   0   0     1   0  16     0   0   0     0   4  24     0  22  10     8  48   8     8  36   0     0  32   0     0   0  64     0   0   0    64  64  64     0   0   0    80  80   1     0   0   0     0   0   0     1   0   0     9   0   0     9   0   4     8   2   0     0  18   1     0   5   0     0   4   2     0   1   0     0   4  16     0   2   0     0   0   0     0   0   0     2  16   0     5   1   4     5   1   4     0   2   0     0   0   1     0   0   1     0   0   1     2   4   0     2   0   2     0   0   0     0   0   4     0   2   0     0   0   0     0   0   0     0   0   0     0   0   0     1   0   0    33   0   0     2   0   0
  8   8   0     1   0   0     1   0   4     0   0   0     0   0   4     0   0   0     0   0   0     0   0   0     0   0   2     0   0   0     0   0   0     0   0   1     0   0   0     0   0   2     0   0   0     0   0   0    16  16  16     0   0   0    16  16  16     0   4  16    16  20  16    17  20   0    17  16   0     1   0   0     0   0   0     2   1   0     2   0   1    18   0   0    16   4   0     0   0   0     0   0   2     0   0   0     0   0   0     0   2   0     0   0   0     0  26   0     0   0   0     1   0   0     0   0   0     2   2   0     0   0   0     0   0   0     0   0   1     2   0   3     0   0   1    30   0   0    20  32   0     0   0   0     2  32   0     0   0   0    32  32  32    32  32  32     0   0   0     0   0   0    16   4   4     0   0   8     0   4   0     8   8   0     0   4   0     0   0   0     0  16   0     0  64   0     0   0   0     0   0  64     0 136  16     0   8   0   128   0  32   128   0  32     0   0   0    16   0   1     0   0  33     0   0   2     0   0   2     0   0   0     0   0  16     0   0  16     0   0   0     0   0   0     0   2   0     4   4   0     0  38   0    64   6   0     4   6   0     0  34   0     0  34  16     0  34   2    64   0   0    64   0   0     0   0   0     8   8   0     8  64   0     8  64   0     0   8   0     0   0   1    32   0   0    32   1   0    32   0   0    48   0   2    16   0   0    48   0   2     0   0   0     0   4   1     1  64  33     1  64   1     8  64   1     1   4   1     0   4   0     0   2   0     0   0  16     0   0   8     8   0  14    12   0   8     4   0   6     2   0   0     0   0   0     0   0   0     0   0   0     0   0   0     0   4   0    16   0  16     0   0  16     0  16  24     0   0   0     0   0   8     0   0   8     0   1   0     1   0   0     0   8   0     0   8  32     0   9   0     0   0   0     0  32   0     0  16   0     0  16   0     0  80   0     0  16  64     0   0   0    32  16   0    33   1   0    32   0   0     0   0  32    48   0   2     0   0   0     2   0  32     0   0   0     8   0   0     0   0   0     0   0   1     0   0   1     0   4   0     0   0   0     0 128  64     0   0   0     1   0   0     1   0   0     0   0   0     4   0   0     4   0   2     8  16   0     8  20   0    72   4   0     0  36   0    64  32   0     0   0   0    16   0   0    16  16   0     0   0   0     0   0   0     1   0   0     0   0   0     9   0   0     0   0   0     0   0   0     0  16   0     0   0   0     0   4   0     0   4   0     0   0   0     0   0   0     0   0   0    18  16   0    18  16  16    17   5  20     4   0  20     0   4   6     0   4   2     0   0   3     2   8   0     2   8   2     8   0   2     8   0  11     2   0   0     0   2  28     0   4   4     0   0   0     4   4   0     0   0   0     1   0   2     0   0   0     0   0   0
 32   0   4    32   0   0     0   0   4     0   0   4     0   0   4     0   0   4     1   0   2     1   0   0     1   0   0     0   0   6     0   0   2     2   0   1     0   0   0     0   0   2     0   0   0     0   0   8     0   0   1     0  16   0     0   0  16     0   0  16    17   0   0     1   0   0     1   0   0     0   0   0     0   0   0     0   0   0     2   0   0     2   0   0    16   0   0     0   0   0     0   0   0     0   0   0     1   0   0     0  32   0     0   0   0     4   0   0     4   0   0     1   0   0     0   0   0     2   0   0     0   0   0     0   0   1     0   0   1     0   0   1     0   0   0    28  32   0     8  32  32    20   0   0     6  34   0    34  34  32     3   3  33     0   0  32     0   0  36    16   0   0     0   0   4     0  16   0    16  16   0     0   0   0     4   0   0     4   0   2    16  17   0     0   0   0     0   0  64     0   0  64     0   0   0   128   0  64   128   0  64   128   0   0    16   0  32     4   0  33    20   8   0     0   0   2     0   0   2    16   0   2     0   0   0     0   0   0     0   6   0     0   4   0     0   0   0     4   0   0     8   1   0    64  16   0     0   0   0     4  35   0     0   1   0    64   1   0    64   0   4     0   0   0     8   4   0     2   4   0    32  64   0     8  72   0     0   0   2     8   0   8     0   0   0    33   8   0     5   0  32     0   0   0    16 129   2    48   0   2    32   0   0    48   4   0    50  36  32    17   0  32    16   5  33     1   0   0     0  32   0     0  32   0     8   0   0     8   6   0     8   0  80     4   0   0     4   0   0     6   0   0     0   0   0    16   0   8    16   0   8    16   0   0     2  24   0     2   0   0     0   0  16     4   0   0     4  16   0     0   0   2     0   0   8     0   0  72     1   1   0    33   9   0    32   8  32     0   0  32     0  40   0     0   8   0     0   0   0     0   0   0     0  64   0     0  88   3     0   8  64     0   0   2     0   0   0     0   0   0    16   0   0     0   0   0    16   0  33     0   0   0     0   0   0     0  32   0     8   0   1    96  32   1     0   0   1     0   4   0     0   0   0     0   2   0     0   0   8   128   0   0     0   0   0     0  96   0     0   0   0     4  16   0     0  16   0     0  32   8     0  36   0     8   4   0    40 100   0     8   0   0    32  32  32     0  16   0     0  16   0     0   0   0     0   0   0     0   0   0     8   0   0     8   0   0     0   0   0     0   0   0     0   2   2     0   0   0     0   7   0     4   1   0     4   0   0     0   0   0     2   0   0     2   0   0     1  65   0     1   5   2     0   6   6     0   4   0     0   0   2     0   4   2     0   0  18     0   0   0     2   0   8     2   0  12     0   2  28     0   0   4     0   0   0     0   0   2     0   0   0     0   0   2     0   0   4     0   0   0
 32  32   0     0   0   0     0   0   0     0   0   0     0   0   0     0   0   4     0   0   4     1   0   6     0   0   6     2   4   2     0   4   0     2   0   1     2   4   0     0   0   0     0   0   0     0   0   0    16  16   0     0   0   0     0   0   0     0   0  16     0   0   0     4   0  16     4   0  32     0   0   0     0   0   0     0   0   0    16   0   0    19   0   0     3   0   0     0   0   0     0   0   0     0   0   0     0   0   0     0  32   0    32  32   2     0   0   2     4  32   0     4   0   0     2   0   0     2   0   0     0   0   0     0   0   0     0   0   1     0   0   0     0  32   1     0   1   0    16  33   0     0   3   0     0   5   4     2   0   4     0   1  32    32   0   0     0  17   0     0   0   0    24   0   0    24   0   8     0   0   8     0   0   0     0   0   0     0   0   0     0   1   2     0   1   0     0   0   0     0   0   0     0   0   0     0   0  68   128   0  64     0   0   0     0   2   0     0   8  64     0   8  32     0   0   4     0   0   0     0   0   0     0 128   0     2   0   0     2   4   0     2   4   0     0   0   0     0  16   0     0  17   0     8   0   0     8  16   0     0   0   0     0   1   0    64  33   0     0   0   0    32   0   0     0   0   0     0   4  16     1   4   2     0   0   8    32   0   2    32   2  10     0   0   0     1   0   0     3   2   0     0   3  32    18   2  32     0   0   1    48   1   0    32   0   0     0  32   0     8   0   0     9   0   0     8   4   0     0   0   0     0   0   0    32   0   0     0   4   4     0   0  32     0   0  20     4   0   0    96   0   0     0   0   0    16   0   8     0  16   0     0   0   0     0   0   0     0   0   0     0   0   0     4   0  16     4  16   0     0   0   0     0   0   0     0   1   0    33   0   4    32   0   0     3   0  33     2   0  32     0  40   0     0   8   0     0   0   8     0  16  10     2  68   0     2  80  65     2  64   1     0  64   2     0   8   1     0   0   2    16   8   0     0   0   1     8   0   0     0  32   1     0   0   0     8  32   0     0   0   0     0   0   1     2   0   0     0   0  32     0   0  96     0   4   0     0   0   8     0   0   0     0   0   0     0   0   0     0   8   1     4   0   0     4  16   0     4  48   0    44   4   0     0   4   0    32   0   0    64   0  32    32  32   0    32  48   0     0  16   0     0   0  66     0   0   0    64  64  64    72  64  64     8  64   0     8   0   0     0   0   2     0   0   0     0   8   0     0   1   0     0   3   0     0   0   0     4   0  16     2   0   0     7   1  16     1  69   4    12   4   4     4   4   4     8   0   0    12   4   2     0   0   0     0   4   0    16   0   0    16   0   0    16  16  24     0   0  28     0   4   4     0   0   0     0   0   0     0   0   0     0   0   0     0   0   4     0   0   0
  0  34  32    32   0  34    32   0   0     0   1   2     0   0   0     0   0  32     1   0   4     1   0   0     0   0  18     0   8   6     0   4   0     0   4   1     2   0   0     0   0   0     0   0   0     0   0   0     8  16   0     0   0   0     0   0   2     0   0   0     4   0   0     0   0   4     4   0   0     0   0   8     4   6   0     2   0   0     3   0   0     2   0   0     9  16   0    16  16   0     0   0   0     0   0   0     0   0   0     0   0   2     0  32   0    32  33  35    32   0  32    32  32   0    34  32   0     0   0   0     0   0   0     0   0   0     0   0   0     0   1   1     0  33   1     0  33   0     0   0   4     0   0   4     0   2   0     0   0   0     0   6   0     0   0   0     0   0   0     8   0   0     0   8   4    16   2   0     0   0   0     0   0   0     0   0   0     0   0   2     0   1   0     0   1   0     0   1   4     0   0   4     0   0   4     0   0   4     0   2  32     0   0   0    16   8   0     0  10   0     0   0   0     2   0  32     0   0   2     0   0   2     0   0   0     0   0   0     0   0  32     2   0  32     0  16  32    16  16  32    24  16   0     0  16   1     8  32   0     8  16  32     0   1   0    64   1   0    32   1   0    32   8   0     0   0   0     0   4   0     1   0   2     0   0   0     0   0  10    16   1   0     0   0   0     0   0   2     0   0   0     3   0   0     6   3  32   128   1  33    32  33   1    32   1   0     0   0   0     0   0   0     1  32   0     1   0   0     1   0  16     0   8  16     2   2   0     2   2   0     0   0  20     0   0   0     0   0   2     0   0   0     0   0   0     0   0   0     0  16   0     0  16   0     0  16   0     0  32   0     0   4   0     4   0   0     4   4   0   128   0   2     0   4  10     0   0  66    34   4   0    38   0   0     0   8  32     2   8   0     0  40   8     0  32   8     0   0   0     0  16   8     0  80   0     2  80   0     0  64   0     0  92   1     0   0   1     0   0   1    24   0   1     0   0   0     8   4   0     0  32  16     0  32   0    64  20   0     2  96   0     8   0   0     0   0  17   136   0   0     0   0   0     0   0  32    16   0  32     0   4   0    16   0   0     0   0   0     0   0   0     4  16   0     0   0   0    12  32   0    12   0   0     4  32   0    40  64   0    96  64  32    96  64  64    32  48  64     0  16  64     0   0  64     0  16  64    64  64  64    72  64  64     0  72   4     0   0   4     0   8   0     0   0   0     0  10   8     0   1   8     4  15   8     4   2   0     4   0   2    16   0   2     8   8  16     0  12   0     8   4   0    12   0   0     8   0   0     0   2   2     0   0   0     0   6   0     0   0   4     5   0   0     0   0   4     0   8   0     0   0   0     0   0   0     4   0   0     0   0   0     0   0   0    32   0   4     0   2   0
 32  32  36     0   0  32     0   0   0     0   0  32     0   0   0     0   0  32     1   0  32     0   0   0     2   8   0     0   0   0     0   0   0     0   4   0     0   4   0     2   0   0    16  24   0     0   8   0     8   8   0     8   8   2     0   0  34     8   0   0    40  32   0     0  32  16     4  37  57     2   1  41     0   0   0     0   4   0    26   4   0     1   0   0     1   0   0     0   0   2     0   0   2     0   0   0     2   0   2     2   2   2     2   0   2    32  33   1    32  32  32    32  33  33    34   0   0     0   0   8     0   1   1     0   0   8     0   0   0     0   0   0     0   0   0     0  33   1     0  32   4     0  32   0     1   2   0     1   2   0     0   2   0     0   6   0     0   0   0     0   0   0     9   8   0     0   0   0    10   0   0    10   0   2     2   0   0     8   8   0     0   1  16     0   1   4     0   0   0     0   0   0     0   0   0     0   0   5     0   0 100    16   2   0     0   0   0     0   2   0     0   8   0     2  24   0     0  96 100     0  16   0     0   0   0     0   0   0     0   0  32     0   0   0     0   0   0     0   0   1     0   0   0     8  16   1     8   2   0     0  27   1    16  17   0    16  11   0     0   2   0     0   0   0     0   0   0     0   0   0     0   0   0     0   2   2     0   0   0     0   2   0     0   0   0     0   0   2     9   0   0     9  64   0   128  16  32   132   0  32     4   0   0   112   2   0     0  34   0     0   2   0     1   0   2     0   0   0     0   0  16    32   0  16     2   0  16     4   0   0     0   8  12     0   0   6     0   0   2     0   0   0     0   1   0     0   0   0    16  16   0     0  16   0     0   0   0     0   5   8     0   4   0     8  12   0     8  12   2     0   8  10     0   4   2     0   4   2    38   2   2    34  20   2     2   0   0     0   0   0    16  40   0     0   0   0     0   0   8     0   0   8     3  16   0     2  16   0     2   0   0     0  64   0     0  64   0     0  64   0     0   0   1    16   0   0     0  32   0     0   4   0     0  36  20    64  48   4     9   0  20     1   0  16   130   0  20   128   8  64     0   0  36     0   4   4    17   0   0    16   2   0    48   0   0     0   4   0     0   0   1     0  24   0     4   0   0     4   0   0     0   0   0     0   0   0     0   0   1     0  64  34     0   0   1    32   0  64     0  16  64    16  16  64     0   0   0     0  16   0     0  16   0     0   8   0     0   0   5     0   8   0     0   8   2     0   9   1     0   5   0     0   7   0     8   2   0     8   8   0     0   0   4     4   8  22     0  12   0     4  12  12     8  12   1     4   0   0     0   0   0     0   0   0     1   3   0     0   2   0     4   8   4     0   0   0     0   0   4     0   0   0     0   0   0     0   0   0     1   0   0     0   0   0    32   0   0     0  40   0
  0  32  36    32   0   4     0  32  36    32   0   0     4   0   0     0   0   0     8   0   0     9   0   0     1   0   0     0   0   2     0   0   0     0   4   0     0   4   0     2   4   0     2   9   0     0   8   0     0   8   0     0   0   0     0   0   1     0   0   0     0   0   0     0   0   4    32   1   5     0   1   0     0   4  32     2   0   0     0   0   0     0   0   0     0   0   0     0   0   0     0   0   0     0   0   0     0   1   3     0   0   3     0   0  10     0   0   1     0   1   1     0   1  33     4   0   1     2   0   0     0   0  13     0   2   0     0   1   8     0   0   0     0   0   0     0   0  32     0  32   4     2   0   0     0   0   0     0   0   0     0   2   0     0   2   0     0   0   0     8   0   0     8   0   0     8   8   0     2   0   4     2   0   0     2   0  16    18  18  16     2   0   8     0   1   4     0   0   0     2   0   0     0  16   0     0   0   5     0   0  64     0   0   0     0   0   0     0   0   0     2   0  97     2  16  32     0  48  64     0  16   0     0  32   0     0   0   0     0   0  32     2   0  33     0   0   1     0   0   1     8   0   0     8   0   2     8   0   1     0   3   1     0  15   0     0   3   0     0   0   0     0   6   0     0   2   0     0   8   0     0   0   0     0   0   0     0   0   0     4   0   0     0   0   0     0   0   2     8   0   2     0   0   0   141   0  32   132   0  36     4   0   0     0   0   0     0   1   0     0   1   2     1   0   0     0   0   2     1   0   0    32   0   0     6   0   0     0   8   0     4   8  74     1   0   2     0   4   8     0  36   2     0  32   0     0  32   0    16  16   0     0  48   0     0   0   0     0   0   0     0   0   0     0   8   8     0   9   8     0   0   0     2   0   0     3   0   2    34   0   0     0   0   0    17   8   0     1   0  32     1   0   0     0   0  32     0   0   8     0   0   8     2   0   8     0   0   8     0   0   0     0  76   4     0   0   0     0   0   0     0   0   0    32   0   0    16   4   0     0   4   0     0   4   0     0   0   4     0   0   0     0   0   8     2   0   4   129   4   4     0   0   0     8   0   4    16   0   0    16   0   0    16   0   0     0   0   0     0   0   0     4   0   0     4   0   0     8   0   0     0   0   0     0  16   0     4  16   0     4  16  33     4  16  32     0  32   0     0  16   0    16  16   0     2  16   0    16  16   4    16  24   0     0   0   0     0   8   2     0   9   4     1   0   0     0   5  16     0   0   1     0   4   1     8   2   8     8   2   0     0   0   0     0   4   2     0   0   0     0   8   8     4   0   0     0   0   1     0   0   5     0   0   4     0   2   0     0   0   4     0   6   4     0   0   4     8   0   0     0   0   0     0   8   0     0   0   2     8   8   0     8   0   0     8  32   4     0  32   4
 32   0  12     0  32  36    33  32  32    32   0   4     0   0   4     0   0   0    12   0   0     9   0   0     1   0   0     1  32  34     0  32   2     0   2   0     0   0   0     0   4   0     0   8   0     0   0   0     0   0   0     0   0   1     0   0   1     0   0   0     0  32   0    32   0   8     0   0   1     2   2   0     8   0  32     0   0  16     8   4   0     0   4   0     0   0   0     0   0   0     0   0   0     0   0   0     0   0   0     0   0   1     0   4   1     0   0   0     0   1   1     0   1   0     0   1   0     0   0  32     0   0  36     0   1   4     0   0   8     0   0   0     0   0   0     0   0   0     0   0   0     0   0  32     1   0   0     0   0   1     0   2   1     7   0   0     2   2   0     2   2   0     0   0   0    11   8   0     0   0   6     8   8   0     2   0   0    16  16  16     2   0  16    16  16   0     0   4   4     0   8   1     1   8   5     1   0   4     0   0   4     1   0   0     0   0   0     0  16   0     0  16  32     0   0  32     0  48  32     0  16   0     0  18   0     0   2   0     0   0   0    64   0   1     0   0   1     0   0   4     0   0   0     0   0   1     9   1   1     0   2   0     0  67   0     0   3  16     2   6   0    16   4   0     0   0   0    16   0   0     0   0   4     0   2   0     0   2   0     0   0   0     0   0   0     4   0   0    12   0   0   141   0  32     4  32   0     4   0   0     4   0   0     0   8   0     0  32  16     0  33  16     0   0   0     0   0  18     0   0   0     0   0   0    96   0   0     4  16   0    96   0   0     0   0   0     0   0   2     0  32   2     0   0   0     0  96   0     0  96   0    16  16   0     0  32   0     0   0   0     0  33   0     0   0  42     0   0  14     0  16  10     0   0   0     0   0   2     0   0   0     1   0   0    16   0   2     1   0   0     0   0  32     0   0   0     0   0   0     0   0  40     2   0   8     0   0   0    64   0   4    68   0   4     0   2   0     0   0   0     0  64  64     0   0  64    16   4   0     0   4   0     0   4  64     0   0   2     0   0   0     1   0   0     1   2  64     0   4   0     0   0  36     1  32   4    17   0   0     0  32   0     0   0   0    32   1   0     0   5   0     0   4   0     4  16   0     0  16  16     0   0   0     0   0   0     0  17   0     5  17  32     0   2   0     4   0   0    18   0   0    18  16   0     2  16   4     0  16   4     0   0   0    16  16   2     0   4   0     0   4   0     0   0   0     0   0   1     0   0   1     8   2   0     8   0   0     8   2   0     0   0   0     0   0   0     0   0   0     4  12   1     0   0   1     0   0   0     0   0   0     0   0   4     0   0   4     0   0   0     8  10   0     8   0   4     8   8   0     0   0   4     9   0   0    16  17   1     8  16   0     8   0   0    32  32   0     0  32   0
 32  32   0    32  32  36    32  32   0    32   0   4     0  32   4     0  32   1     0   0   0     8   0   0     1   0  32    12   0  32     1   2   0     1  34   0    32   2  32     0  32   0    32   0   0     0   1  36     0   0   1     0   0   1     0   0   0     0   0   0     0   0   0     0   0   0     0   0   4     0   0   4     0   0  36     0   0   0     0   0   0     0   1   8     0   1   0     0   0   0     0   0   0     0   0   0     4   0   0     0   8   0     0   4   0     0   4   0     8   8   0     0   1   0     0   0   0     0   0   0     0   8   0     0   0  34     0   0   2     0   4   8     0   0   0     0   0  32    17   0   0    18   0   0     0   0   1     8   0   0     0   0   0     6   2   0     2   0   0     2   2   0     0   0   0     2   0   0     8   8   0     0   0   0    10   8   0     0   0  16     0   0  16     0   4   0     0   8   0     0   0   5    18  24   0     0   0   5     0  16   4     1   0   4     1   0   0   128   0   0     0  16   0     0  32  33     0   0   1     4   2   0    96   0   0    32   2   0     0   0   5    66   2   1     0   0  12     0   0   0     0   0   0     0   0   0     0   0   1     0   1   0     0   8   0     0   0   0     0   0   0     0   0   0     0   0   1    16   2   0     0   0   0     0   0   0     0   0   0     0   0   0     8   0   0     0   0   0     4   8   0     0   0  36     4   0   4     0   0   4    16   0   2    32   8   0     1  32   2     1  33   0   128   8   0    17   8   0   144   0   0     0   0   2     0   0   0     0   0   0    96   0   0     0   0   2     0   0   2     0   0   0     0   0   0     0  96   0     0   0   0     0   0   0    32  96   0    32   0   0     0   8   8     0   8   0     0   0   4     0   0   0     1   0   0     2   0   0     0   0   0     1   0   1    17   0   1    17   0   0     0   0   2     0   0  36     0   0   0     0   0  33     2   0   1     0   0  33    88   0   0    24   0   4    10   0   0     2   0   0     0   0  64     0   0  64     0   0   0     0   4   0     0   0   0     0   0   2     1   0   2     0  16   0     0   0   0    64  16   0     0   2   0    64   0   0    16   0   0     0   0   0     0   2  16     0   0   0    32   0   0     0  12   0     0   0   0     0  64   0     8   0   0     0  16   0     0   1   0     8   1   0     4  40   0    12   0   0     6   0   0     0   0   0    18   0   0    18   0   4     0   0   0    17  16   0     1  16   0     0  16   0     0   1   0     0   0  16     0   0   0     8   2   4     8   0   0     0   0   0     1   1   0     0   0   0     8   4   0     8   0   0     0   0   0     8   0   0     0   0   0     0   0   5     0   0   4     0   0   4     8  12   2    24   0   4     8   8   6     0  16   0     8   8  16    16   0  32     0   8  32    32   1   9    32   0   0     0   1   8
 32  32  32    48  48   2    32  32  34     0   0   4     0   0   4     2   0   5    10   2   4     9   0  32     1   2  32     8   0   0     1   0   0     0   2   0     0   0   0     0  32   1     0   0   1     0   0   0    24  16   3     0   0   2     0   0   0     0   0   0     0   0   0     0  16  32     0   0  36     0  16   0     0  16   0     0  16   4    32  32  48     0   0   0     0   1   0     0   1   0     0   0   0    12   0   0     0   0   0     0   0   0     0   0   0     0   0   1     0   0   0     0   0   0     0   0   2     0   1  16     0   0  48     0   0  48    16  24   0     0   0   8     0   0   8     0   0   0     0  16   1     1   0   0     1   0   1     8   0   0     0   0   0    24   0   0     2   0   0     2   0   0     2   0   0     2   2   2     0   0   0    16  24   0    24  16   0    12   4   0    16  21   0    20  20  16    16  20   0     0   8   0     2   0   0    65  64  68     1   1   4     1   1   4     0  16   0     0  64   0     0   0   0     0   0   0     4   0   0   100   0  10   100   0   0     0   0   1    96  32  17    64   2   0     1   0  16     0   0  20     4   4  40     0   4   1     0   0   3     0   0   0     8  40   0     8   8   2     0   0   0     1   2   0     1   2   1     1   2   0     8   0   1     2   0   1     0   2   0     0   0   0     0   0   8     0   0   0     0   0   0     0   4   0     1  16   0     5  20   0     0  28   0     0   0   0     0  12   0     0   0   8     0   4   4    16   4   4   146   0   0     8  16   2   128   0   0     8   0   0   128   0   0     0  32   0     1  16   0    17  16   0     1   0   0     0 128   0     0 128   0     0   0   0    32   0   0    32   0   0     0   0   9     0   0  32     0  16   0     1   0   0     0   0   0     0   0   0     0  32   1     1   0   1     1   0   0    17   0   0     0   0   0     0   0  32     0  64   0     2   0  32     0  32   1     0  32  37     1   0   4     9   0  32    24   0   2     8   0  65     0   0  64     0   8  65     0   0   1     0  64   0     0   0   0     0 100  64     0  28   0     0  48   0     0   1   0     0  24   1     0  40   0     1   0  32     0  34   0     0   0   0     0   0  16     0   0   0     0   0   0     0   0   0    32  16   0     0   4   0     0   0   0     0   0   0     0   0   0     0   0   0     0   0   0    38   0   0     8   0   0    40   0   0    26   0   0    16   0   0    17   0   0    17   4   0    17   0   0     0   0   0     0   0  16     0   0   2     8   0   0     0   2   0     8   8   0     0   0   0     0   0   8     0   8   0     1   1   0     8   4   0     8   0   1     8   8   0     0   0   0     0   0   1     0   0   1     0   0   1     8   0   0     0   0   2     8   0   2    16   0   2     0   0   2    17  16  32     0   0  36     0   1   9     0   1   1    16  17   0
  0   0   0     0   0   2     0   0   2     0   1   0     0   0   0     2   0   2     0  18   0     8  18   0     8  18   0     8   2  16     1   0   0     0   0   0     0  32   0     0   0   0     0   0   3     0   1   1    24  16   0     0   0   0     0   0   0     0   0   0     0   0   1     0   0   3     0   1   2    16   1   4     0  16   6     8   8   2    32  32  32     0   0  40     0   0   0     0  16  32     0   0   0     8   0  32     4  33  34     0   1   0     0   0   0     0   0   1     0   0   0     0   0   0     0   0   0     0   8   2    32  32  18     0   0  32     0   0  32     2   0  32     0   0   0    17   0   0    17   0   4     1   0   0     1   0   1     1   0   0     0   0   0     2   0   0     0   0   0    26   2   0     8  10   0     2  10   0    16  16   2     2   0  34    16  16   0    12   0   0    20  20   0     0   0  16    16  20   0     0   0   4     0   0   0     0   0   0     1   1   4     0   1  16     0   0  16     0   0   0     4   0   0     4   0  18     4   0   0   100   0   3     4   0  17   100   0  17     4   0  16     0   0  16    65   0   0     4   4  20     4   0  48     4   0  37     0   0   3     0   8   0     0   8   1     0  40   0     0   0   3     0   0   3     1   2   9     0   2   9     0   0   8     0   0   0     0   0  12     8   0   8     0   2   8    16   0   0     1   0   0     0  16   0     4  16   2     0   4   0     1  28   0    33  12   0     2   8   0     0   4   8    16   4  42    16   4  46     0   0   2     0   0   4     2   0   0     8   0   0     8   0   0     0  32   0     2  32   0     1   4   0    10   4   2     0   4   0     0 128   2     0   0   0    32   0   0     0  17   1     0  16   9     0   8  32     0   0   0     1   0   0     0  34   4     0   2  16     0  32   4     1  32   0     0   0   0    32   0   0     0   0   0     0  64   0     0  80   0     0   0   0     0   0  13     0  32  12     0   0   8     0   0  32     0   0   2     0   0  65     0   0   1     0   0   0     0   8   0     0   0   0     0  72   0     0  64   0     0 105  36     0  40   2     0  57   1     0   0   1     0  26   1    64   0   1     0   8   0     8   0   1     0   0   0    16   0  24    32   0  64     0   0   0    32   0   0     0   8   0    32   0   0     0   0   0     0   0   0     2   0  16     2   0  17     2   4   0     2   0   8     2   4  72    16   0   0     0  16   8     0   8   8     1   0   0    17   0   0    16   0   0     0   0   0     8   0   0     8  10   0     8   0   0     0   0   0     0   0   0     0   0   0     0   1   0     1   1   0     0   0   0     0   4   0     0   0   1     0   0   0     0   0   1     0   0   0     0   0   0     0   0   0     0   0   8    16   0   0    16  16  26     1   0   2     0   0  34     0   0  36     0   0   8     0   1   1    32  32   9
 32  32   0    32  36   2     0   0   6     0   2   6     0   0   6     2   0   2     0   0   2    10   2   0     0   2   0     1   0   0     1   0   0     0   0   2     0  32   2     0  32   0     0   0   0     8   2   0     0   0  24     8   0  24     0   0   4     0   0   2     0   0   2     0   0   0     0   0  14     2   0   6     0   0   0     0   0   6    32  34   4     0   0   6     0   0   4    16   0   0     4   0   0     0   1  32     0  33   0     0   1   2     0   0   0     0   0   1     0   0   2     0   0   0     0   0   2     0   1   0     0   1   2     0   0   0     1   0   0     3   0   0     0   0   0     1   0   0     1   0   4     1   0   0     0   0   0     0   0   0     0   0  32    28   0  32    24   0   0    24   0   0     0   0   0     2   0   0    10   0   0     8   0   0    16  16   0    16  16   0    16  16   0     4   4   0    16  20  16     0   0   0    16  16   0     2   0   0     0   8  20     0   8  20     0   1  24     0   0  24     0   0   8     0   0   0    96   0   0    96   0  16     0   0   1     0  65  17     4   0   1    32   5  16     1   9  16    20   0  16     4   0   0     0   4   1     0  64  32     0   8   0     8   0   0     9   0   2     2   0   2     1   0  10     0   6   8     0   0   8     0   0   8     0   0   4     0   0   4     0   2   0     0   2   8     0   3   0     0   2   1     0  65   0     0   0   1     0  84   0     0  12   0     0   8   0     4   0   0     4   0  12    17   0   2     3   0   2     1   0   2     2   0   0    10   0   0     8   0   4     2   0   0     2  32   0     2  32   0     0   0   8     0   4   0     0   0   0     0   0   2     0   0   0     0   0   2     0   0   2     0   1   0     0  20   0     0  12  44     8   0  36     8  34   0     0   0  80     0  34   8     1  34  16     0   0   0     0   0   0     1  16   0     1  80   0     1  80   0    64  48  36     1  16   0    65   0  12     0   0   0     1   0   0     1   0  74     1   0   0     0   0  64     0   0   0     0  64   0     0  64   0     0  64  64     0   0   0     0   8  64     0 100  16     0  65   0     0   0  16     0  34   0     0   0   0     8   0   1     8   0   0     4   0   0     0   0   8    32   0   0     0   4   0     0   0   0     0   4   0     0   0   0    16  12   0     0   0   0     4   0   0    16   0   8     4   0   8    28   4   0    12  36  40     0   4  32     0   4   0     1   8   0     1   0   0     1   0   0     0   0   0     0   0   0     0   0   0     0   0   0     8   0   0     0   0   0     0   0   0     4   0   0     0   8   0     1   0   0     1   4   0     0  12   0     0  12   1     0   0   1    16   0   0     0   0   0     0   0   0     0   0   2     0   8   3     0   0   2     0   0   3     2   0   0     0   0   0    32  34  36     0   2  36     0   0   9     0   0   1
  0   4   0     0   2   4     0   2   2     0   2   4     0   0   2     0   0   2     0   0   2     0   0   0     0   0   0     4   0   0     5   0   0    13   0   0    13  32   2     8   0  34     0   1   0     8   0  24     2   0   0     2   0  24     0   0   0     0   0   2     1   0   0     0   0   0     1   0   2     2   0   0     0   0   4     1   2   6     0   0   2     0   0  10     0   0   2    16   0   0     0   0   0     0   1   0     0  33   0     0   0   0     0   0   0     0   0   2     0   0   4     0   0   0     0   1   1     0   1   0     0   0   0     0   0   0     0   0   0     0   2   0     1   2   0     0   0   4     0   0   0     0   0   0     0   0   0     1   0   0     0   0  33     0   0  32    24   0  32     0   0   0    16  16   0     0   0   0     0   0   0    16  16   0    16  16   0     0   0   0     0   0   0     0   0  16     0   0  16    16  16  16     0   0   0    16   0   0    16   0   0     0   8  20     0   0   0     0   0  40     0  32   8     0  32  20     0  32   0     0   0   0     0  64  17     0   0   0     0   1   1    96   1   0     0   0   0     8   1   0     0   0   4     0  64  32     0  72  32    64   0  32     0   0   0     1   0   0     3   0   0     2   0   0     0   0   1     0   0   0     0   2   8     0   0   0     0   0   8     0   2   8     0   2   5     0   1   1     0   2   0     1   0   1   128  16   1    16   0  16     0   0   1     0   0   0     0   2   0     0  32  36     0   0  36     3  34   8     3   0   0     6   1  16     6   0   0     8   0   1     0   0   1     0   0   0     0   0   0     0   0   0     2   0   0     0   0   1     0   0   0     2   0   8     2   0   0     0   0   0     0   0   0     0   0   8     0   8  44     0   0   4     0   0   6     0  34  28     0   0   0    65  32   8     1  32   0     1   0   0     1   1   0     8  16   0     8   0  32     0   0  32     0   0   4     0   0  20     0   0  24     0   0   0     1   0   8     3   0   0     0   0   0     0   0   0     0   0   0     0   1   0     0   0  64     0   8   0     0   8   0     0   0   0   128   0  48     0   0  16     0  32  16     2   0   0     2   0  16     0   0  16     0   0   0     0   0   0    32   0   0     0   4   0     0   0   0     0   0   0    34   0   0    32   4   0    36   8   0     0   0   0     0  32   0    64  32   1     8  36   8     4   4   0     0  20   0     0   0   4     0  16  12     0   8   4     2   8   0     0   0   0     0   0   0     0   3   0     1   1   0     0   0   0     0   0   0     0  12   0     0   8   0     1   8   0     8   0   0     0   0   0     0   0   0     0   0   0     0   0   0     0   0   0     0   0   0    16   1   8     0   3  10     0   0  10     0   0   0     0   0   0     0   0   0     0   0   0     0   2   0     0   2   4    32  33  33     0   4   1
  0   4   0     2   0   0     0   0   0     0   2   4     1   0   0     0   0   0     0   0   2     2   0   2     1  32   2     5   0   0     5   0   0     1   0   0     1   0   2     5   0   2     1   0   0     2   0   0     0   4  24     0   4   2     1   4   2     1   4   0     0   0   0     1   0   0     1   0   0     3   0   0     0   2   0     1   0   0    33  32   0    36  32  10     0   0  18     4  16  16     0   0   0    16   0   0     0   3   0     0   0   4     0   0   0     0   0   0     0   0   2     0   0   0     0   1   1     0   1   0     0   0   0     0   0   4     0   0   6     0   0   0     0   0   0     0   2   0     0   0   0     0   0   0     2   0   0     0   0   0     0   0  32     0   0  32     0   1   0     0   0   0     1   1   1     0   0   0     0   0   0     0   0   0     0   0   0     0   0   0     0   0   0     0   0   0    16  16   0    18   0   0     2  16   0     0   0   0     0   0   0     0   0   4     0   8   0     0   0  40     0   2   8     0   0   0     0   0   1     0   0   0     2   0   9    96   0   0     0   0  32    64   0   0     0   1   4     8   4   4     0   8   4     0   4   0     2  76   0    64  68  32     2   0   0     0   0   4     0   0   4     0  32   0     0   0   9     0   2   0     0   0   0     0   0   4     0   0   4     0   0   5     0   2   4     0   2   5     0   2   1     1   2  32   128   2   2     0   6  64     0   2  24     0  40   8     0  34   8     0   2   8     0   8   0     0  34   8     3   1   0     5   1   0     3   0   0     6   1   8     0   0   4     0   0  12     0   2   8     0   2   8     2   0   0     0   0   1     0   0   0     0   0   0     0   0   0     0   0   0     0   8   8     0   8   8     2  32  32     0  64   0     0   0   0    80   0  16   112  32  24     0  32   0    33  16   0    65  16   0     0  16   0     8   0   0     0   0  32     8   0  32     0   0   0     8   0   0     8   0   0     1   0   9    12   0  72    20   0   8     0   0   0     0   0   0     0   1   0     0   1   0     0  36   0     1  36   0     0  38   0     0   0   0   128  48   0     0   0   0     0  32  16     0   0   0     0   2   0     0  32   0    64   0   0     0   0   0     0   0   0    32   0   0     0   0   0    32   0   0     0   4   1     0   0   0    50  12   0     2   8   0    96  32   0    80  32   1     8  32   0     8   0   0     8   4   4     1   0   0     1   8   4     3   0   0     0   8   0     2   0   4     0   0  12     0   1  12     0   3   0     0   0   0     0   0   1     2   0   0     0   0   0     1  18   0     9   2   0     9   2   0     1   0   8    16   0   8     0   0   0     0   0   0     0   1   4     0   0   2     0   0   2     0   0   2     0   0   0     0   0   0     0   0   0     2   2   0     0   2   0     3   1   1    33  33  32    34  37   1
  0   1   1     0   0   0     0   0   0     0   0   0     1   0   0     0   0   0     0   0   0     0   0   2     2   0   0     0   0   2     4   0   2    29   0   0     5   0   0     0   0   0     1   0   0     0   0   0     0   0   0     0   0   0     1   4   0     1   4   0     1   4   0     1   4   0     1   2   0     1   2   0     0   2   0     0   0   0    32  32  32     8   0   2     0   0   2     0  16   0     0   1   1     0   0   0     0   1   1     0  32   0     0   1   1     0   0   0     0   0   0     0   0   0     0   1   1     0   0   0     0   0   0     0   0   0     2   0   0     0   0   0     0   4   0     0  32   0     0  32   0     1   0   0     3   0   0     0   0   0    32  32  32     0   0   0    32  32  32     0   0   0    34  34   0     0   0  32     0   0   0    16  16   0     0   0   0     0   0   0     1   1   1     2   2   0     9   9   1     2   3   8    16  19   0     0  18   1    64   9  18     0  10   2     0  74  68     0  98 100     0   0   4     2  96  65     2   0   1     2  96  96   128  96   0     0   0  32     0  16   0     0   0   0     0  17   0     0   0   4     0   0   0     0  65   4     0  73   8     0   0  56     2   8  20     0   1  20     0   0   0     1  32   1     0   0   0     0   1   1     0   0   0     0   0   1     0   0   1     0   0   9     0   2   0     0   0  40     0   0  32     1   2  32    32   2  32    32  39  34     0   3  24     0   2   8    32   2   0    32  64   1     0   2   3     0  32   0     0   0   0     3   1   8     4   0   0     0   0   8     0   1   8     0   1  12     2   2   4     0   3   4     2   3   0     0   0   0     2   4   0     1   0   0     0   0   8     0   0   0     4   8   8     4   0   8     0  40  34     2  64  32   128  72   2    16  32   0    96  32   0     0  32  16     0  32   0     0  48   0    32   4   0     0   0  32     2   0   0     2   0  32     2   0   0     0   0   0     0   0   8     8   4   8     8   4   8     0   0   8     0   0   8     0   1   0     0   0   0     0   1   0     0   4   0    16   0   0     1   0   0     1   0   0     0  16  32     0   0  52     0   0  20     0   0   0     1   2  17     0   0  16     0   0   0     0   0   0     0   0   0     0   0   0     0   0   0    32   0   0     2   0   1     2   0   0     0   0   0    18   0   0    98  49   0     2  33   0     0   0   1     0   0   0     0   0   0     1   0   0     1   0   0     3   0   4     0   0   0     0   0   0    16   1   8     0   1  12    16  17   0     0   0   4     2  24   4     3  16   0     1   0   0     4   0   0    13   2   0     0   2   0     8   0   0     0   0   0     0   0   0     0   0   4     0   0   4     0   0   0     4   9   0     0   8  24     8   0   0     0   0   0     2   2   2     2   2   2     0   0   0     0   0   0     3   1   1     2   1   3
  0   0   0     0   0   0     0   0   0     0   0   0     0   0   0     0   0   0     0   0   0     0   0   2     0   0   0     0   0   2     0   0   0     0   0   0     2   0   0     1   0   0     1   0   0     0   0   0     0   0   0     0   0   0     0   0   0     0   0   0     0   0   0     0   0   0     0   0   0     0   2   0     0   2   0     2   2   0    33  32   0     1   0   0     0   0   2    16   0   2     0   1   1     0   0  32     0   1   1     0  32   0     0   3   1     0   0   0     0   0   0     0   0   0     0   0   0     0   1   1     0   1   1     0   0   4     0   4   6     0   0   0     0   4   2     0   4   0     0   4   2     0   0   0     0   0   2     0   0   0    32  32  32     0   0   0     0   0   0     0   0   0     0   0   0    32  32  32     0   0   0     0   0   0    16  16  16    16  16  16    24  24  24     1   1   1    16  17   9     0   3   0     2   0   1     0   3   0    64   2   0     0   0   0     0  32   4     0   8   4   128  64   0   130   0  64     0   0  64     0   0  64   132   0   0     0   0  32     8   0   0     0   0   2     0   0   0     2   1   4     0   1   4     0   0   0     0   8   8     4   0   8     0   0  16     0   1  48     0   0   0     0 112   8     0   0   8     4   0   8     4   0   0     0   0   1     0   0   0    16   0   9    16   0   0     0   2   0     0   2   0     0   3  35    33   3  32    32   0  34     0   4  16     0   4   0     0   0   2     0  96   2     0   0   1     0  96   0    32   0  32    32   0  41     1  21   0     1  16   0     0   1   0     0   1   2     0   1   4    32   0   0     0   3   0     0   6   0     0 128   0     2 128   0     0   8   0     0   8   0     5  32   0     5   0   0     4   0  34     4  64  32     0   0  32     0   0   0    48  16   0    32  16   0     0  32   0     0  48   0    40   0   0    10   0   0    34   0   0     0   8   0     0   8   0     0   0   0     0   0   0     4   4   0     8   4  64     0  16   8    32   0   0    32   1   0     0   1   0     0   0   4     0   0   0    16   0   0     0   0   0     1   0   0     0  16   4     0   0  16     0   0  21     0   0  17    16   0   1     0   2   0     0  18   1     4   0   0     0   0   0     4   0   0    32   0   2    32   1   2     0   2   1     0   4   0     2   8   0    10   0  64    18   0   0     2   1   1     0  17   1     0   1   0     0   2   0     0   2   0     8   2   0    32  34   0     2   2   0     2   0   1     0   0   8     0   0   8    16   0   8    16   0   2    17  24   4     0   0   1     3  24   2     4   2   3     0   2   0    13   0   4     0   0   0     0   0   4     0   0   0     0   0   0     4   0   0     4   0   8     4   0   0     0   0  16     8   8   8     8  10  24     0   0   0     0   0   0     2   2   2     0   0   0    34  34  34     0   0   0
  2   2   4     0   0   0     0   0   4     0   0   0     0   0   0     0   0   0     0   0   0     0   0   0     0   0   0     0   0   0     0   0   0     2   0   0     2   0   0     0   0   0     0   0   0     0   0   0     0   0   0     0   0   0     0   0   0     0   0   0     0   0   0     0   0   0     0   0   0     0   0   0     0   0   0     2   0   0     2   0   0     0   0   0    16   0   2    16   0   2     0   4   2     0   4   0    24   0   0    24  34   0     0   0   0     0   0   0     0   1   1     0   0   0     0   0   0     0   1   1     0   1   1     2   0   0     2   0   4     2   0   4     0   0   0     0   0   2     0  32  36     0   0   2     0   0   2     0   0   0     0   0   0     0   0   0     0   0   0     0   0   0     0   0   0     0   0   0     0   0   0     0   0   0    16  16  16    16  16  16    16  16  16    16  16  20    17  17   9     0   1   0     2  18   0    64   2   0    64  66   2    64  66  64    64   2   4     4  40   4     0  10   0     0  72  64   128  32  80     4   0  64     0   0  64     0   0   2     0   0   2     2   0   2     0   0   0     2   0   4     0   0   4     5   0   0     4   8   0     4   0   8     2   0   0     0   1  32     0   0   0    17  96   0    16 112   1     4   0   0     4   0   0     0   0   1     0   2   1    16   0   8    18   0   0     0   2  32     0   2   0     0   3   3     0   1   0     0   1   0     2   4   2     0   4   0     0   4   2     0   0   2     0   0   3     0  64   4    32   0  32    34   0  32    33   0   2    37   0   0     1   5   2     0   4   2     0   1   0     0   0   0    32  99   0    34 103   0     2   6   0     0   0  16     0 128   0     0   2   0     0   3   1     0   0   1     3   0   8     0   0  32     0  64   0     0   0   0     0   0   0     0   0   0     0  32  16    10   0  16    10   0   0    10  32   8    32  32   8     0  32  40     0   0   8     0   0   8     4   0   0     4   0  12     0   0   4     0   0   8    40   2   0    32  17   8    32   0   0    16   0   0     0   0   0    16   0   0     0   0   0     1   0   1     0   0   0     0   0  21     0   0   5     0   0   1    16   0   0     0   2   0     0   0   0     4   0   0     4   0   1     2   0   1     0   0   0     2   2   2     2   0   2     0   0   0     0   0   0     2   0   0     4  20  16     2   5   1     0   0   0     0   2   0     0   2   8     0   2   8     0   0  32     8   2  36     2   0  32    32  32   1    34   0   8     0   8   0     0   0   0    16   0   2    18   2   2     4   0   0     0   0   1     4   0   0     8   8   0     9   0   4     0   0   4     0   0   4     0   0   0     0   0   1     0   4   0     0   0   0     0   0   0     0   2   8     8  10  18    16  18  18     0   0   0     2   2   2     0   0   0     2   2   2     2   0   2     2   2   0
  0   0   0     0   0   0     0   1   1     0   0   0     0   0   0     0   0   0     0   0   0     0   0   2     0  24   0     0  24   2     0  28   0     2   2   0     0   1   1     0   0   0     0   1   1     0   0   4     0   0   0     0   0   0     0   1   1     0   1   1     0   1   1     0   1   1     0   1   1     0   1   1     0   0   4     0   0   4     0   0  12     1   0  10    17   0   0    16   0   2     2   0   0     0  32   0     2   0   0     2   0   0     0   0   0     0   1   1     0   0   0     0   1   1     0   1   3     0   1   1     0   1   1     0   1   1     0   0   6     0   0   4     0   0   4     0  32   0     0   0  34     0   0   0     0   0   0     0   0   0     0   0   0     0   0   0     0   0   0     0   0   0    16  16  16     0   0   0     0   0   0     0   0   0    16  16  16     0   0   0    16  16  16    20  20  16     0   0   0     4   0   0     2   2   4     0  18   0    66  66  66    64  64  64    96  98  72     4   0  12    68  74   4     4   8   4     4  74  64     4   4  64     4   4   0     4   0   0     0   0   6     0   0  22     0   0   4     0   1   0     0   0   0     7  64  32     6   0   0    20   0  16    16   0   0     0   2   0     0   1   0     0  97   0     0   0   1     4   0  13     0   0   1     0   4   0     0   4   1    17   0   0     0   6   0     0   2   0     0   2   0     1 128  16     0   2  16     0   0   0     0   0  18     0 132  20     0   4  18     0   0   0     0   8   0     0   8   4    32   2  36    33   0   0    32   0   0    37   0   0     0   0   2     0   0   2     0   0   2     0   0   0     0 105   0     0  96   0    20   1   0    20 128   0     0   0   0     0   2   0     0   5   7     0   1   5     0   1   0     0   0   0     0  16  32   128  16   0     0   0   0     0   2   0     0  34   1    10  66   0     9   2   1     8  50   0     0  32   8     0  32   8     0  16   8     0   8   0     0   0   0     0  32   4     8  36   0     8   0   0    32   0   0     8  18   8    24   0   8    24   0   8    18   0   0    32   0   0     8   0   0     4   0  16     0   0  20     0   0  20     0   0   4     0   0  17     0   0   0     0   0   0     0  16   0     0  32   0     4   8   0     4  34   0     0   0   0     0   2   0     0   0   2     0   0   0     0   0   0     0   4  16     0   4   0     0   4   0     0   2   0     0   0   0     0   2   8     0   2   0     8   2   0     0   3  32     0   1   0    34  40  33    34   8   0     0   0  32     0   8   0     0  16   0     0  18   2     2   0   0     0   2   0     0  32   2     0   0   0     0   0   4     0  16   4     0   0   0     0   4   0     0   4   1     0   0   0     0   0  10     0   0   2     2  10   2     0   8   2     2   2   2     0   0   0     0   0   0     0   0   0     2   2   2     0   2   0     0   2   0
  2   0   0     0   0   0     0   0   0     0   0   0     0   0   0     0   0   0     0   0   0     0   0   0     0   2   0     0   0   0     0   0   0     0   0   0     0   0   0     0   0   0     0   1   1     0   0   0     0   0   0     0   1   1     0   1   1     4   1   1     0   1   1     0   1   1     0   1   1     0   0   0     0   0   0     0   0   0     1   0   0     4   0   0    36  36   0     4   4   0    32   0   0     0   0   0    36   0   0     4   0   2     0   0   0     0   0   0     0   4   0     0   0   0     0   0   0     0   0   0     0   0   0     1   0   0     0   0   6     0   0   2     0   0   2     0   0   2     0   0   0     0   0   0     0   0   0     0   0   0     0   0   0     0   0   0     4   4   4     0   0   0    20  20  20     0   0   0     0   0   0     0   0   0     0   0   0     0   0   0     0   0   0     0   0   0     4   4   0     8   4   0     5   2   0     0   0   0    65  64  64    68  64  64     0   2   8     4   0   8    68   2   0    96  72  68    98  66  68     4   1  64     4   1   0     0   0   0     0   4   6     0   4  68    32   0  64     9   0   0     1   1  32     0   0  48     1   0  32     4   0   1     0   0  96     0 130   0     0   2   0     0  16   1    20   0   8    16   0   8     0   2   1     0   0   0     0   0   0     1   0   0     0   4  16     0   4   0     0   2   0     0 137   8     0   0   0     0   0   0     0   0   4     0   0  20     8  96  20     0   0  24     0   8   4     0   0  12     0   2   0    32   0   4     0   0   2     0  64  16     0   0  34     0  96  32     0   0   2    16   8  32     0   8   0    16   0   0    16   1   8     0 128   0    16   1   0    16   0   0     0   3   4     0   1   4     0   0   0     2   0   0     8   1   0     8   1   0     0   1   0     0   0   0     1   0   1     8  96  16   137  96  17     0  16   0    65   0   3    64   0   0    64  16   0     0   8   0    16   0  32     0   8   2     8   0   0     8   0   2     8   0   0     0   0   0     0   0   0     8   0   0     0   0   4     0   0   0     0   0   0     0   0  24     0  16   4     0   0   8     0   4   4     0   0   5     0   0   0     0   0   8     0   0   8     4   0   8    12   0   0     8   2   0     0   2   0     0   0   0     2   0   0     0   0   4     0   0   4     8   4  16     0   4   4     2   2   0     0   2   0     0   0   0     0   0   0     0   0   0     0   0   0     0   0   1     0   1   5     0   1   1    16   0   1     0   0  32     0   4   0     0  17   0     0   2   0     0   2   0     0   0   0     0  32   0     0  32   8     0   0   0     0   0   0     0   0   0     0   4   0     0   0  21     0   1  10     0   0   2     0   0  10     0   8  10     0   0   0     0   0   0     0   0   0     0   0   0     0   0   0    34  34  34    34  34  32     0   0   0
  1   0   0     0   0   0     0   0   0     0   0   0     0   0   0     0   0   0     0   0   4     0   0   6     0   0   0     0   0   0     0   0   0     4   0   0     0   1   1     0   0   0     0   0   0     8   0   0     4   1   1     8   0   0     4   0   0     4   0   2     4   0   2     4   0   0     4   0   2     0   0   2     0   0   0     1   0   2     0   0   4     5   4   2    32  36   0    32  36   0     0   0   0     0   0   0     0   0   0     4   0   0     0   0   0     0   0   4     0   0   4     4   0   4     0   0   0     1   0   0     0   0   0     1   0   0     0   0   0     0   0   2     0   0   2     3   0   0     0   0   0     0   0   0     0   2   0     0   2   0     2   2   2     2   2   2     4   4   4     4   4   4     0   0   0     1   1   1     0   0   0     0   0   0     0   0   0     0   0   0     0   0   0     0   0   0     0   0   0    12  12   8     0  16   0     0  16   2     2   8   2     0   0   8     4   2   0    36   0   8    68  64  65     2   0   5     2   0  65     6   0   4     4   5  20     4 132  22     0   4  16    32   0  64     0   8   0    40   2   0     0  66  32     1  67  48     5   4  16     0   2  32     4   0  96     0 128   0     6   0   0     6   0   1    16   0   1     0   0   1     0   2   0     0   6   0     1   4   0     0   0   0     1   4  96     0   1  96     0   0   0     0   9  96     0   0   0     0   0   0     0   0   0     0   0  20     0  96  20     0  64  16     0  32   0     0   2   4     0   2   0     0   0   0     0   8   0     0  64  16     0   8  32     0   0  32    16   8   2    16   8  40    25   0   0    25   0   8    16   0   0    16   0   8     0   0  40     0   1   0     0   0   4     0   0   4     0   4  32    12   0  16    12   4  16   128   1   0     0  16   0     0   0   0     0   0   0     1   0  16   128  16  16     8  48  48     0  32   0    64  48   0    65  16   9     0   8   0     0   0  32    64   0   0     8   0   0     0   0   0     0   0   8     8   0   0     8   0   0     0   0   0     0   0   0     2   0   0    32   0   0    32   0   8     0   0   4     0   2  16    16   2   4    16   0  20    16   0  48     0   0   8     4   0   8    12   0   0    12   0   0     4   1   0     0   0   4     4   0   0     0   0   0     0   0   0     1   0   4     0   0   4     0   0  16     0   0   0     0   0   0     0   0   8     0   0   0     0   4   0     2   0   0     0   0   0     2   0   0    32   0  36    34   0  32     1   0   4     0   8  32     0   0   8     0   8   8     0   0   2     0  27   0     0   1   0     0  33   0     0   0   0     0   0   0     0   0  16     0   0   0     0   0   4     0   1  30     2   0   8     2   0   8     0   0   8     0   0   0     0   1   1     1   1   1     0   0   0    32  32  32    32  32  32    34  32  40     2   2   0
  0   0   0     2   0   0     2   4   0     0   4   0     0   4   0     4   5   1     0   1   1     0   0   4     0   0   4     0   0   0     4   0   0     4   0   0     4   0   0     0   1   1    16   1   1    18   1   1    28   1   1    28   0   0     0   0   0     0   0   0     0   0   0     0   0   0     0   0   0     0   4   0     0   4   0     0   4   2     0   0   0     0   4   0     0   0   0    32  32   0     0   0   0     0   0   0     0   0   4     0   1   1     0   0   0     0   0   4     0   4   0     4   0   0     0   4   0     1   2   0     0   2   0     0   0   0     0   0   4     0   0   0     0   0   0     0   0   0     0   0   0     0   2   0     0   0   0     2   0   2     2   2   2     4   4   4     4   4   4     1   1   1     0   0   0     0   0   0     2   2   2     2   2   2     0   0   0     0   0   0     0   0   0     8   8   8     0   0   0     0   4   0    16   0  16     0   0   0     2   0   0     2   0   4     6   0   0     0   2   1     3   0   1     1   0   1    10   0   0     2   0   4     0   4   0     0 133   4     0   0   0     0   1  64    96  64  64    32   0   0     0   1  48     0  16  32     0  17  48     0   0   0     0   0  36     0   0   4     4   0   0     2   0   0     4   0   0     0   0   0     0   0   0     0 128  64     1   0 100     1   0  64    40   0  66     0   1   0     0   2  32     0   0  44     0  16  36     8  96   4     0  16   0     8  96  20    16  48  20     0  64   8     0  96   8     2   0   0     0   0   0     0   0   0     0  64   0     0  40   0     0   8  32     1   8  32     0   0   2     1   8   0     0   0  16    20   0   0     4   0  12    16 112   8    16   0  32     0   2  32     0   2   4    16   2   4     0   2   0    14 128   0    12   4  32     0   5   0    16   4  32     0   0  32     0   0   0     0   0   0     0  16   0     0  16  32    80  48   0    65  24   1    65   0   3   112  32  32     0  16  32     0   0   0     0   0   0     0   0   0     8   0   8     8   0   0     8   0   0     0  24  20     0   0   4     0  48   0    32   0   0    32   0   0     0   4   8     8   0  14     0   2   2    28   2   2    20   2  48     0   0   8     0   0   8     4   0   0     4   1   8     4   0   0     4   1   4     0   0   0     0   0   0     0   0   0     0   0   0     0   0   4     0   0   4     0   0   0     0   0   1     0   0   0     0   0   0     0   0  16     2   0   0     0   0   0     2   0   4     0   0   4     0   1  16     1   1   2     0   1   0     0   8   0     0   8   0     0   0   0     2   0   0    32  35   0     0   2   0     0   0   0     0   4   0     0   4   0     0   4  64     0   1  64     0   1   4     2   3  18     2   2   8     0   0   0     0   0   0     1   0   1     1   1   1     1   1   1    32  32  32    32  32  32    40  40  40    40  40  32
  8   0   0     0   0   0     0   0   0     0   0   0     0   0   0     6   0   0     0   1   1     0   0   0     0   0   0     1   0   0     1   0   0     0   0   0     0   0   0     0   0   0     0   0   0    20   1   1     8   0   0    27   0   2    28   0   0    34   0   0     0   0   0     0   0   0     0   0   0     0   4   0    32   0   0     0   0   0     0   4   0     0   0   4     0   0   0     0   0   0     0   2   0     0   2   4     0   0   4     0   0   0     0   1   3     0   0   0     0   0   0     4   4   0     0   0   0     0   0   0     0   2   0     0   0   4     0   0   0     0   0   0     0   0   0     0   0   0     0   6   0     1   0   0     0   0   0     0   2   0     2   2   2     0   0   0     0   0   0     1   1   1     1   1   1     2   2   2     0   0   0     2   2   2     0   0   0     0   0   0     0   0   0     0   0   0     0   0   0     0   0   0     2   0   0    16  16   0    18   0   2     4   0   0     0   0   0    17   0   0    17  16   1     1   0   0    10   0   0     0   0   0     0   0   4   128 128 134     0  16   1     0   0  64     0  72  65    32   1  32     0   9  32     0  11  16     0   2  16     0   0   4     0 128   0     8   0   0     8   0 128     2   0 128    10   0   0     8   0   0     1   0   0     0 134  64     0   0  64     1   0  64     1   2  32     0   2  32     0   3   2     0  16   8    16   0  32     0 112  36     8  48   4     8   0   0    24  32   0    18  32   0     0  34  40     2   2  32     0   0   0     0   9   0     0   1   0     1   8   0     0   8  32     0   0  32     1   0   0     0   0   0     0   0   4     0  32   0     0   0   0     0  96  32     0   0  32    16  96   0    16   2   0   144   0  32     0   0   0     0   4   0     2   0   0   128   0  96     0   0  96     0   0  64     0  16   0     0  16  64     1  24  17     1  24  65    49   0   1   113  32   1    33  32   1     0  32  32     0   0   0     0  16   0     0   1   0     0  17   0     0   0   0     0   0   0     0   8   0     0   8   4     0  16   0     0   0   0     0   0   0     0   0   8     0   0   8     0  64  10     0   2   2    20   0   2    16   2  32     0  32   0     0  32   8     0   1   0     0  17   0    20   1   2    16  16   0     0   0   0     0   0   0     0   0   0     0   4   0     0   0   0     0   0   0     0   0   0     0   0   0     0   0   0     0   0   0     4   0   0     0   0   0     0   0   8     0   0   0     0   0   8     3   1   0     1   1   0     0   0   0    36  40  32     0   4   8     4   0   0     8  16   0     0   3   0     2   0   0     2   0   0     2   0   0     0   4   0     0  64  66    16   0   0    16   2  16     0  51   0    34  34   0     0   0   1     0   2   5     0   0   1     0   0   0     0   0   0     0   0   0    32  32  32    40  40  40     0   8   8
  0   8   4     0   0   0     0   4   0     2   0   0     4   4   0     4   0   0     0   0   2     0   0   2     1   4   0     5   4   0     0   0   0     4   1   1     0  32   2     0   1   1     0   0   0     4   1   1    24   1   1     2   0   0     4   0   0     0   0   0     0   0   0     0   2   0     0   4   0     0   4   0     0   1   1     0   4   0     1   0   0     2   0   0     0   0   0     0   0   0     0   2   0     0   2   0     0   0   4     0   0   2     0   0   0     0   0   2     0   0   0     0   0   0     0   0   2     0   0   8     0   0   0     0   0   0     0   0   0     0   0   0     0   0   0     1   2   0     0   0   0     1   0   0     4   4   0     1   2   0     0   0   0     0   0   0     0   0   0     0   0   0     0   0   0     0   0   0     0   0   0     0   0   0     0   0   0     0   0   0     0   0   0     0   0   0     0   0   0     0   0   0     2   1   0    16   1   0    16   1   0    80  64  64     0   0   0     1   2  65     0   2   1     0   0   1     0  16  16     2   0   0     2   0   0   132 128   3     0   8   1     2   8   2    64  65   0    64   0   0    68   9   0     0   0   4     0   0   0     0   0   0     0   0   0    16   0   0     0   0   0     0   0   0     2   0   0     0   0   0     9   1   0     9   5   0     1   4   0     0   0  32     0   0  32     1  98   0     0   2  36    16  98  46     0  16  32    28   0   4     8  32   4     8   0   0     0   0   0    16  32   3    16   0   2    16  34  32     0   0  32     0  32   0     1   0   0     1   8  32     0   0   0   129   8  96     1   0  20     0   0   0     2   0   4     0   0   0   128  96   0     0   0   0    16   0  32     0   0   0    16   0  32   144   0  36     0   0   0     0   0   0     0   0   0     0   1   0     0   0   0     0   0   2     0   0   2     0  16   2     0   8   0    16   0   0    49   8  65    80  64  64     1  64   1    16   0   0     0   4   0    32   4   4     2  17   8     2   3   8     0   0   0     0   2   0     1   2   0     0   0   0     0  16   4     0   1   1     0   0   0     0   0   8     0   0   0     0   0   0     0  32   0    64  34   0     0  32   0     0   0   0     0   0   0     0  17   0     0  18   0    16  16   6     0   1   0     0   1   4     0   1   0     0   1   0     0   4   0     0   0   0     0   0   0     0   0   1     0   0   0     0   0   0     0   0   0     0   0   0     0   0   4     0   0   8     0   0   4     0   0   8     1   0   0     3   0   0     0   0   0     4   0   0     4   0   4     0  32  36     0   2  12     0  32  37     0   2   1     2   8   0     2   0   0     0   0   0     2   0   2     0   0   0     0   0   0    16   2   0     0   1  20     0   0  18     0   0   0     0   0   0     0   0   0     0   0   0    32  32  32     4   4   4    32  32  32     0   0   4
  0  10   0     0   0   0     0   2   0     0   6   0     2   0   0     0   0   0     0   8   2     0   0   0     1   0   0     0   0   0     1   0   0     0   1   1     0   1   1     0   1   3     0   1   3     0   0   2     6   0   0     2   0   2     4   1   3     0   1   1     0   0   0     0   3   1     0   0   0     0   0   0     0   0   0     0   0   0     1   0   0     1   0   0     1   0   0     0   0   4     2   0   4     0   0   0     0   0   2     0   0   2     0   0   0     0   0   2    33   0   2     0   0   0     0   0  10     0   0   8     0   0   0     0   0   0     0   0   4     0   0   0     0   0   0     1   0   0     0   0   0     0   2   0     4   5   1     5   5   5     0   0   0     0   0   0     0   0   0     0   0   0     0   0   0     0   0   0     0   0   0     0   0   0     0   0   0     4   4   4     0   0   0     0   0   0     0   0   0     0   0   0     0   1   0    16   1   2     4   1   0     1   0   2     1   0   1     0   0   1     0   6   0     0   0   0     2   0  16     0   0  16     6   0   1   128   8   1     0   8  67     0   0   3     0  64  64    64   0   0     4   9   8     0  10   0     0  10   0     0   0   4    16   0   4    24   0 128     0   0   0     0   0 128     0   0   0     8   2 128     9   7   0     8   2   0     4   4   0     0  16   8     0   0  40     1   2   0     0   0  12     0   0  36     0   8   4     4   0   0     0   0   0     0   0   0     0  48   0     0   0   0     0   0   0     0  16   2     0   0  32   128  18   0     1   0   0   129   0  48     1   0   0   128   8  82     0   0  64     0   0   6     0   0   0     0   0   2     0  96   0    16  96  32    16   2  32    16   0  96     0   0   0    16   8   0     0   8   0     0   0   0     0   2   0     0   0   0     0   1   0     0 128   2     0 128   2     0   8   4     0 136   0     0  10   0     0   0   0     8   0   0     0   0   0    64  64   0     0   0   0     0   5   0     0   1   8    16   0   0    16   2   0     0   2   0     0   2   0    32   0   4     0   0   0     0   0   0     0   0   0     0   0   0     0   0  42     0   0   2    68  48   2    68  48   0    64  32   0     0  32   8     0   0   0     0   9   0     0  11   0     0   1   0     0   1   4     0   0   0     0   1   0     0   1   0     0   1   0     0   0   0     0   0   0     1   0   1     0   0   1     1   0   0     0   0   0     0   0   0     0   4   0     0   4   0     0   0   0     0   0   0     0   0   0     0   0   0     0   0   0     0   0   0     0   0   4     8   0   9     0   0  12     0   0   5     0   0  12     0   8  24     0   0   0     0   2   2     8   2   2     0   0   0    12   4   0     0   1  16    16  17  16    16   0   0     0   0  24     0   0   0     0   0   0     0   0   0     0   0   0     0   0   0     0   2   0     0   2   0
  6   2   0     4   0   0     6   2   0     2   6   0     4   6   0     0   0   0     0   0   2     0   0   0     1   0   0     0   0   0     0   0   0     0   1   1     0   1   5     0   1   5     4   0   0     4   0   2     4   0   2     0   0  30     4   0  30     0  29   5    24   1   1     0   0   0     0   6   0    24  26   0     0   0  32     0   0   0     0   0   0     0   0   0     0   0   0     0   0   0     0   0   0     0   0   0     0   0   0     0   0   2     0   0   0     0   0   2     0   0   2     0   0   0     0   0   0     2   0   0     2   0   8     2   0   0     0   0   4     0   0   0     1   0   0     0   2   0     0   0   0     0   2   0     4   4   4     0   0   0     1   1   1     0   0   0     0   0   0     0   0   0     0   0   0     0   0   0     0   0   0     0   0   0     2   2   2     0   0   0     0   0   0     0   0   0     0   0   0     0   1   0     0   1   0     0   0   0     4   1   2     0   0   2     1   0   1     0   0   1     0   4   1     0   4   0    18   0   0     8   0   0    12   8   1   132 128   2     0   8   3     0   0   4     2   4  68    83   4  64     0   9   0     0   8   0     0   2  24     0   0  12     0   0   0    24   0   0    24   0   0     0   0  16     8   0  16     8  20   0     8   4   0    24   7   0     4   0   0     0   1   8     0   0   8     1   0   8     0   8  16     1   2   8     0   0   4     1   0   0    96   0   0     0  16   8     0  16   0     0  64  32     0   0   0     0   0   0     0   0   0     0  34   2   129   0   0   129  32   2   128   0  82     0   0  48     0   0  64     0 128   4     0   0 128     0   0   0     0  32   0     0  98  32    16   2  32   128 130  64     0  10   0     0 136   0     8   8 128   128   0   0     0   0   0     0   0   0     0   0  48     0   0   0     0   0   2     0   8  12    16  10   0    16   8   0     0   0   0    64  64   0     0   0  80    66   4   0     0   4   0     2   4   4    16  21   0     2   0   0     0   0   0     0  32   0     0   0   0     0  32  32     0   0  32     0   0   0     0   0  16    64   0  16     0   0  26     2   8   2    70  16   0     4   0   0     4  48  32     0   0   0     0   0   0     0   8   0     0   8   0     0   0   0     0   0   0     0   0   2     0   1   0     0   1   0     0   1   0     0   0   0     0   0   0     0   0   0     0   1   1     1   0   0     1   0   0     0   0   0     0   0   0     0   0   0     0   0   0     0   8   0     0   0   0     0   0   0     0   0   0     0   0   0     0   0   0     0   0   0     0   2   0     0   2  21     0   0   0     0   0   1     0  16   0     0  56  38     8   8   2    34  41  32     4   0   0    32   9   0     0   4   0     0  17  16     0   1   0     0   0  32     0   0   0     0   0   0     0   0   0     0   0   0     2   2   0     6   2   0
  4   2   0     6   0   0     6  10   0     2   2   0     4   0   0     0   8   0     0   8   0     0   0   0     1   0   0     1   0   8     0   0   8    32   0   0     0   0   4     0   0   0     4   0   0     4   0   0     4   0   0     0   0  30     0   0  30     0   0   4     0   0   0     0   0   0     0   0   0     0   0   0     0   0   0     4   0   0     0   8   0     0   0   0     0   0   8     0   0   0     0   0   8     0   0   0     0   0   0     0   0   0     0   0   0     0   0   2     0   0   0     0   0   0     0   0   0     2   0   0     0   0   0     0   0   4     0   0   4     1   0   4     1   0   0     0   0   0     1   0   0     0   0   0     0   0   1     0   0   0     1   1   1     0   0   0     1   1   1     1   1   1     0   0   0     5   5   5     5   5   5     5   5   5     2   2   2     4   4   4     4   4   4     0   4   0     0   0   0     1   1   0     8   0   0     0   0   0     8   0   2     1   0   1     1   0   0     0   0   1     0   0   1     0   4   0     2   0   0     1   0   0     0   0   0   128 128   1     0   0   0     0   0   0     1   0   4     0   0   4     0   9   0     0   8   0     0  10  16     0   0   4     0  16   0     0   0   0     8   0   0     0   0   0     0  16 144     0 132 146     8  16   0     4   0   8     4   0   8     4   1   8   128   0   8   144   0  32     0   0   8     0   0   0     0   0   0     5   0   0    96   0   0    64  17   0     0   1   0     2  80   0     0   0  36     0   0   0     0   0   0    12   0   0     8  32   0     0  32   0     0   0  32     0   0  48     0   0   0     0   0   0     0   0   0     0   4   0     0   0   0    16   4  96   145   2   0   144 129 128     0 128 128     0  16   0     0   8 128   128   0   8     1   0   0    17   0   0     0   0   0     0   0  32     0   0   2     0   2   0    16 136   2     0   2   0     0   0  16     6   0   0     2   0   8     6   4   8     2   0   8     0   4  64     0   1   0    16   0   0    16   0   8    72  32   0     0   0   0     0   0  32     0   0   0    72   0  32     0   0  16    72   0   0     0   2   0     1   2   0     4   2   0     0  16   0     0   0   0     0   0  64     0   0   0     0   0   0     0   0   0     0   0   0     0   0   0     1   0   0     0   0   0     0   4   2     0   1   0     0   0   0     0   0   0     0   0   0     0   0   0     0   0   0     1   0   0     0   0   0     0   0   0     1   0   0     0   0   0     0   0   0     0   0   0     4   0   0     0   0   0     0   0   0     8   0   8     0   0   0     0   0   0     0   0  16     0   0  16     0   0  22     0  16   2     0   1   2    48  40   0    10   8  32    24  32   0     0  48   0     0   0   0     0   5   8    20  21   0     0   0   0     1   1   1     0   0   0     0   0   0     0   0   0     0   0   0     0   0   0
  0   0   0     0   0   0     6   0   0     0   0   0     0  10   0     4   8   0     0   8   0     4   0   0     1   0   0     5   0   0     0   0   0     0   0   0     0   0  32     0   0  32     0   0   0     0   0   0     0   0   0     0   0   2     0   0   2     0   0   2     0   0   2     0   0   2     0   0   0     0   0   0     0   2   0     0   0   0     0   0   0     0   0   0     0   0   2     0   0   2     0   0   0     0   0   0     0   0   0     0   0   2     0   0   0     0   0   0     0   0   0     0   0   2     2   4   0     2   4   0     0   4   0     0   0   2     0   0   0     0   0   0     0   0   0     0   0   0     0   2   0     0   2   0     0   2   0     0   0   0     0   0   0     0   0   0     0   0   0     1   1   1     1   1   1     1   1   1     3   3   1    33  33   3     0   0   0     2   2   0     0   0   0     0   0   0     0   0   4     0   8   0     1   9   0     0  10   0     0   0   0     8   0   0     0   0   1     0   4   0     0   0   0     0   0   0    18   6   0    21  16   0    16   0   0     0   8   0     0   0   0     2   0   0    18   0   0     0   4   0     4   0   0     0   3   0     0  18  16     8   0   0     0   0   4     4   0   0     4   0   0     0   0   0     4  16   0     4   0 144     4  20   0     4   0  16   128   1   0     4   0   0   144   1   4     0   0   0    16   0   0    20   0   0     8  64   0    72  64   0    96   0   2     0  65   0     0  80   4     0  64   4     2  64   4     0   0   0     2   2  66     0  34   2     0  32  10     0   0   1     0   0  17     0   0  17     0   0  17     0   6   1     0   0   1     0   0   0     0   0   0    21  32  96    16   4  96   128   0   4     0  10   0     0  16   0     0  24 128     0 128 128     1   8   8     0   0   0     0   0   0     0   0   0     0  16   8     0 130   8     0 138  16     0   0   0     0   0   0     0   0   0     2   0   0     2   0   4     2   0   4     0   0   4    16  37   0     0  32   4    24  32   0     0  32   0     8   0   0     0  32   0     8   0   0     8  32   0    72  64   0     8  64   0    72   0  16    64   3   0     0   2   0     0  64   0     0  64   0     0   0   0     0   0   0     0   0   0     0   0   0     0   0  16     0   0   0     0   0   0     0   0   0     0   0   0     0   0   0     0   0   0     8   0   0     0   0   0     0   0   0     0   0   0     0   0   0     1   1   0     0   0   0     1   0   0     0   0   0     0   0   0     0   4   0    64   0   0     0   0   0     0   0   0     0   0   0     0   0   0     0   0   0     0   0  16     0   0   0     0   0   0     4   0   6     0   8   4    28   0   4     8   8  16     1  32  16     0   8   0     1  32   0     0   4   0    36  37  32    32  33   0     0   0   0     0   0   0     0   0   0     0   0   0     0   0   8     0   0   8
  0   0   0     0   0   0     0   0   0     0   0   0     0   0   0     0   0   0     0   0   0     0   0   0     0   0   0     5   0   0     0   0   0     0   0   0     0   0  32     0  24   0     0   0  33     4   0  32     4   0   0     0   0   0     0   0   2     0   0   0     0   0   2     0   0   0     0   0   0     0   0   0     0   0   0     0   0   0     0   0   8     0   0   8     0   0   0     0   0   0     0   0   0     0   0   0     0   2   0     0   2   1     1   0   1     0   0   3     0   0   3     0   0   0     1   4   8     1   4   8     2   4   8     0   0   0     0   8   0     0   0   1     0   0   1     0   0   4     0   0   0     0   2   4     0   2   0     0   0   0     0   0   2     0   0   0     0   0   0     5   5   1     1   1   1     1   1   1     1   1   1    32  32   0    32  32   0     0   0   0     0   0   8     0   0   0     1   9   4     1   8   0     1   8   0     1   0   4     0   8   0     0   0  10     1   4   2     8   4   0     0   4   0     0   0   0     0   4  68    65  80  64    68  80   0     0   8   0    64   0   0     0   0   0     0   0  12    70  64   0     4   2   0     0   2  16     0  16  16     0   0   0     0   0   0     0   0   0     1   0   0     0   0   0     0   0   0     4 128   0     0 128   0     0   0   0     0   1   4   132  33   4     0  97   0    16   1   2     0   0   0    24   0   2     8  72   0     0  64   2     0   0   0     0  65   4     0  24  12     2  72   4     0  16   6     2   0   4     2   2   2    40  10   2    40   8   0     8   0   0     8   0  49     8   0  49     8   0  17     8   0   1     0   0   0     3   4   0     7   0   0     4   0   0    17   0   0     0   0 132    16   0   0     0  16   0     0   8 128     1   0 128     0   0   0     0   0   0     0   0   0     0   0  32     0 128   0     0 130  16     0   2  16     0   0  16     2   0  16     4   0   0     4   0   8     0   0   0     0   0   4     0   4  20     0   6   4     0   4  16     0   0   0     8   0   0     0   0   0     0   0   0     8   0   0    72   4   0     8  66   0    64  68   0    80  34   0     1   0   0     0   0   0     0   0  32     0   0  16     0   0  48     0   0   0     0   0   0     0   0  16     0   4   0     0   0   0     2   4   0     0   2   2     0   0   2     0   0   0     0   2   4     0   2   0     0   2   0     2   0   0     0   0   0     0   0   0     1   1   0     0   0   0     1   0   0     1   0   0     1   0   0     1   0   0     0   0   0     0   0   0     0   0   0     0   0   0     8   0   0     0   0   0     0   0   0     0   0   0     0   0   0     0   0   4    16   0   4    16   0   0    16   0   0    16   0  16     0   0   0    17   0   4     0  36  32     5   4  48    17  17  16    16  16  16     1   1   1     9   9   9     0   0   0     0   4   0     0   4   8
  0   0   0     0   0   0     0   0   0     0   0   1     0   0   0     0   0   0     0   0   0     0   0   0     0   4   0     0   4   0     0   0   0     0   0   0     0   0   0     0   0  32     0  12  32     4   0   0     0   0   2     0   0   0     2   0   2     0   0   2     2   0   0     0   0   0     0   1   1     0   0   4     0   1   1     0   0   0     0   0   0     0   0   0     0   0   8     0   0   0     0   0   0     0   0   0     0   2   1     0   2   2     0   2   0     1   0   0     1   0   2     0   4   1     0   4   0     0   0   0     4   0   0     0   4   8     4   0   0     0   0   0     0   0   1     0   0   5     0   0   1     0   2   4     0   2   0     0   0   0     0   0   2     0   0   0     0   0   0     0   0   8     0   0   8     0   0  24     2   2   8     0   0   0     0   0   0     0   0   0     0   0   0     0   0   0     0   8   0     0   0   0     0   8  12     0  10  12     0  12   8     1   4   8     1   0   2     0   4   0     0   0   0     0   2  64    81  68  64    82  80   0    80  80  64    72  16   0    64   0   0     0  80   8     0  64   0     1  65  10     0   0   6     0   0  16     0   0   0     8  16   0     0  20   0     0   0   0     0   0   0     0   8   1     0 128   0     0   0   0    16  16   0     0  17   0     0 145   0     4   1  24     0   0  16    16   0   2    16   0  18    28   0   2     8   0   0     8   0   0     0   0   4     0   8   0     0   8   4     0   8   0    18   0   2     0   8   3     0   2   6    32   2  22    16  10   0     0   0  17     0   0   0     8   0  17     8   0   0     0   4   0     8   2   4     0   0   0     5   0   4     1   0 128   132   0   0    16  16   0     0   0 128     0  16 132     0   8 128     0   0   0     8   0  24     8   0  24     0 128   1     0 128   0     0 128   8     0 128  64     1   8  16     0   0  16    38   0   0     2   0   0     4   0   0     0   0   1     1  16   1     0   0   4    33  17  20    32   1   0    16  19   0    16   3   4     0   2  64     0  64  64     8   0   0     8   8   0     8 100   0     6   4   0    34   2   1     0   0   0     0   0   0     0   0   0     0   0  16     0   0   0     0   0   0     8   4   0     0   0   0     0   4   0     4   0   0     0   0   0     0   0   0     0   0   0     0   0   0     0   0   0     0   2   0     0   2   4     2   2   0     0   0   2     0   0   0     0   0   0     0   0   0     4   0   0     5   6   0     1   0   0     1   0   0     0   0   0     0   0   0     0   0   0     0   0   0     0   0   0     0   0   0     0   0   0     0   0   0     0   0   0     4   0   0     0   0   6     0   0   2     0   0   6     0   0   0     0   0   0     0   0   4     0   8   0     1   0  16    16  16   0    25  25  25     1   1   1     0   0   0     0   0   0     0   0   0     0   0   0
  0   0   0     1   0   0     1   0   0     0   0   0     0   0   1     0   0   0     0   0   1     0   0   0     0   0   0     0   4   0     0   4   0     0   4   0     0   0  32     0   1  32     0   0   0     2   0   0     2   0   0    32   0   2     0   0   0    32   0   0     0   1   1     0   1   1     0   0   0     0   0   4     0   1   5     0   0   6     0   0   0     0   0   0     0   2   8     0   0   0     0   0   9     0   0   0     0   0   1     5   2   1     0   0   1     0   0   0     0   2   3     1   6   0     5   4   2     4   0   0     0   0   0     0   0   0     4   0   0     0   0   9     8   0   0     0   0   0    10   0   0     0   0   4     0   0   0     0   0   4     0   0   0     0   0   0     0   0   0     2   2   0     2   2   0    16  16  16    16  16   8     0   0   8     0   0   0     0   0   0     0   0   8     8   8   0     0   8   0     0   8   0     0   0   4     0   0   0     0   8   8     0   4   8     0   0   8     0   0  10     0   6   2     8   4   4     0   0   0    16   0   0    16   0   0     0   0   0     0  80   4     0  80   0     0  81  12     0   1   2    64   0   2     1   0   1     0   0   5     1  16   0     0  16   0     0   0   0     0   0   0     0   8   0     0 128 128     0   0   0    16   1   0     0   1   0     0   1   0     4   1   8     4  16   0     4   0   2     0 128  16     8   0  18     0   0   0     0   0   0     0   0   0     0   0  24     0   0   2     0   8   1    18   0   1     0   0   3    24   0   2     8   0   0     2   0   0     2   8  16     0   0  16     0   8  52     0   0   0     1   1   4     8   0   0     0   0   0    11   2   4    29   0   4    20  16   0    16   0   0    16   0 128    16   0 132     0   8 128     0   0   8     8   0  56     0 128  44     8 128  20   128 128  16     0   0   2    32   2  18     0   0   0     2   8  16     7   8   0     2   0   0     6   0   0     4  16   0     0  24   1     0   0  16     0   0  16     0  16   0     0   0   0     0   0   0     0  64  64     0  66  64     8   0  64     0   0   0     0  32   0     0   0   0     2   0   0     0  32   0     0   0   8     0   0   0     0   0   0     0   2   0     0   0   0     0   0   0     0   0   0     0   5   0     4   0   0     0   0   0     0   1   1     0   0   0     0   0   0     0   0   0     4   4   4     0   2   4     2   0   2     0   0   0     0   0   0     0   0   0     4   4   0     0   0   0     4   4   0     1   0   0     0   0   2     4   0   0     4   0   0     4   0   0     0   0   0     0   0   2     0   0   0     0   0   0     1   0   0     0   0   0     1   0   1     4   0   4     4   2   2     0   0   6     0   2   2     0   0   0     0   0  16     0   0   0    16  16  24    64  64  72     8   8   8     9   9   9     1   1   1     1   1   1     0   0   0     0   0   0
 32   0   0     0   0   0     0   0   0     0   0   0     0   0   0     0   0   1     0   0   1     0   0   0     0   0   0     0   0   0     0   4   0     1   5   0     1   1   0     0   0   0     2   0   0     2   4   0    34   0   0    32   0   2     0   0   0    32  32   0    32  40   0    32   0   0     0  32   0     0   0   4     0   0   0     0   0   4     0   4   0     0   2   0     0   0   0     0   0   0     0   0   0     0   0   8     0   0   0     0   0   0     0   0   1     0   0   0     0   2   0     0   0   0     0   0   1     0   0   0     0   4   0     0   0   0     0   0   2     0   0   0     0   4   0     0   4   4     6   0   0    12   0   4     0   0   0     0   0   0     0   0   0     0   0   0     2   2   0     0   0   0     2   2   0     0   0  16     2   2  16     0   0   0     0   0   0     0   0   0     0   0   0     0   0   0     0   0   8     8   0   0     0  18   0     0   0  16     0   4   8     0   5   8     0   5  64     0   1   0     0   0   0     0   4   4     0   0   0    10   0   0     8   0   4     0   0   0    16   0  64     0  16   4     0  17   8     0  40   4     0  32   3     1   0   1     1   0   9     0   0   1     0  20   0     2   0   0     0   0   0     0   8   1     0   0   1     0   0   0     0   1   0     0  21   0    16   0  16     0   0  16     4   0   0     0   0   0     0   0   0     8   0   0     8   0   0     0   0  16     0   0   8     0   0  16     0   0  16     0   4   2     0   0   3     0   0   2    56   0   0     0   0  12     2   0   0     3   4   0     3  12  16     1   0   0     0   8  16     0   1  16     2   0   0    19  17   0     0   2   4    16   3   4     4   0   4    24  17   8    16   0   8    16   0   8     0   0   0     0   0   8     0   0   0     8   0  12     0   0   0     0   0  22     0   0   2     0   0   2    32   0   1    48   0   0     0   8   4     2   0   0     3   8   0     6   0   0     4  16   0     1   0  16     0   2   0     0  18  16     0  18   0    80   0   0     0  64   0     0  66   0     0   0   0     0   0   0     0   0   0    10   0   0     0   0   1     0   0   1     0   0   0     0   0   0     0   1   8     0   0   0    17   4   1     0   0   1     0   5   1     0   1   4     4   1   4     0   1   4     0   1   1     0   0   0     0   0   0     0   0   0     2   2   0     4   4   4     2   2   2     0   0   0     0   0   0     0   0   0     0   0   0     0   0   0     4   4   4     0   0   0     4   4   4     0   0   0     0   0   0     0   0   0     0   0   0     2   2   2     0   0   0     0   0   0     0   0   0     0   0   0     1   1   5     4   0   5     0   2   5     0   0   0     0   0   2     0   0   0    16  16  24    24  24  16    24  24  24     0   0   0     0   0   0     8   8   8     8   8   8     0   0   0     0   0   0     0   0   0
  4   0   2     0   0   0     4   0   0     0   0   0     0   0   0     0   0   1     0   0   0     0   0   0     0   0   0     0   4   0     0   4   0     1   1   0     0   0   0     0   0   0     0   0   0    34   4   0    34   0   0     0   0   0     0   0   0    32   0   0    33  40   0    32   0  32     0  32   0     0   0   2     0   0   0     0   0   0     0   0   0     0   2   0     0   0   0     0   0   0     1   0   0     4   0   0     1   0   0     0   0   0     0   2   0     0   2   0     0   0   0     0   0   0     0   0   4     0   0   0     0   0   0     0   0   0     0   0   0     0   0   0     0   4   0     0   8   4     0   4   0     0  24   0     0   0   0     0   8   0     0   0   0     0   0   0     2   2   0     2   2   0    16  16   0     0   0   0     0   0   0    16  16   0     0   0   0     1   1   1     0   0  12     0   0   0     0   0  12     8   0   0     1   0   0    12  21  16     0  20   0     0   0   0     0   4   0     0   4   0     0   0   2     0   0   0     2   0   4    10   0   4     0   0   4     0   0  32     0 128  32     0  16   4     6   0   5     4  56   7     2  40  43     1   0   5     1  16   1     0  16   1     0   0   0     2   0   0     0   2   0     0   0   0     0   1  16     0   1   0     0  17   0     0   4   0    24   0  16    16   0   0     0  16   0     0   0   0     0   0   0     0   0   4     0   2  16     0   0  64     0   0  16     4   2   0    36   0   0    32   0  16    32   0   0     0  16   0    48   0   0     0   4   4     0   4   0     3   4  16     1   1  16     6   5  16     6   0   4     0  11   0     0   2   0     0   2   0     0   2   0     8   1   4    20   0   0    12   0   8    16   0   8    16   0   9     0   0   8     0   0   8     0   0   0     0   0   0     0   1  16     0   2  16     0   3  18    32   2   0     0   0   2     4   0   0     7   8  20     7   0   0     0   0   0     4   0   0     4   0   0     8  16   0     8  16   0     0  80   0     0   2  32     0   2   0     0   0   0     0   2   0     0   0   8     0   0   0     0   0   0     8   0   0     0   0   0     0   4   8     0   0   0     0   0  16     0   1   0    16   4   0    17   6   1     8   6   1     0   0   0     0   1   4     0   0   0     0   1   4     1   1   0     0   1   0     0   0   0     0   0   0     0   0   0     4   4   4     1   1   1     1   1   1     0   0   0     0   0   0     0   0   0     0   0   0     4   4   4     0   0   0     1   1   1     0   0   0     0   0   0     0   0   0     0   0   0     0   0   0     0   0   0     1   1   1     5   5   5     0   0   0     5   5   5     4   4   4     0   0   0     0   0   0     0   0   0     0   0   0     2   2   2    16  16  16    16  16  16    24  24  24    24  24  24     8   8   8     0   0   0     0   0   0     0   0   0     0   0   1
  0   0   2     4   0   1     4   0   0     4   0   0     0   0   0     0   0   0     4   0   0     0   0   0     0   0   0     0   0   0     0   4   0     1   5   0     0   0   0     0   0   4     0   0   0    32   4   0    32   0   0     0   0   2     2   0   0     1   8   2     1   0   0     1   0   0     0   0   0     0   4   0     0   4   4     4   0   0     4   0   0     0   0   0     0   0   0     0   0   0     1   0   0     0   0   8     1   0   8     0   0   0     0   0   0     0   0   0     2   0   0     2   0   0     0   0   4     0   0   0     1   0   0     0   0   0     0   0   2    32  32  34     0   0   0     2   4   0     0   0   0    16  16  16    16  16  16     0   0   0     8   8   0     0   0   0     0   0   0     2   2   0     2   2   0     0   0   0     0   0   0     0   0   0    16  16   0     1   1   1     0   0   4     1   1  12     0   2   0     0   3   8     8  23  16     8   0  16     0   8   2     4   5   0     0   5  64     0   1   0    16   4   0     2   0   0     1   0   0     8   0   0    10   0   0     0   0   0     0 130 100     0 130  20     4   0   0     4  32   0     0  24   2     0   0   0     0   0   0     0   0   0     0  16   0     0   0  16     0   2   0     0   0   0     0   1   0     0   0   0     0   1  16     4   0   0    24  16  16    24   0   0     0   2   0     0   2  16     0   0   0     0   0   4     0   0  16     0   0  16     0   0  16     0   0   0     0   2   0    32   2   2    32   0   1     0  48  34     0  16  32     0   4  36     0   0   0     2   0   0     0   5  16     2   1   0     2   0   0     4   8   0     0   2   0     0  34  16     0   2   0     0   0   0     4   0   0    28   2   0    24   0   0    24   0   8     0   0   8     0   0   8     0   0   0     0   0   0     0   0   0     0   1  16     4  17  16     8   0   2    12  16   1     9   0   4     0   0  21     0   8   0     0   8   4     0   0   0     0   0   0     4   0   0     0   0   0     4   2   0     0   6   0     0   6   0     0   0   0     0   0   0     8   0   0     8   0   0     0   0   0     0   0   0     0   0   0     0   0   0     0   0   0     0   0   0     0   0   0     0  16  16     0  16   0     4   0   0     0   0   2     0   0   0     0   0  12     0   0   0     1   0   0     0   0   0     0   0   0     0   0   0     0   0   0     4   4   4     1   1   1     0   0   0     0   0   0     0   0   0     0   0   0     0   0   0     0   0   0     4   4   4     0   0   0     0   0   0     0   0   0     0   0   0     0   0   0     0   0   0     0   0   0     1   1   1     5   5   5     5   5   5     1   1   1     4   4   4     4   4   4     0   0   0     0   0   0     0   0   0     0   0   0     8   8   8     0   0   0     0   0   0     0   0   0     8   8   8     8   8   8     8   8   8     0   0   0     0   0   0
  4   0   1     4   0   1     4   0   0     0   0   0     0   0   0     0   0   0     0   0   0     4   0   0     0   0   1     0   0   0     0   0   0    28   0   4    28   0   4    30   2   1    32   0   4    32   0   0    32   0   0     0   0   2     2   8   2     3   0   2     3   0   2     1   8   8     0   0   0     0   4   0     0   4   0     4   0   0     4   0   0     4   0   8     0   0   0     0   0   0     1   0   0     0   0   0     0   0   0     0   0   0     0   0   0     2   0   0     0   0   0     0   0   0     0   0   0     0   0   2     0   0   0     0   0   2     0   0   0     0   0   0     0   8   0     0  12   0     0   8   0     0   0   0     0   0   0     8   8   0    10  10   0     0   0   4     2   2   4    18  18  16    18  18   0     0   0   8    16  16   8     0   0   4     1   1   5    16  16   0     0   0   0     0   0   8     0   0  12     0   1   0     0   5   0     4  16   0     4   1   0     8   5   0     0   1   0     4   0   2   128   1   2   128   0   0    34   0   0     7  16   0     6   0   0     0   0   1     0 130   0     0 130   4     4   0   0     0   0   4     0   0   8     0   0   8     0  16   0     0   0   0     0   0   0     0   0   0     4   0   0     4   0   0     4   0   0     4   0   0     0   0   0     8   0   0     8   0   0     0   0   0     0   0  16     0   0  16     0   0  16     0   0   4     0   0  20     0   0  20     0   0   0     0   0   0     0   0   0     0   0  48     0  40  50     0   0  32     0  16  32     0   0   4     0   0   0    16   1   8     0   1  10     0   1 128     0   8   0     0   2   0     0   0   0     0   0   0     0   0   0    16   0   0     4   0   0    24   2   0    24   0   8     0   0   0     0   0   0     1  18   0     1   0   0     0  16  64     1   0   0     0   1   0     5  17   0     5   0   0     0  16   2     8   0  16     0   0   4     0   0   4     0   8   4     0   1   4     0   0   4     0   0   0     0   0   0     0   8   0     0   0   0     0  12   0     0   8   0     0   0   0     0   0   0     0   0   0     0   0   0     0   0   1     0   0   0     0   0   1     0   0   1     0   0  17     0   0   0    16   0   0     1   0   0     0   0   0     0   0   2     0   0   8     0   0   8     0   0   1    65  64   1     1   0   3     0   0   0     0   0   0     0   0   0     1   1   1     0   0   0     0   0   0     0   0   0     4   4   4     4   4   4     0   0   0     4   4   4     4   4   4     0   0   0     0   0   0     0   0   0     0   0   0     0   0   0     0   0   0     0   0   0     1   1   1     5   5   5     0   0   0     0   0   0     4   4   4     0   0   0     4   4   4     0   0   0     0   0   0     0   0   0     8   8   8     2   2   2     0   0   0     1   1   1     9   9   9     8   8   8     0   0   0     0   0   1     2   2   0
  0   0   1     4   8   9     4   0   0     0   0   1     0   0   9     0   4   8     0   0   0     0   0   8     4   0   1     0   0   0     0   0   0     0   0   0    28   0   0    30   2   5     0   0   1    32   4   1    32   0   0    34   0   2     2   0   2     0   8   0    10   8   0     1  10   0     0   0   0     0   0   4     0   0   4     0   0   0     0   8   0     4   8   8     0   0   0     0   0   8     0   0   0     0   0   0     0   0   0     0   0   0     0   0   0     2   0   0     4   0   0     4   0   0     6   0   0     0   0   0     1   0   0     1   0   0     0   0   2     0   2   0     0   2   0     0   0   0     0   0   0     0   0   0     0   0   8     0   0   8     4   4   4     0   0   0     0   0   0    18  18  16     2   2   8     2   2   8     0   0   8     1   1   9     1   1   1     0   0   0     0   0   2     1   1   0     1   0   4     1   0   0     4  16   0     0  20   0     4   0   0     4   0   0     0   1   0     4   0   0     0   0   0     1   0   0     0  16   8     4  16   0    32  16   0     0   8   1     0 128   0     0 128   4     0   0   0     0   0   4     0   0   0    10   0   0     0   0   0     0   0   0     0  16   0     0  16   0     0   2   0     4   0   0     4   0   0    12  32   0     8   0   0     8   0   0     8   0   0     0   0  16     0   0  16     0   0   0     0   0  16     0   0  16     0   0   0     0   2   0     0   1   0     0   8   4     0   0  32     0   0   0     0  96   0     4   0   0     0   8   1     0   8   1     0   1   0    18   4   0    16   0   8     0   4  10     0   0   0     0   0   0     0   0   0     0   8   0     0   0   0     4   8   0     4   0   0     0   0   0    24   0   1     0   3   1     0   2   8     0   2   0     0   0   0     2   0  32     0   0   0     1   0  32     0   0   0     4   0   0     1  32   1     9  32  20     8   0   4    72  40  20     0   2   0     0   0   0     0   0  20     0   0  20     0   0   0     0   4   0     0   8   0     0  12   0    16   8  32     0   0  32     0   0   0     0   0   0     0   0   0     0   0   0     0   0   0     8   0   0     0   0   0     0   0   0    16  16   0     0  16   0     0   0   0     0   0   0     0   0   0     0   0   0     0   0  12     0   0   0    64  64   0     0   1   1     0   0   0     0   0   0     0   0   0     0   0   0     0   0   0     0   0   0     0   0   0     0   0   0     0   0   0     0   0   0     4   4   4     4   4   4     4   4   4     0   0   0     0   0   0     0   0   0     1   1   1     0   0   0     0   0   0     0   0   0     0   0   0     0   0   0     0   0   0     4   4   4     4   4   4     0   0   0     0   0   0     0   0   0     0   0   0     0   0   0     2   2   2     2   2   2     0   0   0     0   0   0     1   1   1     1   1   1     9   9   9     2   2   0
  0   8   8     4   8   8     0   0   0     0   0   0     0   4   0     0   4   8     0   4   8     8   0   8     0   0   0    40   0   0     0   0   0    24   0   0    24   0   0    30   2   1     0   0   1    32   0   0    32   0   0     2   0   2     2   0   0     0   8   0    10  10   0     8   8   0     8   0   4     8   2   0     0   0   0     8   0   0     0   0   0     0   0   0     0   0   0     0   0   2     0   0   4     0   0   4     0   0   0     0   8   4     0   0   0     1   8   0     1   0   0     0   0   2     3   0   0     1   0   0     3   0   0     0   0   0     0   7   0     0   2   0     0   2   0     0   0   0     0   8   0     0   0   0     4   8   8     0   0   8     4   4   0    20  20   4     0   0   0    16  16  24     8   8   8     2   2   0     2   2   0     1   1   1     0   0   0     0   0   0     0   0   0     0   0   2     0   0  16     1   0   4     0   0   0     4   4   0     4   4   4     0   1   0     1   0   0     8   1   0   128 144 128     4   0 136     0  16   0    12  16   2     0   0   0     0   0   0     0  12   0     0 128   0     0   0   4     0   0   0     0   0   0     0   8   0     0   0   2     0  16   0     0  16   1     0  16   0    16   0   0    12   0   8     4   0   0     0   0   0     4   0   0     0   0   0     0   0   0     0   0   0     0   0  16     0   0   0     0   0   4     0   0   0     0   0   0     0   2   0     0   0   4     0   8   0   128   8   0   128   8 112     0   0  16     0   0   0     0   2   0     0   0   0     0   0   0    16   0 128    16   1  10     0   1   0     0   0   2     4   0   0     0   4   0    18   4   0    16   2   0     4   0   0     4   0   0     8   0   0     0   0   0     0  65   5     0   0   8     0   0  40     0   0  32     0   0  32     0   0   0     0   0  32     0   0   0     0   0   0    64   0   2    64  32   0     8  32  20     0   0  20     8   0   4     0  32   0     8   0   8     2   0  20     0   0   0     0   4   0     0   0   0     0   0   1     0   0  32     0   0   0     0   0   0     0   0   0     0   0   0     0   0   0     0   0   0     0   0   0    24   0   0    18   0   0    24  16   0     4   1   0     0   0   0    32   1   0     0   1   8     0   0  16     0   0  26     0   0   8    64  64   2     3   3   0     2   2   2     0   0   0     2   2   2     0   0   0     0   0   0     0   0   0     0   0   0     0   0   0     2   2   2     8   8   8     8   8   8     8   8   8     8   8   8     0   0   0     0   0   0     1   1   1     0   0   0     0   0   0     0   0   0     0   0   0     0   0   0     0   0   0     0   0   0     0   0   0     0   0   0     0   0   0     0   0   0     0   0   0     0   0   0     2   2   2     8   8   8     8   8   8     8   8   8     0   0   0     0   0   0     0   0   0     1   1   1     0   8   8
  0   0   0     0   8   0     4   0   0     0   0   0     0   4   0     0   4   4     0   4   0     0   0   0     4   0   0     0   0   0     0   0   0     0   0   0     0   0   2     0   0   2     0   0   1     0   0   1     2   0   0     2   0   2     2   0   0     2   0   0     8   0   0     8  10   0     8   8   0     0   8   4     0   0  16     0   0  16     0   0   2     0   0   0     0   0   0     0   0   8     0   0   8     0   0   8     0   0   0     0   8   0     0   0   0     0   0   0     0   0   0     0   0   0     2   0   0     1   0   0     0   0   0     0   2   0     0   2   0     1   3   8     1   3   0     0   0   0     0   0   0     0   0   0     0   0   8     0   0   0     4   4   2    20  20   2     4   4   2     0   0   0     0   0   0     2   2   0     2   2   0     3   3   1     0   0   2     1   1   3     0   0   2     1   1   1     3   0   4     1   0   0     1   0   2    16   0   0     1   4   0     0   0   0     1   0   0     1   1   0     1  16 136     0   4  12     8  16   8     8  20   2     8   4   0     8   4   0     0   8   8     0   4   0     0   0   0     0   0   0     8   0   0     1   0   8     0   0   4     0   0   2     0   0   6     0   0   1     0   0   0     0   0   0     4   0   0     4   0   8     0   0   0     0   0   0     0   2   0     0   0   0     0   0  16     0   0   0     0   0   4     0   8   0     0   8   0     0   0  16     0  10   0     0   0   0     2 136   0   130   8  96     2 128   0     2 128   0     2 130   0     2   0   0     0   0   0     0   0   4    18   8   0     0   0  10     0   0   2     0   4   1     0   4   0    16   8   1     1   0   0     0   0   0     0  64   0     0   0   4     0  64   0     0   0  36     0   2  37     1   0   4     0   3   0     0   1  40     0   0  32     1   0   0     0   0   0    64   0   0    64  32   0     0  32   0     0  32  20     8   0  12     2   0   0     2   0   0    10   0  16     2   0   0     0   4   0     0   0   0     0   4   0     1   1   0     1   8   0     0   8   0     0   8   0    16   0   4    16   0   0    16   0   0    16   0   0     0   0   0    24  16   0    18  16   0     8   8   0    20   1  16    16  17   0    32   1  18     0   1   2    48   0  20    56   0   4     0   0   0    64  64   8     1   1   0     0   0   0     0   0   0     0   0   0     2   2   2     2   2   2     8   8   8     0   0   0     0   0   0     0   0   0     8   8   8     8   8   8     8   8   8     8   8   8     0   0   0    14  14  14     1   1   1     0   0   0    14  14  14     0   0   0     0   0   0     0   0   0     0   0   0     0   0   0     0   0   0     0   0   0     0   0   0     0   0   0     0   0   0     1   1   1     3   3   3     2   2   2    10  10  10     0   0   0     0   0   0     0   0   0     0   0   0     8   0   0     0   0   0
  0   0   0     0   0   0     4   0   0     0   0   0     0   4   4     8   4   4     8   0   0     8   0   0     0   0   0     4   0   2     0   0   0     0   0   2     0   0   0     0   0   4     0   0   0     0   0   1     2   0   2     6   0   9     0   1   1     2   1   9     2   2   0     0  10   8     8   0   4     0   8   0     0   0   0     1   8  16     8   8  16     8   8   0     0   0   0     0   8   0     0   0   0     0   0   0     0   0   8     0   0   0     1   0   0     0   0   2     0   0   0     0   0   0     0   0   0     0   0   0     1   2   0     0  10   0     1  19   4     1   1   8     1   1  72     0   1   8     0  12   0     8   4   0     4   0   2     0   0   2     4   4   0     4   4   2     0   0   0     0   0   8     8   8   0     0   0   0     2   2   0     0   0   0     0   0   0     0   0   2     0   0   2     0   0  18     1   0   0     0   0   2    17   0   2    16   0   2    16   4   0    16   0   0     1   8   0     1   0   4     0  16   0     1   0 128     1   0   0     0   0   2     8   4   0     8   4   8     0   4   0     0   4   0     0   4   4     0   0  16     0   0   4     0   0   6     1   0   8     1   0  15    16   0   6     0   8   2     0   0   1     0   1   0     0   4   8     0   0   8     0   0   0     0   2   0     0   2   0     2   2   0     0   0   0     0   2   0    20   0   0     4   0   0     1   0   0     1   2   0     0   2  16     1   0  16     2   2   0     2  16   0     2   0  16     0   0   0     0 128   0     2   0   0     2   0 144     2   0   0     2   0   4     2   0  35     2   0   3     3   1  35     0   9   1    17   1   1    65   2   0    64   0  32     0   0  34     1   0  38     0   8   2     0   0   2     0   0   4     0  19  40     1   1  32     1   0   8     0   0   0     0   0   0     0   0   4     0   0   0     0   0   0     0  32   0     0   0  12     2   0   4     6   0   0    14   0   0    10   0   0    10   0   0     0   0   0     0   4   0     0   0   0     3   1   0     1   8   0     1   0   0     1   0   0     2   0   0     0   0   0     0   0   0     0   0   0     0   0   0     8   0   0    10   1  16    26  21   0    32  37  32     0   0   0     1   0   0     1   0   0     1   1   4     0   0   4     0   0   4     1   1   0     0   0   0     8   8   8     0   0   0     0   0   0     0   0   0     2   2   2     0   0   0     0   0   0     8   8   8     2   2   2     2   2   2     0   0   0     0   0   0     0   0   0     0   0   0     0   0   0     0   0   0     0   0   0     0   0   0     0   0   0     0   0   0     8   8   8     0   0   0     0   0   0     0   0   0     0   0   0     0   0   0     0   0   0     1   1   1     0   0   0     0   0   0     2   2   2     0   0   0     0   0   0     0   0   0     0   0   0     0   0   0     0   0   0     0   0   0
  0   0   0     0   0   0     0   0   0     0   0   0     8   4   4     8   4   4     0   0   1     0   0   1     0   0   0     0   0   0     0   0   2     0   0   2     0   0   0     0   0   0     0   0   4     0   0   0     2   0   8     2   0   8     0   0   8     0   0   0     2   8   8     8  10   8     0   2   0     4  10   0     0   8  16     8  10  16     9   0  16     1   8   0     9   0   0     8   0   0     0   2   0     0   8   0     0   8   8     0   0   0     0   0   2     0   0   2     2   0   0     0   0   0     0   0   0     0   3   0     1  11   0     1  11   0     1  24   0     0  16   0     0  17   0     0   1   0     4   0   0     0   0   0     0   0   2     0   0   0     1   1   3     0   0   0     4   4   0     4   4   0    12  12   0     0   0   0     2   2  16     0   0   0     0   0   0     0   0   2     0   0   2     0   0   0     0   0   0     0   0   0    16   0   2    16   0   0    16   0   0    16   0   0     0   1   0     1  16   4     1   0   0     1   0   4     1   2   0     0   0   0     0   4   0     0   0   0     0   0   0     0   2   0     0   0   0     0   4  18     0   0   6     1   0   0     0   0  15     0   0   4     0   0  12     0   0   0     0   0  32     0   4  32     0   4   0     0   0   8     0   0   8     0   0   0     0   0   0   128 128 128     2   0   0     4   0   0     4   0   0     4   0   0     0   0   0     1   2   0     1   2   0     1   0   0     0   0  48   130  16   0     0   0   0     0   8   0     0   0   0     0   0   0     0   0  20     0   0   2     0  16   1     0   0   2     2   0  34    16   0   2    17   9   3     0  32  32     1  32   0     1   9  32    17   0   0     1   1  34     1  32   2     0  32  22     8   0   0    64  18  21    64  20   4     5  16   0     1  16   0     0   0   0     0   4   4     0   0   0     2   4   0     2   4   0     2   0   8     0   0   8     4   0   0     4   0   0     8   0   0     0   0   0     0   0   0     0   0   0     0   0   0     1   1   0     0   0  24     0   0   0     0   0   9     0   0  32     2   0   0     0   0   0     0   0   0     0   1   0    10   1   0     2  16   0     0   0   0     0   1   0     0   0   0     1   0   0     1   1   0     1   1   0     2   0   4     0   1   0     0   0   0     0   0   0     0   0   0     0   0   0     0   0   0     0   0   0     0   0   0     0   0   0     2   2   2     2   2   2     2   2   2     0   0   0     0   0   0     0   0   0    16  16  16     0   0   0     0   0   0     0   0   0     0   0   0     0   0   0     0   0   0     0   0   0     0   0   0     0   0   0     0   0   0     0   0   0     0   0   0     4   4   4     0   0   0     0   0   0     0   0   0     0   0   0     0   0   0     0   0   0     0   0   0     0   0   0     0   0   0     0   0   0     0   4   4     0   0   0
  0   0   0     0   0   0     0   0   0     2   2   0     8   4   0     0   0   0     0   0   0     0   0   0     0   0   0     4   0   0     0   0   0     0   0   0     0   0   0     0   0   4     0   0   0     0   4   0     0   0   4     0   0   0     0   0   0     0   0   4     0   0   4     0   2   0     0   8   0     0   2   0     0   1  17     0   3   1     0   0   0     0   0   0     0   0   0     4   0   0     0   2   0     0   0   0     0   0   0     0   0   0    16   0   0     0   0   2     0   0   0     1   0   0     1   1   0     0   0   0     1   1   0     8   0   0     1  16   4     1   0   0     0   0   8     0   1   0     0   0   2     0   0   0     0   0   0     0   0   0     1   1   3     0   0   0     6   6   0     6   6   0     2   2   0     0   0   0     0   0   0     0   0   0    16  16   0     0   0   0     0   0   0     0   0   0     0   0   0     0   0   2     0   0   2     0   0   2    16   0   0    16  16   0    16   0   0     0   0  16     0   0   0     0   0   4     0   0   0     4   0   0     0   0   0     0   0   0     0   0   0     0   0   0     8   0   0     0   4   2     0   4   0     0   0   0     0   0   0     0   1   8     0   0   0     0   0   0     0  16   0     0  17   0     0   0   0     0   0   0     0   0   8    16   0   0    16   0   0     0   3   0     2   2   0     0   6   0     0   0   0     0   0   0     0   0   0     0  16   0     0   0   0     0  32  16     0   2  16     0   0  82     0   8   0     0   0   2     0   5   0     0   0   0     0   4   0     0   0   2     0   2   0     0   0   1     0  32   1    16  32   0    50  32   2    34   0   0     0  16   0    32  16   0     1   0   0    32  41   0     6   0   2     1   0  19    40   0   4    32   0  17    96   0   0     4   0   0     0   0   2     0   0   0     1   0   0     0   4   0     0   4   0     0   6   0     8   0   8     0   0   0     8   0   0     0   0   0     0   0   0     0   0   0     0   0   0     0   0   2     0   0   0     4   0   0     0   0  16     0   0  24     0   0  49     0   0  32     2   0   8     0   0   0     0   1   0     0   1   0     0   1   1     0  17   1     0   1   0     0   1   0     1   0   0     1   1   0     0   0   0     0   1   0     0   0   0     2   1   0     2   0   4     0   0   0     0   0   0     0   0   0     0   0   0     0   0   0     0   0   0     0   0   0     0   0   0     0   0   0     0   0   0     0   0   0     0   0   0     1   1   1     0   0   0     0   0   0     0   0   0     0   0   0     0   0   0     0   0   0     2   2   2     0   0   0     2   2   2     0   0   0     1   1   1     0   0   0     4   4   4     4   4   4     0   0   0     0   0   0     0   0   0     0   0   0     0   0   0     0   0   0     0   0   0     0   0   0     0   0   0     0   0   0     0   0   0     0   0   0
  2   2   0     0   0   0     1   1   0     0   0  12     0   0   6     0   0   0     0   0   1     2   2   0     2   2   1     0   0   1     0   0   0     0   0   0     0   0   0     0   0   0     0   0   4     0   0   0     0   0   0     1   0   0     0   0   4     0   0   2     0   1   1     0   0   0     0   0   0     0   0  16     0   1  17     0   2   0     0   0   0    12   0   0    12   0   0     0   0   0     0   2   0     0   0   1     0   0   1     0  16   0     0   0   0     0   0   0     0   0   0     1   1  16     1   1   0     1   1   0    17   0  72     1   0   8    17  16   0     1  17   0     0   0   0     0  17   0     0  24   0     0   1   0     0   1   2     0   0   0     0   0   2     0   0   0     0   0   0     0   0   0     4   4   0     0   0   0     0   0   0     0   0   4     0   0   4     0   0   4     0   0   2     0   0   0     0   0   6     0   0   4     0   0   0     0   0   0    24   0   0     8  16   2     0   1   0     0   0   0     0   0   0     4   2   0     4   0   0     0   0   0     4   0   1     4   0   1     1   0   0     0   0   2     8   2  16     0   0   2     0   2   0     0   0   0     0   0   0     0   1   1     0   1   0     0   0   0     0   0   0     8   0   0     0   0   0     0   0   0     0   0   8    16   2   0    16   0   8     6   0  16     4   0  64     2   0   0     0   0  64     8   0   0     0   4  64     0  17  64    32   4   0     0   1  65     0   8  16    16  64  18     0  64   2     0   4   2     0  12   0     0   4   2     0   0   0     0   8   0     0   4  16     0  16   1    32  36   1    16   0   0    48   4   0    32   0   0    32  16   0    32  16   8     0  16   8     1   8   0     0   0   4     4   8  21     1   0   0     0   4   4    36   6   6     0   0   2     0   0   0     0   0   0     1   1   0     1   4   8     1   0   8     8   0   0    10   0   0    10   0   0     0   0   0     0   0   1     1   1   0     8   0   0     0   2   0     0  10   0     4   0   4     0   0   4     4   0  36     4   0   9     0   0  40     2   0   0     0   0   2     0   0   0     8   0   2     8   0   0    32  41   1    16  16  17     0   9   0     0   1   0     0   0   0     0   0   4     0   0   4     0   0   1     2   0   4     2   0   4     2   4   8     0   6   4     0   0   0     0   0   0     0   0   0     0   0   0     0   0   0     0   0   0     0   0   0     0   0   0     0   0   0     0   0   0     0   0   0     1   1   1     1   1   1     1   1   1     0   0   0     0   0   0     0   0   0     1   1   1     0   0   0     0   0   0     0   0   0     0   0   0     0   0   0     0   0   0     0   0   0     0   0   0     0   0   0     0   0   0     0   0   0     0   0   0     0   0   0     0   0   0     0   0   0     0   0   0     0   0   0     0   0   0     0   4   6     0   0   0
  2   2   0     2   2   0     2   2   4     0   0   0     0   0   0     0   0   6     2   2   1     2  10   1     2  10   0     2   2   0     0   0   0     0   0   0     0   4   1     0   0   0     0   0   0     1   0   0     5   0   0     0   0   0     0   0   4     0   0   6     4   4   4     4   0   4     0   0   4     0   0  16    16   1  17     0   0   0     0  16   0     0   0   0     4   0   0     4   0   0     0   5   1     0   1   0     0   0   5     0   0   0     0   0   0     0  16   0     0   2   0     1   1   0     1   5   0     2   0  72    16   0  16    16  16   4     1  16  16     3  16   0     0   0   0     0   8   0     4   8   0     0   9   0     0   0   0     0   0   2     0   0   2     0   0   0     4   4   0     4   4   0     0   0   0     0   0   0     0   0   0    16  16   0    16  16   0    16  16   0    16  16   2     0   0   2     0   0   0     0   8   0     0   0   7     8   0   0    16   2   3     8   0   0    16   1   2     0   0   2     4   0   0     0   2   2     0   0   0     6   0   0     6   0   0     2   0   4     4   0   5     0   0   0     8   2   0     0   0   0     0   0   0    32 128   0     0   1   0     0   0   1     0   0   1     0   0   1     0   0   0     0   0   0     8   0   0     1   0   0    16   0   0    16   0   0     0   0   4     8   0  16     8  16  16     0   0   0     0   0  64     1   0  64     8   0  68    40  49   1     0   1   5     0   3   1     0   3   4    16  34   0    16  36   0    16   4   2     0  17   0     0  12   0     0   9   0     0   0   4    32   1  16     0  32  16     0  36   1    32   0   9     0   4   1    40   0   8    40   0   0     8   0   0     0   0   0     0   8   0     1   8   8     1   8   4     4   6   4     0   2   0     2   0   2     0   2   0     0   0   0     1   0   0     1   0   0     0   1   8     1   1   0     8   0   0     8   0   0     8   0   0     1   1   0     8   0   1     0   0   1     1   1   0     4   0   0     0   8   2     0   8   0    20   8   4     0   0   0     0   0  33     2   0  40     0   0  33     2   0   0     0   0   0     0   0   0     0   0  16     0   0   0     0   0   0    64  72   0     0   0   0     0   0   0     0   0   0     0   0   0     0   0   1     0   0   0     2   0   0     2   0   4     2   0   0     0   0   0     0   0   0     0   0   0     0   0   0     0   0   0     0   0   0     0   0   0     0   0   0     0   0   0     0   0   0     0   0   0     0   0   0     0   0   0     0   0   0     0   0   0     0   0   0     0   0   0     0   0   0     0   0   0     0   0   0     2   2   2     0   0   0     0   0   0     3   3   3     0   0   0     0   0   0     2   2   2     2   2   2     0   0   0     0   0   0     4   4   4     0   0   0     0   0   0     0   0   0     0   0   0     1   1   1     0   0   0     0   0   0
  2   2   0     2   2   0     0   0   4     0   0   0     0   0   4     0   2   6     2   2   0     2   2   9     0   0   0     0   0   8     0   0   8     0   0   0     0   4   8     0   0   4     0   0   0     0   8   0     5   0   0     0   0   0     1   0   0     0   0   2     0   0   0     4   0   0     0   1   5     0   0   0    16   0   0     0   0   0     0   0   0     2   0   0     0   0   0     0   0   0    16   0   0     0   0   4     4   0   4     0   0   0     0   0   0     0  16   0     0  18   0     0   0   0    16   0   0    18   0   8    16   0   0     2  16  20     3   0   0     0  16   0     0   0   0     0  16   0     0   0   0     0   0   0     0   0  18    16  16   2     0   0   2     0   0   0     4   4   0     4   4   4     0   0   0     4   4   0     4   4   0    16  16   4    18  18   0    16  16  16     0   0  16     0   0   2     0   0   0     0   8   0     4   0   1    16  16   4    16  16   7    16   0  18     0   0  16     0   0   0     1   0   0     4   0   2     6   0   0     2   0   0     2   0   0     0   0   0     4   0   1     0   0   4     1   8   0     0   0   0    32   2   4    32 128   0     0   0   0     0   0   0     0   1   9     0   0   0    12   0  24     8   0   8     5   0  24     6   0   0     6   0   0     0   0   0     0   0   0     0   4  16    96  20  16     4   0   0     4  64   0    80   0   0     8   0   1     8  16   0    33   1   1     1   1   5     0   0  12    16   2   4    32   2   0     0   2   0     0  16   0    33  17   1    33   1   0    32   0   0    32  12  16    32   0  16    32   4   1     0   0   1    40   0   1     8   4   0     0   0   0     8   0   0     0  16   2     0   0   2     0  24   0     4   8   0     2   8   0     6   4   4     5   2   2     0   0   0     1   0   0     1   2   0     0   0   0     0   2   0     0   1   0     0   0   0     0   0   0     0   0   0     1   1   0     0   0   1     0   0   0     1   1   9     0   0   4     0   0  10     0   0   0     0   8   0     0   3  32     0   2  32     0   1  32     0   1  32     0   1   0     0   0   2     0   0   0     0   0   0     0   0   0     0   8   0     0   8   0     0   8   0     0   8   0     0   8   0     0   8   4     0   0   0     0   0   0     0   0   0     8   0   0     0   4   6     0   0   0     0   0   0     0   0   0     0   0   0     0   0   0     0   0   0     8   8   8     0   0   0     1   1   1     0   0   0     0   0   0     0   0   0     0   0   0     0   0   0     0   0   0     0   0   0     0   0   0     0   0   0     0   0   0     0   0   0     0   0   0     0   0   0     2   2   2     0   0   0     0   0   0     0   0   0     0   0   0     2   2   2     0   0   0     0   0   0     0   0   0     0   0   0     0   0   0     0   0   0     0   0   0     1   1   1     1   1   0     2   0   0
  2   2   0     2   0   0     2   0   0     0   0   0     0   0   2     0   0   2     0   1   2     0   0   8     0   0   8     0   0   8     0   0   0     0   0   0     0   0   1     0   0   1     0   8   9     4   8   4     0   0   0     5   0   0     1   0   0     4   0   0     4   4   0     4   0   0     0   1   0     0   1   0    16  16   0     0  16   0     4   0   0     4   0   0     4   0   0     0   0   2    20   0   0     0   0   1    20   0  12    32  40  32    12   0   0     8   2   0     8  10   8     8   2   8    24   0   0    18   0   0    16   0   0     1   0   4     1   0   0     3   0   0     1   0   1     0  16   0     1   1   0     0   0   4     0   0  22     0   0  18     4   4   0    12  12   8     4   4   4     4   4   4     4   4  20     0   0  16    16  16   0    16  16   0    16  16   0    16  16  16     0   0  16     0   0   0     0   0   2     0   0   0     0   1   3    16  16  20    16   0  21     0   0  19    16   0   0     0   0  16     1   0   0     5   0   2     5   0   2     6   0   0     2   0   0     0   0   4     0   0   0     0   2   4     1  10   4    33 131   8     0 128   0     0 129   2     0   1   2     0   0   3     0  96   8     0  32  24     4  34  24     8   2   8     4   0   8     4   9   0     0   8   0     0  12  68     0   4   4     0   0   0     1   4   0    16   4   0    16   0   0    16   0   0     0   2   0     9   3   0     1   1   0     0   0   0     0   0   0     0   0   0    32   0   0     2  18   0     0  18   0     0  16   0    32   0   0     0   0   0    33   9   0    32   1   0     0   0   0     0   0   0    32   0   1    32   4   9     8   0   8     0   0   0     8   2   0     0   2   0     0   2   0     2   0   0     6   0   0     4   2   4     0   2   0     1   2   0     0   2   0     1   0   0     0   0   0     1   0   0     0   0   0     0   0   0     0   0   0     0   0   0     0   4   0     0   4   0    17   5  32     0   0   0     0   0  40     0   0  32     0   0   0     0   0   0     8   2   0     4   1   0     0   1   1    16   0   0    16   1   1     0   0   0     0   0   0     0   0   0     0   0   0     0   0   0     0   0   0     0   0   0     0   0   0     2   0   0     2   0   2     0   0   2     0   0   0     1   0   0     0   0   0     2  18   2     0   0   2     0   0   0     4   4   4     0   0   0     0   0   0     8   8   8     9   9   9     0   0   0     0   0   0     4   4   4     0   0   0     0   0   0     0   0   0     0   0   0     0   0   0     0   0   0     0   0   0     0   0   0     0   0   0     0   0   0     0   0   0     0   0   0     0   0   0     0   0   0     1   1   1     0   0   0     1   1   1     2   2   2     0   0   0     0   0   0     0   0   0     0   0   0     0   0   0     0   0   0     0   0   0     1   1   1     0   0   5     0   0   4
  0   8   8     0   0  12     0   1   0     0   1   0     0   5   0     0   0   0     0   1   0     0   0   8     0   0   9     0   0   0     0   0   0     0   4   0     0   0   0     0   0   4     0   8   5     4   0   1     0   0   0     1   0   0     0   0   2     0   0   0     4   0   0     0   0   0     0   0   0     0   0   4    16   0  20     0   0   1     4   0  16     0   0  18     0   0  18     0  16   0     4   0   0     2  48   0     2  32   4     0   0   5     0   0   0     0   0   0     8   0   8     0   0   0     0   0   0     0   0   0     0   0   0     0   0   0     0   0   0     2   0   0     1   0  16     0   0   1     1   1   1     1   1  21     1   1   0     1   1   2     0   0   0     4   4   0     0   0   0     4   4   4     0   0  16     4   4  16     0   0  20    16  16   0     2   2   0     0   0   0     0   0   0     0   0   2     0   0   2     2   0   2     0   0   2     2   0   0     0   0   0    16   0   0     0   0   0     0   0   0     9   0   0    11   0   0    10   0   0     8   0   0    10   0   0     0   2   0     0   0   0     0   1   0     0   8  17     1   3  28     0   9  18     0 128   0     8   9   0    16   0   0    16   0   8     0   0  10     0   2  24     0   2  10     4   8   0     0  10   8    16  32   0     0   6   0     0   4   0     1   2   0    97   9   8     0   8   8    64  10   0     0   2   0     0   2   0     0  16   0     1   1  16     5   1   0    33   1   6     0   0   2     1   3   0     0   0   1     0   0   0     0  16   0     1   1   0     1  17   1    34   0   0    34   0   0     0   0   0     0   4   0     0  16   4     0   4   4     0  20   0     0   0   2     0   0   0     0   0   0     0   0   0     0   0   0     1   0   0     4   8   0     4   6   0     1   2   0     0   2   0     0   0   0     4   0   0     0  32   0     1  36   0     0   4   0     0   0   0     0   4   0    16   4   2    16   4   2     0   0  32    16   0  40     0  16   8    32   0   8     0   2   0     0   2   0     0   0   0     0   0   0     0   0   0     0   0   0     0   0  16     0   0   1     0   0   0     0   0   0     0   0   0     0   0   0     0   0   0     0   0   0     0   1   0     0   1   0     0   0   0     0   0   0     0   0   0     1   0   0     0   0   0     4   2   2     0   0   0     0   0   0     0   0   0     0   0   0     0   0   0     8   8   8     0   0   0     1   1   1     0   0   0     0   0   0     0   0   0     0   0   0     0   0   0     0   0   0     0   0   0     0   0   0     0   0   0     0   0   0     0   0   0     0   0   0     0   0   0     0   0   0     0   0   0     0   0   0     0   0   0     0   0   0     1   1   1     9   9   9     0   0   0     2   2   2     0   0   0     0   0   0     0   0   0     0   0   0     0   0   0     1   1   1     0   0   1     0   0   0
  2   8   0     0   0   8     0   0   0     0   0   0     0   0   0     0   1   0     0   0   0     0   0   0     0   2   8     8   0   1     0   0   2     0   0   2     0   0   2     0   8   0     0   8   7     4   0   4     8   0   8     1   1   0     0   0   0     3   0   2     0   0   0     0   0   0     0   1   0     0   0   0     2   0   0     0   0   0     0   0   0     0   0  16     4  16  26    20   0   8    26  40   0    50  56  32    38  40  43    12   8   0     8   8   8     0   0   8     0   0   8     8   0   0     0   0   0     0   0   0     0   0   0     0   0   0     0   0   0     0   0   0     1   1  16     1   1   1     1   5   1     1   5   5     0   0   1    16  16   1     0   0   0     0   0   0     0   0   0     0   0   0     4   4   4     0   0   0     0   0   0     0   0   0     0   0   0     0   0   0     0   0   0     0   0   0     0   0   0     2   0   2     0   0   2     2   0   0     0   0   0     0   0   0     1   0   0    17   0   0     0   0  16    10   0   0     2   0   8     2   0   0     0   2   0     2  10   0     0   1   0     0   1   0     0   1   0    33  12  16     0   8  18     3   0   0     0   4   0     4   0   0     4   0  32     4   0   0     0   6  40     0   6  32     0  32  48     0  32   8     0  36   0     0   4   0    33   2  64     1  13   0     1  11   0     0  12   2     0   8   8     0   8   0     0   0   0     1   1   0     0   0  16     1   1   4     0   0   4     0   0   0     0   2   0     0   0   0     0   0   0     0   0   0     0   0   1     0  16   1     2   0   8    32  16   8     0   0   0     0   4   4     0   0   4     0   0   2     0   0   2     0   0   0     0   2   2     0   2   0     0   0   0     0   0   0     1   0   0     0   0   0     2  10   1     3   2   0     3   0   0     6   0   0     0   0   0     0   0   0     0   0   0     0   0   0     0   0   0    16   0   0    16  36   0    16   4  34    16   4  34    32  32   0     1   0  40     0   0   0     0   0  40     0   0   0    32  32  16    52  48   0    16  16  16    24  17  16     0   8   1     0   0   0     8   8   0     0   0   0     8   8   0     0   0   0     0   1   0     8   0   0     8   0   0     0   0   0     0   1   0     0   0   0     0   0   0     0   0   0     0   0   0     0   0   6     0   0   0     4   4   4     0   0   0     0   0   0     8   8   8     8   8   8     0   0   0     0   0   0     0   0   0     0   0   0     0   0   0     0   0   0     0   0   0     0   0   0     0   0   0     0   0   0     0   0   0     0   0   0     0   0   0     0   0   0     0   0   0     0   0   0     1   1   1     0   0   0     0   0   0     0   0   0     1   1   1     0   0   0     0   0   0     0   0   0     0   0   0     0   0   0     4   4   4     0   0   0     0   0   0     0   0   0     0   0   8     0   8   8
  0   0  16     0   0  16     0   1   0     0   0   2     4   5   0     0   0   0     0   1   0     0   0   0     0   2  12     0   0   0     8   0   2     0   8   0     0   8   2     0   8   0     0   8   0     0   8   1     0   0   0     0   0   0     1   0   0     1   1   2     0   0   0     0   0   0    18   0   0     0   0   0     2   0   0     0   0   0     0   0   1     0   0   0     0  16   8    16  24  16    18  32  16     0  40   0     2  42   2     4   0   0     0   0   0     0   0   0     0   0   0     0   0   0     0   0   0     0   0   0     0   0   0     0   0   0     0   0   0     0   0   0     0   0   0     1   1   1     1   1   1     4   4   0     0   0   0     1   1   1     0   0   0     0   0   0     0   0   0     0   0   0     0   0   0     4   4   4     1   1   1     0   0   0     0   0   0     0   0   0     0   0   0     2   2   2     0   0   0     2   0   2     2   0   0     0   0   0     2   0   0     0   0   8     0   0   0     0   0   0     0   0   0     0   0   0     0   0   0    10   0   0     0   0   2     0   0   4     0   0   2     0   0   3     4   0  10     0   4   2     0   4  16     0   0   0     1   0   0     5   0   0     1   0   0     4   0   0     0   4  32     0   2   0     0   6  16     0   0  32     4  32  32     8   0   0     0   0   0     0  11   0    65   9   0     0   9   8     0   8   8     0   0   8     0   0   8     0   4  16     0   0  16    16   0  16     0   0   0     8   0   1     0   0   0     0   0   0     0   0   0     0   0   0     0   8  17     0   8  25     0   0   0     2   0   0     0   0   8     0   2   0     2   2   2     0   2   6     0   2   4     4   0   4     0   0   4     0   0   1     0   0   0     0   0   0     0   0   0     0   0   0     1   0   0     0   0   0     0   4   0     2   0   0    12   0   0     4   2   0     5  34   0     0  38   0    17  33   0    16   0   0     0  32   0    32  32   0     0   0   0    32  32   0     0   0   0     0   0   1     0   0   1     0   0   0     0   0  16     0   0  16     0   0  16     8   8  16     8   8   0     0   0   0     8   8   0     0   0   0     8   8   0     0   0   0     0   1   0     0   1   0     0   1   0     0   1   0     0   0   0     0   0   0     1   0   0     0   0   2     0   0   0     0   0   4     0   0   0     4   4   4     4   4   4     0   0   0     0   0   0     0   0   0     0   0   0     0   0   0     0   0   0     0   0   0     0   0   0     0   0   0     0   0   0     0   0   0     0   0   0     0   0   0     1   1   1     1   1   1     1   1   1     1   1   1     1   1   1     1   1   1     5   5   5     0   0   0     0   0   0     0   0   0     0   0   0     0   0   0     0   0   0     2   2   2     2   2   2     0   0   0     4   4   4     4   4   4     4   4   4     1   1   1     0   0   0     0   0   4
  0   0  16     0   0  16     0   1   2     0   0   2     0   1   0     0   1   0     0   0   0     0   2   0     0   2   0     1   0   9     9   0   3     1   8   1     1   8   1     1   8   3     0   0   2     0   0   1     0   1   0     0   0   0     1   0   2     1   1   2     0   0   2     0   0   0    18   0   0     2   0   0    16   0   0    16   0   0     4   0  16    16   6  32    48  18  32    32  48  32    32  40  32     0  32   0     0   0   0    64  64  64     0   0   0     0   0   0    16  16  16     0   0   0     0   0   0     0   0   0     0   0   0     0   0   0     0   0   0     0   0   0     0   0   0     0   0   0     0   0   0     1   1   1     0   0   0    16  16  16     0   0   0     0   0   0     0   0   0     0   0   0     0   0   0     0   0   0     0   0   0     0   0   0     0   0   0     0   0   0     2   2   2     6   6   6     0   0   0     0   0   6     0   0   0     6   0   4     2   0   0     2   0   0     0   0   0     0   0   8     0  16   8     0   0   0     0   0   0    34   8   0     0   2   4     0  12   4     0   0   0     0   4   0     0   4   2     0   0   0     0   4   0     4   0   0    32   0   0    32  16   0     0   0   0     0   4   0     4   4   0     0   0   0     0   0  32     0   4  48     8  32  32     0   0  16     0   0   0     0   8   0     4   0   0     0   8   0     1   0  12     1   9  24     0   0   8     1   1  16    16   0   0     0   0   1    18   0   1     0   0   1    16   0   1    16   0   0    32   0   0     0   2   8     0   0   0     0   8   0     0   0   0     2   8   0     2   0   8     4   2   8    10   0   0    14   2   0     2   0   0     0   0   0     0   0   6     0   0   0     0   0   0     0   0   2     0   0   0     0   0   4     0  16   0     0   0   1    10   0   0    10   0   8     8   0   8     8   0   0     5   0   0     4   2   0    32  16   0    32   0   4     0   0   0    32   0   8    32  32   0    32  32   0     0   4   0     0   0   1     0  16   1     8   8   8     0   0  16     0   0   0     0   0   8     8   8   8     0   0   0     8   8   8     8   8   0     0   0   0     0   0   4     0   1   0     0   1   0     0   0   0     0   1   4     0   0   0     0   0   0     0   0   0     0   0   2     2   0   2     0   0   6     0   0   0     0   0   4     0   0   0     4   4   4     0   0   0     0   0   0     0   0   0     0   0   0     0   0   0     0   0   0     0   0   0     0   0   0     0   0   0     0   0   0     0   0   0     0   0   0     0   0   0     1   1   1     1   1   1     1   1   1     1   1   1     0   0   0     1   1   1     0   0   0     0   0   0     0   0   0     1   1   1     0   0   0     8   8   8     4   4   4     2   2   2     2   2   2     0   0   0     0   0   0     0   0   0     0   0   0     0   0   0     0   0   0     0   0  12
  0   0   0     4   0   0     4   0   0     4   1   2     0   1   0     0   0   0     0   3   0     0   0   0     2   2   0     0   0   0     0   0   0     0   0   0     0   0   0     0   0   1     0   0   0     0   0   0     0   1   0     0   1   0    12   0  10     1   1   0     0  18   2     0   0  16     0   0   0     0   0   0     2   0   0     0   0   0     4   0   0     0   4   2     0   4   4    32  32  32     3   1   0     2   0   0     0   0   0     0   0   0     0   0   0     4   4   4     0   0   0     0   0   0    16  16  16     0   0   0     0   0   0     0   0   0     6   6   6     0   0   0     0   0   0     0   0   0     0   0   0     0   0   0     0   0   0     0   0   0     0   0   0    16  16  16     0   0   0     0   0   0     6   6   6     0   0   0     2   2   2     0   0   0     0   0   0     4   4   4     4   4   4     5   5   5     4   5   5     4   4   4     4   0   4     0   8   0     0   0   0     4   0   0     0   0   0     0   0   8     0  16   0     2   8  16     2   0   0     2   8  20     0   0  20     0  16   2     0   0   0    16   0   0     4   4   0     4   4   0     4   0   0     0   0   0    32   0   0     0  16   0     0  16   0     0   4   0     0   4   0     0   0   0     0   0   0     0   0   0     8   0  32     0   0  32    12   0  32     0   0   0     0   0   0     0   0   0     0   0  28     1   0  16     1   9   0     0   0   0    17   9  17     0   0  16    20  32   1    16  40   0    16  32   0     0   0   0     0   0   0     0   0   0     0   0   0     0   0   8     2   0   8     3   0   0     2   0   8     2   0   8     6   0   0     6   0   0     2   0   0     0   0   1     4   4   0     0   0   2     4   4   0     0   0   2     0   0   0     0   0   4     0  16   0     0   0   0    10   0   0     8   0   8     0   0   8     8   2   0     4   2   4     4   0   0     0  16   0     0   0   0     0   0  20     0   0   4     2   0   0     0   0  16     2  16  17     8   0   1     0  25   1     8   0   8     0   0   8     8   8   8     8   8   0     0   0   8     8   8   8     0   0   0     0   0   4     0   0   0     0   0   4     0   1   0     0   0   4     0   0   0     0   0   4     0   0   0     0   0   2     0   0   0     0   0   0     0   0   2     0   0   0     0   0   0     4   4   4     0   0   0     4   4   4     1   1   1     0   0   0     0   0   0     0   0   0     1   1   1     0   0   0     0   0   0     0   0   0     0   0   0     1   1   1     0   0   0     0   0   0     0   0   0     0   0   0     0   0   0     0   0   0     0   0   0     0   0   0     0   0   0     0   0   0     0   0   0     0   0   0     0   0   0     0   0   0     2   2   2     0   0   0     0   0   0     2   2   2     2   2   2     2   2   2     0   0   0     0   0   0     0   0   0     1   0   5     0   0   4
  0   1   0     0   1   0     4   1   2     0   0   0     0   0   0     0   0   0     0   3   0     0   0   0     0   0   0     0   0   0     0   0   0     0   0   0     0   0   0     0   0   1     0   4   0     0   4   0     4   1   0     0   0   8     8   1   8     9   3   4     0   6   4     0   2   4     0   2   0     0   0   0     0   0   0     0   0   0    20  32  32     4   4  38    32   0  32     0   0   0     0   0   0     0   0   2     0   0   0     0   0   2     0   0   0     0   0   0    16  16  16     0   0   0     0   0   0     0   0   0     0   0   0     4   4   4     6   6   6     2   2   2     0   0   0     0   0   0     0   0   0     0   0   0     0   0   0     0   0   0     0   0   0     0   0   0     0   0   0     0   0   0     1   1   1     0   0   0     2   2   2     0   0   0     0   0   0     0   0   0     0   0   0     4   4   4     0   0   0     4   0   4     4   0   0     4   0   9     4   0   0     4   0   8     0   0   8     4   8   8     0  17   0     0  16   0     0   0   0    16   8   2     0  24   0     0   4   0     0   4   0     0   4  16     8   0   0     0   0   0     4   0   0     0   0   0     0   0   0     0   0   0     0   0   0     0   4   0     0  16   4     0  16   0     0   0   0    16   0   0     0   0   0     8   0  64     4   0   0    12   0   0     0   0   0     0   0   0     0   0   0    16   8  17    17   1   1     0   8  17    17   5  17    16   0   0    16   0   0     0   0   0    16   0   0     0   0   0     0   0   0     0   0   0     0   0   0     0   0   8     7   8   9     5   8   8     1   0   8     0   0   8     0   8   0     0   8   0     0   0   0     0   0   9     0   0   8    12   4   8    12   4   8     4   4   2     0   0   0     0   0   0     0   0   0     2   0   0     8   0   0     0   0   0     0   0   0     8  16   0     8  16   4     0  16   4    32   0  16     0   0   0     0   0   4     0   0  16     0   0   0     0   4  16     0   0  49     0   4   1     8   8   0     8   8   0     0   0   0     8   8   0     8   8   0     8   8   0     0   0   0     0   0   0     0   0   0     0   0   0     0   0   0     0   0   0     0   0   0     0   0   0     0   0   0     0   0   0     0   0   0     0   0   0     0   0   2     0   0   0     4   0   2     0   0   0     0   0   0     0   0   0     0   0   0     0   0   0     0   0   0     0   0   0     2   2   2     0   0   0     2   2   2     0   0   0     0   0   0     2   2   2     0   0   0     0   0   0     0   0   0     0   0   0     0   0   0     0   0   0     0   0   0     0   0   0     0   0   0     0   0   0     0   0   0     0   0   0     0   0   0     2   2   2     0   0   0     0   0   0     0   0   0     0   0   0     0   0   0     0   0   0     0   0   0     0   0   0     0   0   0     0   0   0     0   0   4     4   0   0
  0   0   0     0   0   0     4   0   0     0   0   0     0   0   0     0   0   0     0   2   0     0   2   0     8   2   0     0   0   0     0   0   0     0   0   0     0   2   0     0   4   1     0   0   0     0   0   0     0   0   0     0   1   0     4   1   0     0   2   0     0   6   4     0   6   4     0   2   0     0   0   0     0   0   0     0   0  16     3   1   0     4   0   4    33  37  10     0   0   0     0   0   0     8   0   0     2   0   0     2   0   2    20   0  18     4   0   4     0   0   0     0   0   0     0   0   0    16  16   0     0   0   0    16  22   0     6   6   6     4   6   4     0   0   0     0   0  16     0   0   0     1   1   0     0   2   2     0   0   0    16  16  16     0   0   0     0   0   0     4   0   4     4   0   1     4   0   0     0   2   0     1   1  16     1   1   0     0   0   1     0   0   0     1   1   0     0   8   0     4  10   0     0  10   0     4   8   0    12   0   0     0  12   8     4   0   8     4  16   8     0  16   0     2  16   0     0  16   0     2   0   0     0   0   0     0   4  16     0  68  64    68   4   0    12   0   0     4   0  64     4   0  64     0  64   0     0  64  64     0   0  64     8  64  64     0  64  64     0  64  64     8  64  70     0   0  64    16  64  64     0  64 192     0 128  64     4   0   0     0   0   0     0   2   0     0 128   0     0   0  16     0   0  16     1   1  16     0   0 146    16   4   0     0   0   0     0   0   0   128   0   0     4   0   4     0   0  32     0   0  32     0   0   0     0   0   0     4   0  32     0   2  32     0   0  32     1   0   0     0   0   0     0   8   0     0   0   0     0   8   0     0   4   8     0   0  12    12   0   9     8   0   8     4   4   0     0   0   0     0   0   0     0   0   0     2   0   4     0   1   0   130   0   0   136 128 128   128  16   0     8  16 132     0  26   0     0   8   0     0   8   0     0   0  20     0   0   1     0   0  16     0   0  18     2   4  23    16  16   3     8   0   0     8   0   0    72  72   0     8   8  76     8   8   0     0   0   0     0   0   0     0   0  16     4   4   0     4   0   0     0   0   0     4   4  16     4   4   0     0   5   0     4   4   0     0   0   0     0   0   0     0   0   0     0   0   0     0   0   0     1   4   0     0   0   0     4   0   0     0   0   0     0   0   0     0   0   0     0   0   0     4   0   4     0   6   4     0   0   0     0   0   0     0   0   0     0   0   0     0   0   0     1   0   1     2   0   2     1   0   0     0   0   0     1   0   1     0   0   0     0   0   0     0   1   0     0   1   0     0   0   0     0   0   0     0   0   0     0   0   0     0   0   0     0   0   0     0   0   0     0   5   0     0   1   0     0   0   0     0   0   0     0   0   0     0   0   0     0   0   0     0   0   0     0   0   0     0   0   0
  0   0   0     0   0   0     0   0   0     0   0   0     0   0   1     0   0   1     0   0   0     0   0   0     0   0   0     0   0   0     0   0   0     0   0   0     0   0   0     4   4  17     0   4   1     0   0   0     8   0   0     0  16   0     9  19   0     1  19   0     1   7   0     0   6   0     4   0   0     0   2   0     0   0   0     0   0   8     1   1   0     0   0   8     1   1   2     0   0  10     1   1   0     0   0   0     2   0  16     6   0   0     6   0   0     0   0   0     0   0   0     0   0   0     0   0   0     0   0  16     0   0  16    18  22  18    18   4   0     2   0   2    18   0   0     0   4  17    20   4   4    16   0   5     0   2   4     0   2   0     0   2   2     0   0   0     0   0   0     0   0   0     3   3   1     0   0  16     0   2   0     1   1  16     1   1   0     1   1   0     0   0   0     3   1   0     0   2   0     0   2   0     0   2   0     0   0   0     0   0   0     4   4   0     4   4   8     0   0   8     8   9   0     0   9   0     8   1   0     8   0  10     8   4   8     4   0  16     0   0  17     0   4   0    12   4   0     0   0   0     4   0   0     0   0   0     0   0  64     0   0  68     0   0  68     0   0  64     0   0  68     0   0  65     0   1  68     0  68  64     0   0  64     0   0   0     0   2   0     0   0   4     0   0   4     0   0   0     0   0   1     0   0  16     0   0   0     0   0   0     0   0   0     0   0   0    16   0   6     0   0   0     2  16   0     0  16   0     0   0   0     0   0   0     0   2   0     0   0   0     1   2   1     0   0  33     0   0   2     4   0   0     0   0   2    16   8   0    16   2   0    16   0   8     0   0   0     0   0   1     0   0   1     0   0   0     0  16   0     0   0   0     0   0   4     0   0   4     2   0   0     2   0   0     8   0 128     0   0   0     0  24   0     0   0   0     0  16   0     0   0   0     0   0   0     0   0   1     0   0  24     0   0  25     0  16   0    16  16   0     0   0   0     0   0   0     0   0   0     8   0   0     0   0   0     2   0  16     2   2  16     0   4   4     0   4   0     4   0   0     4   4   0     4   4   0     0   0   0     0   4   2     0   4   0     0   0   0     0   0   0     0   2   0     0   0   0     0   0   0     0   0   0     0   0   2     4   0   0     0   0   0    16  16  16    16  16  16     0   0  16     4   0  16     0   0   0     0   0   0     0   0   0     0   0   0     0   0   0     0   0   0     1   0   0     0   0   2     1   0   0     1   1   1     0   0   0     1   1   1     1   0   1     0   1   0     1   3   1     0   0   0     0   0   0     0   8   0     0   0   0     0   0   0     4   0   0     8   0   0     0   0   4     8   8   0     0   0   0     8   0   0     0   0   0     0   0   0     0   0   0     0   0   4     0   0   0     0   8   0
