P3
200 200
255
 16  16   0    16  16   0    16  16   0    16  18   1    20  16   1    20  16   1    18  16   0    16  25  16    18  16   8    16  17   8    18  20  14    16  17  16    20  20  17    21  28   0    22  16  17    26  16   5    24  24  17     8  50   0    10  48   8    17  31   8    22  44  16    20  20  24     0  50  25    12   2   0    16   0   7     0   8   0    11   1   8     9   1  16    16  24  26     1   1  30     1   5  20    26   4  16    20   8   0     6   8   0     6   0   4     6   8   1     0   2   0     0   0   2     0  10   2     0   8  20    16  16  20    26  20  18    26  26  26    16   4  22     2   0   1    20   4  16    16  18  17    19  17   4    16   2   5     1   3   8     0   2  10     3   5  14    18  20   0    19  17   1    16  16  16    16  22  16     0   6  16     0   0   8     1   1  27     1   3   1     3   1  25     0   0   0     1   3  26    14   5   8     0   0  16     1   3   0     1   4   0     8   5  19     4   5   9    24   2   0    24   9   1     1   9   1    28   1  27     8   0  27    12  12  30    12  12  17     0   4  17     8   2   1     0  14   8     4  12  25     0   4  20    16  18   0     0  16  16    18  16  20     0   0  20     0   8   4    11   0   5     1   0   1     0   5   6     0   5   4     3   6   1     1   6   7     0   4  12    16  17   8     1  16   5     2  16  12     0  16   9    18   0  18     0   6  18     2   2   1    17   7   0    16   0  23    16   0   6    26   0   7     2  16   1    14  16  20     0   2   0    16   2  16    17   3   6     0   0   0     4   2   1    21   2   7     4   4   2    16   2   2    28   5   6    23  18   6    17   2   0     1  18   8    19  16   4     2   2   5     0  18   4    16  18   0     0  16   0     0  16   4     0  18   6     0  19   6     2   2  16    12   8  16    16   0   0     2   1  16     0  29  17    18  24   1    16  28  16    16  18   1     0   0   1    16   0  13     0   2   9    16  16  27    16  16  16    18  16  16    20  18  16    20  22  20    22  20  20    16  16  17     2   0   1     2   2  18     2   1  22     0   7   0     1   4   5     0   0   0     4   5  20     0   5   0     4   0  18     1   4   1     2   6   2     0   6   1     3   6   1     0   6   0     0   0   0     4   0   1     4   7  18     4   0   2     4   0   2     0   8   0    18  16  20    16  24  20     4   0  16     4   4   1     4   0  23     4   2   0     1   7   0     0   0   1     0   8   1     7   9   0     3   1   0     0   4   6     2   5   6     3   2   3     3   1   3     6   4   6     0   0   4     5   2   5     2   6   2     9  11   5     1   8   5    12  12   0     0   4   0     0  12   0    12   8   0    13   0   5     1   3   1     1   0   1     8   9   4     0   0   0     8   0   0     8   0   0     0   0   4     9   0   1    17  24  17    21  24  17
  1   6   2     0   0   1     0   0   1     0   6   1     0   0   2     2   8   3     2   0   3     6   8  17     0   0  21     2   0   4     2   4   0     7   1  16     2   0   0     7   5   0     2   0   0     1   9   4    10  24  13     4   4   8     5   3   0     5   7   8     5  25   8     4   2   1    10  24   1     0   8   1     1  25  12    27  29   4    18  24   4    18  16   0     1   3   4     1   3   0     0   2   0     8   4   0     5   1   0     6   0   2     6   8   0     0  16  20     5  19  20     5   1  18     1  13   6     8   8   4     8  26   5    10  24   1    10  20   1     0   4  23     2   0   0     1   5  16    22   4  17     2   0   4    16   2  14     1   3   2     0   2   3     0   6  14     2   0  16     2   0  16     3   1  16     0   4   0    18  16   0    16  22   0     0   2   2     4   6  17     4   0  16     4   4  18    16   4   0    20   4   2    17   1  16     0   0   1     0   0   1    17   6  18     0   1   0    17   1  16    21   0   0     0   5   0    16   1  18     4   5   0    16   4   4     2   4   0     0   0  16     0   2   8     0   3   8     4   2   0     0   0  16    20   0  16     0   4   0    25   0  16     1   0  10    24   4  13     0  17   7    16  19   0     2  19   4     0   0   0     2   7  12     2   2  14     2   0   1     2   3   0     0   2   1     0   2   8     0   0   0     4   0   1     4   0  19     0   2  17     3   5  16     0   0  22     2   0  21    16   0   3     2   0  15     0   0   5     4   2  20     4   6  16     0   2   0     0   0  19     0   0   3     1   0  16     0   6   8    16   3   0    20  19   8    17  23  14    20   4  12     0   0   0    21   4  12     0   0  13    21   4   0     4   5  16     1   6  16     0   1   0     0   3   4     0   3  20     0   3   0    20   8  16     5  12   1    19   5   0    18   0  16     2   0   0     0  12  17     2   1  16    16   3  10    16   0   8    16   0  11    18   0  14     0   0  14     0   0  16     4   2   0     4   0   1     4   5   1     0   2   0     2   6  16     0   1   4     2   3  14     2   2  14     0   4   0     0   1   0     4   5  16     4   1  16     0   3  12     6   0  18     7   0  19     5   0   1     4   0   0     5   0   1     5   2  17     2   0   2     2   3  16     0   6   0     1   7   0     0   0   0     1   1   0     2   8   0     4   0  20     4   0  16     0   0  14     4   4  17     4   2  16     4   0   0     5   1   2     2   0   2     2   8   1     3   8   0     5   0  16     0   0  16     2   4  18     2   2  18     1  10   1     8   0   0     9  10   5     9   8   5     0   8   0     4   0   0     4   0  16     6   4  18     5   0   1     6   0   2     9   0   5     9   2   5     8   1   4     2   9   2     4   8   0     0   8   0     8   0   4     9   0   5     2   0   2     5   8   1
  1   4   0     1   1   0     0   6   0     0   6   3     2   8   0     0   0   0     0   0   1    18   0  18     6   0  18    19   1   4     1   5   0     5   9   2     2   8   2     4   0   2     7  25   4     3   1   4     4  24  13    10  24   8     0  26   9     9  15   8    13  11   2    10  12   4    14   0   4     2   4   6    10  24   0     2  28   1    11   1   4     2  12   4     2   8   0     1   5  16     1   5  16     1   9   2     7   1   0     1   1   2     0  10  16     0  10  22     1   3  20     3   1  26    10   8   0    11  25   2    24  28  23    28  36  16     0   0  16    17   5   0    19  17   0    19  21  16    10  20   0    10   0   9     0   0   4    16   0   5     0   0  13     1   1  18     2   0   0     3   1  16     2   4  16     3   1  12     1   1   0     0   0  12     0   6   0     5   1  18     5   7  16     1   5  18     3   1  18     1   0   0     0   1   2     1   1   2     0   2   2     0   4   1    16   5   0    19   5   0     1   7   0     0   5   0     0   3  18     4   4   0     0   0   0     1   0   1     0   0   0     0   3   4     1   2   3     0   0   4     4   0   8    16  17   8     4   5  10    16  10   5     0   0   1    24   3   5     4   5   5     1   2   0     2   2   1     2   2   1     1   6   1     0   4   3     3   0   2     0   1   0     1   2   4    16   0   4    16   0   4     2   6  16     2   0  17    22   4   0     2   4   3    16   2   0     0  10  23     0   0  17    20   4  17    20   2   0     4   1   0     0   2  16     0   3  16     0   0   2     3   0  12     2   0   0     0   4   5     0   2   0    21   0  10    17   4  14     0   4   6     4   1  12     4   4   6    22   1   8     3   4   8    16   4  16     1   4  16     0   0  16     0   5   0     0   5   0    17   6  16     1   0  16     3   1  14    15   9   2    17   5  18     2   5   0     0   9  18     2   0   0     0   0  16     0   2  16     0   0   9     0   0  13     2   0   0     2   0   0     4   2   0     0   0   1     0   1   3     4   5  18     4   0  17     2   1  14     2   3  14     2   0   2     4   3  16     0   1   0     4   7  16     0   1   0     6   1  18     0   0   0     5   8   1     3   8   3     0   8   0     6   0   2     6   1   2     4   8   2     5   0   2     0   6   3     1   1   0     0   0   0     2   8   0     2   8   0     1   1  18     0   2  17     0   6  15     4   2  16     4   2  19     4   0  18     4   4  16     4   0  17     4   8  23     0   0   3     0   0   6     1   2  13     2   3  14     2   1   6     2   3  10     0   8  20     8   8  16     3   8  23     0   1   0     6   1  18     4   1  16     6   4  18     6   0  18     7   8   3     7   0   3     2   0   2     0   9   0     6   8   2     4   9   0     4   8   0     2   9   2     8  10   4     4   8   0     4   5   0
  0   2   0     0   0   0     0   6   3     0   0   0     0   0   0     0   0   0     0   0   0    16   8  18     6   0   1    16   0  20     3   9   4     7   1   6     4   8   2     6   8   2     6  16   4     4   0  12    29   3   4     9  27   8    12  26   9     5  11   4    11   1   0     8  24   7    18  24   1    18   0  13     1  25   8    11   5   8     8   8   4     1  13   0     5   3   0     4   4   0     1  11   4     1  11   0     0   0   0    12   0   3     0  10  24     0  10  17     2   0  25     7  17  26     0   0   4    31  33  16     0  36   0    35   5   0    32   4   1    41  45  32    43  41  32    27  21  16     0  16   0    14   0   0     0   0   9    17   1  12     0   4   0     5   3   0     5   3   0     1   7  16    17   1   8     1   1   6     0   0  12    18   0  12    20   0  12    16   2  12    21   3  14     0   0   2     1   5   0     0   4  16     1   3   0     5   3   2     0   0   0     0   2   0     1   1  18     1   1  16     1   1  16     0   5   0     0   6  18     5   2   3     4   0  16     6   0   0     0   2   8     0   0   4     0   2   0     1   4   8    21  16   9     5   5  11    13   9  13    24  29  21     5   1  21     8   8   4    20  23   9    18  23   9     0   0   4     2   3   1     2   0   0     2   5   3     2   4  12     0   0   0     0   2  12     0   0  12     1   2   4     4   6  16     4   6  17    17   4  17     7   4   0     7   2   1     0   7   3     0   2  16     0   6  21     1   6  13     0   6  12     0   4   4     0   1  17     0   0   5     3   4   0     2   2   9     0   2   5     1   2   9    17   6   1    17   0   1     0   4   4     0   7  12     0   1   0    22   5   8     1   0   8    18   4  17     2   0  16     0   0   0     0   0  17     2   0   1    17   6  20    12   0  10     3   0   2     7  13  10    22   0  18     0   4   0    17   0   3     2   4   1    22   7   2     2   0   1    22   0   0    18   0   8     0   0   0     0   2  16     1   2   0     4   0   0     4   3   1     0   1  17     0   1  14     0   0   0     0   1  12     2   6   2     0   0   0     0   1   0     2   0   2     2   4   2     0   0   0     7   8   3     0   8   0     4   8   0     4   1   0     4   9   0     2   8   2     1   8   1     5   2   0     0   2   0     1   1   0     0   4   0     1   1   0     6   0   0     0   2  18     0   0   1     0   6  15     2   0  14     2   0  14     0   0  13     0   4  12     0   0  12     2   0  13     2   0  13     2   0  12     0   0  12     0   0  12     1   0  13     3   0  15     2   0  10     2   2  10     3   8  23     4   0  16     5   0  17     3   0  15     3   6  15     4   4  16     2   8   2     1   8   1     1   0   1     6   6   2     6   1   2     4   4   0     6   4   2     6   1   2     6   4   2     6   0   2     4   4   1
  4   0   1     0   2   0     0   2   0     0   4   3     2   0   3     2   8   3     2   8   3     6   0  17     2   0   3     0   0  19     9   1   4     9   3   4     5   1   6     5   1   2     7  25   2     9   7  10    29  27   0     0   2   8    12   4   0    12   8   4     0  24   4     9  17   0     0   0  12     2   0  13    25  25  12     8  24   8    13  11   2     1   1   2     5   3   4     8   2   5     9   3   4     4   0   1    14   0   2    12   4   3     8   6   9    12   8  17    12  16  17    14  16   1     6  24   8    27  33  16    20   4   5    32  34  32    36  32  33     1   1   0     5   1   0    32  40   0     2  16  20    22   0  14     0   0  15    17   1   8     1   7  16     5   3   0     5   3   0     0   4   0    17   1  12    17   3   0     1   1   0     0   0   2     0   2   0     1   1   0     2   0   2     1   5  14     0   0  12     1   1  18     1   5  18     0   2   0     0   0   1     4   2  20     0   0  18    19   1  12    17   1  12    16   2   8     0   6  13    21   2   9     4   2   0     4   1   0     0   1   0     0   4   8     0   2   8     4   4   3     0  20  13    20  21   1    12  12  12     8   8  20    20  21  17     0   1  17     0   1   5     0   4   0     0   4   4     1   2   6     0   0   4     0   2   6     1   4   8     4   5   1     0   4   0     0   4  14     2   4   6     0   6  16     4   0   0     2   4   0    31   9  18    18  10  17     1   0  19     6   6  17     5   6  17     0   4   1     0   0   0     5   1  12     5   0  13     4   0   9     5   0  13     2   0   8     1   0   0    23   2   1     5   0   1     2   0   0     4   0   2    16   7   4     2   1   6    18   4   6     2   1   8    16   6  16     0   0  17     0   6  18     0   4  19     0   0   1    20   4  18     2   4   9    12   2   3    17   2   8     1   9  10     0   9   0    17   4   8     1   2   8    22   4   8     0   4   1     2   2   0     0   4   0     0   6   0     4   6   0     4   4   1     4   3   5     8   5   7    24   4  19     0   0  10    18   1   6     0   0   0     4   5  16     4   4  16     0   4   0     1   4  13     1   4  13     0   4   8     5   0  17     6   4   2     6   5   2     4   1  16     6   4  18     0   0   4     5   2   0     0   6   1     5   3   0     0   0   0     4   4   0     1   1   0     4   4   2     0   2   2     2   0  14     0   6  15     2   0  14     2   0  14     2   0  15     0   0  15     1   1  14     0   0  14     0   0  14     0   5  14     0   0   0     4   0  16     0   0   0     0   2   0     0   3  12     0   3   8     0   9  20     6   0  18     5   0  17     3   0  15     3   6  15     4   4  16     2   8   2     1   8   1     1   0   1     2   0   2     5   4   1     0   1   0     4   1   0     4   4   0     6   1   2     6   4   2     0   4   1
  4   0   0     4   6   0     4   6   2     4   6  18     4   4  16     6   8   0     4   8   2     2   8   1     6   0   0     0   8   3     8   0   5     9   3   6     8   8   0    12  12   2     8  18  12     0  26   8    28  26   8     8  26  13     0  16  28     9   9  18    12  16   4    10   0   6    26  32   4    24   0   4     8  24   8    10   0   0     4   8   4     1   1   2     4  12   0     8   0   4     8   0   0     8   0   4     8   2   0    12   4   1     4   4   0    10  24   8     8   0   8    10  24   9    14  24   0     5  25   4    24   2   5    24   4  16     8  34  21     4  40   0    44   2   5    26   0  18    20  26   4     0   0  16     3   1  20     2   4  16     3   1  16     2   0   0     1   1  18     0   0  13    16   0   5     0   0   0     1   1   0    17   1   0    18   0  12    22   0  12    21   5   0     0   4  12     0   4  12     0   1  14     3   0  13     0   4  16     4   2   3     5   6  20    20   0  11    17   3   6     2  19   4    14  17   0     0   3   1    19   0   0    22   1   8    16   0   8     4   3  12     4   6   0    24   2   5     0   2   0    14  16   0    20  18   1     9  10  17     1   1  25    16   1  12     1   9   1     1  24   3    11  11   1     0   5  12     1   4   9     0  21   8     1  17  11     3   0   9     8   0   8    10   0   8    17  20   7    23  20   6    17  20  21    12   4  16    10   2   0    15   8  18    15   8  19     3   8   4     2  26   5     3  16  20     0   0  12     2   1   8     4  17   1     5  21   4     1   2   4     1   1   0     3   0  12    18   0  11    14   1   8     0   0   0     0   1   0    12   1   0    18   1   4    16   5   4     2   4   2     0   0  10     0   4  16     0   4  16    18   4  17    18   0  17     2   4  16    18   0  19    18   0   8    14   0   0    16   4  13    21   0   7    20   4   4    21   2  15     0   1   1    22   4  14     2   0  11    18   4   3     0   5   9     0   4  17     5   6  20     1   4  20     0   3  16     8   5   4    24   5  16     0   0  10    16   4   8     0   5  12     0   5   0     4   1   0     0   0  12     0   4  12    19   4   7     3   0  15    19   0   3     6   0  18     6   4   2     4   1   0     1   0   1     1   0  21     1   4   0     0   5   0     1   1   0     1   1   0     4   0   0     1   1   2     5   1  16     1   7   0     2   0  14     0   6  13     4   2  17     4   2  16     0   0  17     0   4   0     3   5  14     2   4   0     1   4  14     1   4   2     5   4   1     1   0   1     5   4   1     6   4  18     0   7  16     2   3  22     0   8  20     0   1   0     6   1  18     4   1  16     6   4  18     6   0  18     7   8   3     7   0   3     0   9   0     2   1   2     4   1   0     2   1   2     4   4   0     2   4   2     2   8   2     5   4   1     5   0   0
  0   2   1     0   0   0     0   0  16     0   0  17     0   4  17     0   2  21     0  14   1     0   8   0     0   0   3     4   8   2     0   0   0    11   1   4    10  24   0    21   1  20     1   1  16     0  24  17    20  28   3     8  10  23     0   8  22     0   8  16     2  16  26    10  24   0    10   0  20     0   6   9     9  11  22     0  10   1     5   1   0     4   8   3     1  11   0     8   2   2     3   1   4     1   1   2     4   0   0    14   0   0    10  24   3     0   4  11     0  18  11     8  20   8     9  11   0     8   8   0     0   2   0     0   2   8     4  24   0    28  18  16    16   0  16    16  16   1     1   9   0     3   1   0     0   2  20     3   1  16     2   0  16     2   0  16     0   6  14     0   2   3     1   3   2    16   2   1    16   2   0     0   2  12     1   1  12     1   1  18     4   2  18     1   1  18     0   4  12     0   0  12     2   0  14     1   2  16     4   0  16     5   4  16    16   1   8    13  17   4     3   3   0    13  16   0    16  17   0    17   0   0    16  16   8    22  20   8    28  17   0     4   9   2    28   0   4    12   1   5    12  16   5     5   6  17    44  32   8    36  32   8    16   0   2     1   1   1     3  24   1     9   1   5     2  21   1     0  17   8    16   0   0    20  16   1     3  16   1     0   7   8     0   0   9    19   4   7     6   0   0    16  21  16     8  21   4     8  21  20     0   8   0     3   8   4    11   8   4    17   0   1     6  14   6    22  16   2     0  18   0    20   3   8    20   2   1    17   3   9    20  18   1    16  16   0     0   0   1    14   0   0     0   1   0     0   1   8     0   0   0    15   0   1    16   2   3     0   5   3     4   5  12     4   4   0    16   6   1    20  22   9    17  16   8    16   4  11    19   0  10     2   4   9    10   1  10    17  21   9     9  17   6    17   3   9    17   2  11     0   2   0    20  22  14    16   4   6    14   1   4    16  17   1    20  17   1    16  16   8    23  18   9    16   6   4     0   1   0     0   0   8     1   0  14     5   4   1     0   7   0     4   4   0    18  17   2     0  17   0    16   0   8    16  16   4     0   4  12    19  16   3     2   0  18     4   4   0     0   5  20     1   2   1     0   4  20     0   0   0     0   4   0     2   0   0     2   0   0     5   3   0     0   0   0     4   2  16    20   4  12     2   0  13    20   4  12     4   2  18     4   2  17     0   6  17     0   4   0    16   4   0    17   5  12    22   5   0     6   4  16     5   2   1     0   8   0     5   2   1     0   4  16    20  20  16    20  25  16    25   8  17     7   8   3     4   0   0     4   0  16     6   4  18     5   0   1     6   0   2     9   0   5     8   0   4     1   8   1     1   0  17     4   6  16     5   6  17     0   5   0     1   8   1     4   0   0     4   8   3
  2   2  18     2   0   1     4   0  16     2   4  16     0   6  17     0   2  16     8  14   5     8   8   0     0   8   2     6   0   2     8   0   3    10   0   1     8   0   0     1  29   0    17   1   0    24  16   1    18  16  21     2   0   3     2   0  11     2   0  30     2   0  20     0   0  13     8  32  18     2  20  13     1   7  16     4   6   0     0   2   2     6   0   4     4   0   4     1   1   4     2   0   0     5   3   4     0   8   5     0   8   0    12  16   6    14   0  12    12  32  10     1  19   2     0   0   2     2   8   0     9   9   0     8  10   6     1  11   6     0  24   2     8  16   0     2   0   2     0   0  23     2   0  16     0   6   1     3   1   0     2   0  16     2   4   0     0   0   2     0   0   2     0   0   0    16   2   0     0   0   1     0   0   8     1   7  18     0   2   0     5   7  16     0   2   0     0   6   1     1   0  12    16  18  12    16  20   9     1   0   8     1   4   8     0  17   9    12   2   0    10  14   0    22  21   1    20  17   9    17  16   8     8   0   9    12   8   8     7  24   0    29   3   0    21  17   0    18  18   6     8   0   4     4   2  16    44   0   0    36   2  24     0   8   0     1  25   1     1  13   1     1  13   1    16   4   1     0   1   0    19  10   2    21   1   1    18  13   2    22  17  12    27  18  15    34  16  27     1  20  19    33  24   0    26   8  16    28   4   4    26  16  12    26   0  12    21  24   5    21  22  12    18  18   4    22   2  22    16   2   3     5  14   0    20  12   0     6  19   9     7  17   1     2   0   6     7  16   2    24   0   6     0   0   0     6   1   8     7   0   8    19   1   1    17   2   5     2   5   6     4   7  14     6   0   0    20   5   8     4   5   0    13   1   0     4  20   8    23   0   8     2   0   8     0  16   0    12   0   0     9   0   4    17   5  12    16   2  15     0   1   0    22  28   9    20   5   5     2  17  11    16   0   1     0   3  11     1   0   4     1   2   2     0   0   0     1   0   8     1   0   5     1   0  17     0   4  16     3   4   3     0   6   8     2   2   2     0   3   0    16   0   8    16  20   4     0   5   0    17  26  13     2   3  10     1   2  21     1   0  21     4   2  16     5   0  17    17   6  16    27   0  16    18   4   0     1   5  16     0   6   2     4   0  17     4   2  17    16   6  16     6   0   1    19   5   2     2   0   1     0   4   7     0   4  20     0   0  20     0   4   5     2   0  15     2   0  20    10   8  16     1   8   5     1   8  17     1   0   5    17  20  17     0   0  16     9   0  17     8  10   4     2   1  18     0   2  16     4   0  16     4   1  16     0   1   0     0   8   0     8  11   0     0   3   4     0   3  20     0   4   0     0   2   0     1   4   1     5   6   1     1   4   1     5   4   1     0   2   1
  4   1   2    21   1  18     4   6   1     2   0  16     0   0  16     0   0   4     8   0   4     8   8  20     8   2   1     2   8  20     2  12   3     2   8   5     8  28   0    20  20  16    16  16  16    18  20  16     2   8   2     4   8   3     0   0  20    14  16  30    11   1   0    14   0  13     5  17  12     1   3   4     0   0   4     0   0   0     4   6   3     1  15   0    11   1   0    11   1   0     8   0   0     0   8   0     8   4   0     3   1   0     6   0  16    18  32  18     8  32  16    17  23   0    13  17   0     1   5   0     3   9   0     9   3   4     8   2   6     1   1   2     1   9   2     0   4   0     2   0   0     3   1   0     0   0   0     3   1   0     2   0  16     2   4   0     2   4   3     0   2   0     0   0   0     0   2   2    18   0   3     0   2   9     2   0  16     1   5  16     0   6  16     1   1  14     0   0  13     0   3  12     4   2   9    20   0   8    20  20   8    20  21   8     0   5   1    16  17   0     4   3   9    19  16   8     1   2  12     3   0   8     9   8   0    17  24   2     2   0   0    21   9   0     1   1   2    58  56   6    57  11  15    22  26   4    42   8   8    38   4   0    32   0   0     0  20   0    16   4   1    11   5   0    24   2  11     0   2   0     4  10   0     1   1   0    21   1   5     5  17   5     8   0   0     2  16  17    34   0  14     1  13   2     0  13   0    21   1   0    20   1  12     0   0   4    25  16   4    28   4   8     0  20   5    48   0   6    48  38   0    48  10   0     6   7   0    11   1   0     4   9   0     8   0   0     8   0   6    24   8   4    16   2   2    24   0   0    13   3   0     0   3  11    20   1  10     2   2   7    20  16   5    18  21  11    20  16  10    26  29   2    24   1   0    10  19  10    17   4   2    19   4  13    28   5   0    16  20   0     1  17   0    16   2   0     0   0   4     4   5   3    22  28   3    10   4   6     2   0   0     0  16   9    20  17   5    20  22   2     6  16   0    16   0   2    17   0   4     1   0   1     2   0  14     0   0   4     0   4  12     1   6   9    18  18  10    20  23   8     4   3   0    22  21   2     0   0  12    19  18  15     0   0   8     2   3  10     2   2  18     4   0  16     4   0  16     5   2  16     1   1  12     0   0  12     2   4  14     2   0  14     0   2   3     2   0  12     2   0  15     0   4  14     2   0   3     2   4  14     2   0  11     0   0  11     7   1  20    18   0  20    21   1  20    23   0  20    10   9   4     0  11  20    24  17  16     0   1   8    24  24   8    16  24  12    24  26   8    20   0  16     1   2   1     5   6   1     2   6   2     4   0  16     0   2  16     4   4   0     1   2  17     1   4   1     0   4  16     5   0  17     5   2  17     5   0  17     1   0   1     1   0   1     1   0   1    21   2  16
  5   6  18    22   0  20     0   4   1     3   5   0     5   5   0     3   9   4     8   0   0     0  10  18     8   0   4     8  10  29     8   8   1     0   2   4     8  12   1    12   8   1     4   2   1     1   3   0     2   8  17     0   0  19     8  16  13    14  32   1     7  33   4    12  32   8     6  16  12     5  17   4     2   0   0     4   8   0     2   8   1     6   0   4     3   1   0    11   1   0    10   0   0     8   4   5     8   8   3     8   8   0    16  18  18     4  32   4     0  32   2    17  25  10    12  24   8     4   2   0     1   1   2     0   0   4     1   1   6     8   2   0     4   4   0     4   6   0     4   0  16     2   0  16     4   0   0     4   2   1     0   0   1     2   0  16     2   4   0     2   4  12     2   4  12     0   0  13     0   4   1     0   6  13     0   0   2     1   7   0     0   0  12     0   0   2     0   2  12     1   2   0    22  20   0     6   0   8    19   0   2    20  16   0    16  21   1    22  22   2    16  17   3     2   0   0    13   4   6     0   0   0    24  20  10     1   5   2    27   1   3     0  26   4    25   9   4    50  50   2    58  40   0    16   8   4    42   0   4    43  17   1     9   1  17    48  16   0     8   0   0     0   4   0     8   2   8     6   0   2    20   2   0    18   0   2    24   8   8     0  16   0     0  48   0    46   6  41    10  56   0     1   8   8    33   8   8    36   4   8    12   1  12     8  17   2     9   0   0    76  82  10     9  16   5    32  32  14     0   0   0    18  10  18    51   8   3    70  48  24    67   0  49    72   1  48    25   9  25     8   8   4    17  29  24    16   0   0     5   1   0     1  11   0    17   3  12    17  25   6    18  21  10    22  23   0    22  17  10    18   0   8    24  17   1    26  21   1     6  23   0    16  14   1     4   8   0     6  16   0    16   0   0     0   4   8     4   4   0     0   0   5     4   4   4     2   0   0    17   0   0    19   1   1     1   0   0     0   1   0     1   0   0     1   0   0    18   0   3    19   0  15     3   0  15     2   0  14     3   4  15     1   0   1     0   6   0     4   4  16     5   4  17    20   6   8     1   4  13    16   2   4     1   2   1     0   0   0     3   0  11     4   6  16     5   2  17    20   2   1    18   1  12    17   1  12     3   1  12     2   4   3     2   4   1     0   4  15     0   4  14     0   0   2     0   2   1     0   0  13     0   0  14     2   8  19     6   8   1     1   1   0     3   5   0     2   4   2     0   9   0     0   0  16    16  18   8     0   3   0    24  25   4     0   0  20     0   1  16     4   3   0     0   3   0     4   7  16     2   2   2     3   4   3     1   6   5     2   6   6     2   1  14     0   2  12     2   6   2     1   2   1     1   2   1     0   6   0     0   6   0     1   2   1     1   2   1    21   4   0
  3   1  20     1   3  20     0   2   0     1   7   0     1   5   0     0   8   0     6   0   4     0   8  21     2   8   1     8   2  18     8   0   0     0   2   1    10   8   2     8  12   0     0   0   3     0   8   0     0  10   2    12   8   1     0   2  13     3   1   0     4  26  12     9  25   4     1   9   4     7   9   0     4   8   3     6   0   3     6   0   0     2   0   4     9   1   4     0   0   4     0   6   5     0   4   4     0   0   4     1   3   4    25  25   4    24  10  27    24  14  26    24  24   9     4  26   8     8   8   0     6   0   1     0  10   5     0   0   5     0  10   4     7   1   0     7   5   0     2   4   1     2   4   0     0   0   0     4   4   0     6   4   0     2   0   0     2   0  16     0   0   1     0   0  15     2   4   2     2   4   1     0   2  13     2   4   1     0   2  14     0   2   0     0   0   0     0   0  12     0   0  12     2   1   0    18  21   0     2   0   8    22  21   8     0   1   3     2   3  11    24  24   0     3   2   0    10  10   0    18  19  10    17  25  12     1   1  12     7   9   1    16  24   8    16  16   3    50  56  12    40  32   6    17  24   4    53  49   5    48  34   4    33  17   1     0  44  32     2   0  38    72   0   8    10  34  62     4  40  24    58  40   2    16  16   0    24  16   0     8   0   0    12   0  48    78  67  12    66  56  45    83  13  29    64   0   0     0   0   8    49  16   0    57   1  32     8  48   4    11  71  34    97  22   5    64  32   6    18   0  18    22   8  18     0  56   0     6  14  50     0   0   2    64   0  48     8  33  32     4  37  16    47  37  17    56   4  24    14  34  16    36  36  21    49  48   4    16  56  14     8  53   0     2   4   2    12   4   9    22  17   8    30   1   8    20   5   8    16   6   0     0   0   7     0   0   1    16   0   1    20  18   0    18  18   6    16  16   0    16  16   0    22  18   4    18  18   9    18  16   8    19  16   8    17  17   9    18  20  10    18   0   9    16   0  10     0   0   8     1   0  13     2   5  14     3   0  15     2   1   2     4   0  16     0   1   0     0   3   0     4   4  16     4   2   0     5   6   1     1   0  13    18   2   6     0   1   0    22   2  10     4   4  16     4   5  16     0   7   0     0   1   2     2   4   0     0   0   0     0   0   0     0   0   0     0   0   0     0   0   0     0   4   2     0   2   0     0   0  13     0   2   5     6   8  20     5   9   0     3   1  16     1   1   0     3   1   2     2   0  20     0   0   8     3   4  11     0   6   8     0   3  20     4   3   0     0   0  16     4   0  16     0   3   0     5   6  17     5   2  17     1   4   5     1   4   1     3   4  15     3   4  15     0   6  12     4   7  16     4   0  16     0   5   0     6   6   2     6   6   2     0   5   0     4   0  16     5   4  16
  2   3   0     1   9   4     0  10   5     0   6   1     3   1   0     0  10   5     0   0   5     0  10   0     5  25   0    11   9   0    10  20   0     0   4   0     9  15   0     8   0   4     8  10   1     0   8   1     0   0   1     8   0   5     8  24   1    14  24  12     9  27   0     9   9   4     3  13   6     4   0   0     6   8   0     4   0   3     4   0   3     0   0   0     0   0   4     0   0   4     0  24   3    10  24   2     0  24   3     4  24   4     5   3   4    29  35   4    29  33   6     4   0   0     4  28   0    13  11   0     1   1   4     9   3   0     0   2   4     1   3   0     1   5   0     0   4   1     4   2   1     2   8   3     0  10   2     4   8   1     0   4   0     4   4   0     0   0   0     3   5  16     2   4   0     1   1  12     0   0   0     0   2   1     0   2   1     0   2   2     0   0   2     0   0   0     1   1   0     1   3  12     3   0   1     0   0   0     6   4   0     0   0   0     4   6   8     3   3   1    16  16   0    18  18   8     8   8   0    12  12  10     8   8  12    16  16   8     8   9   3    16  16   8     8   1  17    10   0   8    32   0   2    25  32  32    25  54  32    61  52  36    48  17   5    32  17   1    64  48   0    80   8  32    10   0   8    46  40  26    44  49  11    26  19   2     8   8   0    12  16  33    28  49  41    60   5  33     2  34   1     1  44  16     0   5   0    48   0   8     0  19  12    80  69  30    83  64   1    91  66  19    75  42   1    66  42  56    43  40   0    35  42   2    32  40   8    66  40  32     8  32  48    10  34   0    36  37  21    32  41   1    51  40   4    52   0  25    46  18  32    12  38   3    68  49   7    64   1  34    24  13  15    18   1   6    18  35  26    52  36   0    46  36   0    30   3   1    14   1   1     8   0   0    12   1   0    21  19   0    24  20   0     0   0   8    12   6   0     0   4   2     0   6   0     1   0  11    18  16  12     0  16   0    13   0   0    16   0   4     0   0   9     5   2   9    20   1   2    16   0   0     0   5   8     0   4   0     4   1  16     2   3   2     0   3   0     4   0  16     4   2  16     1   6   1     0   4   0     1   6  13    22   4  10     1   0   1    17   2   9     4   7  16     4   4  16     2   7   0     2   1  12     3   5  12     2   4  14     2   4   1     2   4   1     2   4  15     0   6  14     0   0  15     0   2  15     0   2  12     0   0  17     6   8   4     6   8   0     2   0  17     1   3  16     2   7  14     1   1  14     3   6  15     1   6  13     2   5   6     0   0   0     0   0   0     0   0  20     4   4   0     1   2   9     4   3  16     2   0   2     3   4  19     1   6  13     0   2   0     2   1  14     0   2   0     0   1  16     4   6  16     4   4   0     6   9   2     6   9   2     4   4   0     4   6  16     0   0  16
  2   2  16    10  12   4     8   2   7     4   2   3     0   8   3     0   8   0     2   0   4     0   0   5     2  16   0    14   8   0    12  16   3     8   0   1     2  12   2     0   0   2     2   8   0     4   8   3     8   2   1    11   1   0     9   1   0     5  15   0     0  14   2     8   0   4    10   0   6    12   4   0     8   4   0    14   0   2    10   0   2    10   0   6     8   0   7     2  24   4    24  24  12    10  32  14     0  32   0    19  33   4    26  32  12     6  32   2     6  32   1    24  32   8    24   2  10     8  26   2     1   3   6     0   0   0     8   2   7     0   8   0     0   4   1     4   4   0     0  10   0     2   0   6     9   1   2     4   0   4     5  11   0     7   5   0     1   5  16     2   4  12    17   1   6     0   0   0    16   2   2     1   3   2    16   2   0    16   2   2     1   3   2     1   1   2     0   2   0     0   2   0     0   3  12    18  17   0    16  18   0    18  17   0    16  18   6     1   1   1    26  26   2     3   3   3    19  19  25     0   0   0    24  24   8    24  24  20    24  25  17     4   0  16     0   0   0     0   0   0     0   0   8     1  16  32    64  27  33    81  33  45     0  48  32     0  41  45     0  36  36    18  32  44     1  12   0    16   8   2     8   9   8    14   3   2     6   3   3     4   3   0    18   0   1     0   0  24    40  14   5    56  11   0    16   6  14    12  15   8    56  25   8    89   0  11   104   4  20    57 109  13     1  24   9    64   4  16    71  10   9    81  74  56    75  24  33     6   8  16    64  36  32    34  33  18    52  33  16    48  33  16    32  32  20    17  40  25     0   4   5    67  12  50    77   4  35    64   1  55    88  32  11    10  44  24    40  38  30    40  32  34    60  34   8     0  32  18    36   0  16    36   1   2     0  37  17    40   4  16     8  22   0     0  18   0     0  16   0    25  24   0     9   0  12     0   0  12    20  16   4    16  20   4     2   4   0    16  16   9     0   2   8     2   4  14     2   4   0     2   4  10     4   4   0     4   5   0     4   4  16     2   0   2     2   0   2     4   5  16     5   0  17     5   0  17     5   6  17     4   2  16    18   6   2     0   0   0    20   3   8     4   6  16     4   5  16    22   1  10     2   0   2    16   0   3     0   0   3     2   4   3     2   4  14     2   0   2     0   0  19     0   0   3     0   6  16     0   0  16     4  10   5     2   0   5     0   0   1     4   0   1     1   3   4     1   2  14     0   2   2     1   0   1     2   0  14     2   1  22     0   5   0     4   5   0     4   6  16    16   7   0     2   1  14    18   1  10     0   5  16     2   4  18     4   6  16     0   5   4     0   3  16     0   2   4     0   5   0     4   6  16     4   4   0     6   9   2     6   9   2     4   4   0     4   6  16     2   0   0
  2   0  17     0  12   4     2   0   7     4  12   1     4   0   3     1  15   0     8   0   5     0   0   5    12  24   5    14   0   1     8  16  31     0  10   7     0   2  18     3   9   2     7   9   0     0  14   0     8  14   0     8   2   4     3   1   0     4   0   4     5  11   0     0   8   3     0   0   0    10   4   1     1   5   0     0   4   4     9   1   6     8   0   6     9   1   2     7  25   8    28   0   1     2   0   1     0   0   5     2   0   0    25   1   4    24  32   5     4  32   2     0   0   3     2  32   2     1  25  14     1   1   6     1   1   2     9   1   4     0   8   1     4   6   1     2   0   0     4   8   0     0   0   4     8   8   5     4  10   4     5   5   0     1   5  16     0   6   2     1   1   2     1   1   0     0   2   2    16   0   0    17   3   0     0   2   5    17   1   6    16   0   2     1   1   2     0   0   3     0   0   0    17   0   0     3   2   9     2   0   0     4   1  10    20  16  10    16  19  24    24  24  16    25  18  19     9   9  17     9   5  17     8  20  24    32   4   1     0  33  17    34  37  16     8   1  10    56  49   0     8  51   8    49  50   0    80  59  40    68  84   5    80  16   1    24  33  33     0  32   1    35   8   0    36  24   0    39   0   8     2  12   9     6  21   4    22  14  14     4  17  34    16  57   8    32  57  12    40  40  12     8   8  24    24  15   8    88  70  16    81  33  20    64  69   1    19  70  41    85  18   1    68  26   8    69  50   0   103  24   2    97  64   8    21   4  20    38  33   0     3  35  18    52   9   2    16   1   4     2  40   7     2   0   9    48  32   6     1   1   0    65   3  34    72   0  35    77   9  37    89  16  25    88   0  29    91  20  61    89  10   1    90  32   0    66   0  32     6   1   0    13  16   8    12  21   9    11  21   8    10  16   9    10  16  16     5   1   0     8   2   8     9   5   3     0   0  12     5   5  11    20  21  15    20  17   9     0   7   4     2   2   1    22   2   8    23   0   9    18   1   8     0   0   8     0   0  12     0   1   0     6   5  18     2   4   2     6   0   2     2   0  18     1   0  17     6   7   2     0   2   0     4   7   0     2   0  14     2   0  10     4   4  16     6   6  18    18   3   8    16   2   0     0   0   0     0   2   0     0   0   2     2   4  14     1   1  16     1   1   0     3   1   0     0   4   0     0   0   5     0   8   5     0   8   5     2   8   1     4   0   3     4   2  18     0   1  14     0   3   2     3   0   3     2   0  10     2   0  22     1   0   1     4   4   0     4   0  16    20   5   0     2   2  10    16   0   4     0   2  12     0   0   0     4   4  16     6   0  18     4   0   0     2   2  18     4   5   0     4   0  16     0   5   0     6   6   2     6   6   2     0   5   0     4   0  16     0   1   0
  3   0   0     0   8  20     4   0   2     4   8   0     6   0   0     8   8   3     0   4   0    10   4   1     2  24   0    10   0   5     1  17  18     0  10   0     1   9  16     1   1   0     4   2   0     5   7   0     4  12   0     3   1   4     0   0   0     0   8   4     3   9   0     2   0   0     7   1   0    14   0   5    14   0   4     3   5   8     1   1   0     2   0   0     0   4   0    12  28   0    24  34  10    33   3   4     1   1  26     1   1  30    32  32  26    24  36   2    26  32   0     1  33   2     0   2   1    25  33  10     1  27   4     1   3   2     0   2   2     0   0   7     4   0   0     2   8   0     4   8   0     4  11   4    16   8  17    20   1  17     1   2  20     0   4   8     1   4  12     0   5   1    21   0   2    20   1   2    17   1   4    17  17   4    15   1   8     4  18  10    16   0   4     0   0   6     0   0   7     0   0   0    16  17  12    16   1  12     2   8   2    20   2   0     0  20   6    32  27   3     8   1   0    33  19   0    56  40   4     0  32  16     0  32   4    32  34   1    40   4  19    32  36   7    35  36   2    34  48   1    28   1  33    69  20   0     8  64   3    66  64   0    58   1   1    10   0  48    33   0  17     4   2  21     1   2   0     4   0   0     0   0   0    10   5  20     4  15  14     4   4   2    48  35  10     0  40   8    36  44  13    48   5   1    72  79  24    12  32  24     8  41  73    92 104  25    64  48  32    80   4   4    69  30   1    76  16   1    33  36   1     4  48   0     4  36  32     4  32  16    10  24  32    68   9   0    50   8   0    38   6   0    32  36  15    32   1   4    33   0   5    35   1   2    33  10   0    17  16  16    21  16   4    67   0  41    66  25   2    66  16  41    72   5  35    64   2   0    32  16   3     9  49   0    12   0   0     0   4   0    37   5  17     9   5  16     9  17   9    24  26   4     1  17   0     0  16  10     4   4  10     4   4  10     2   0   1     2   3   3    17   2   0    19   2   0     0   6  12    16   0   8     0   1   8     0   0  12     0   0  12     0   3  14     2   2  16     5   1   2     1   8   0     0   0   0     0   7   0     0   3   0     6   6  18     4   1  16     6   1  18     4   0  16    16  20  16     4   4   0     3  16   8    18   0  12     2   0   2     2   4   3     2   4  14     1   5   2     0   4  18     0   4  16     2   0   0     1   9   0     2   8   5     0   8  16     6   0  16     4   6   0     4   2  16     0   3  14    16   0   5     1   2   1    21   0   9     2   2  18     6   0  18     0   4   0     0   7  16     2   2  18     2   3   6     2   1   6     0   0   0     0   5   0     4   5  16     4   4   0     0   3   0     2   2  18     6   7  18     1   2   1     1   2   1     0   6   0     0   6   0     1   2   1     1   2   1     1   0  16
  4   0   0     3   1  16     4   8   2     0   8   4     8   0   0     8   2   0     0   0   8    10   0   8    27  25   2     2   0   9     9  17  10     0   0   0     0  10   0     2   2   0     3   2   4     6   0   0     9  12   4    11   0   4     7   0   0     3   8   0     3   9   0     0   8   0     2   8   0    13  24   4    11   1   6    25  25   0    18  25   6    16  24   0    18  25   7     1   3  12    25   2   8     1  34   2    32   1  30     2   2   2    35  32   0    26   4   1     2  28   0     6  28   0     0  32   0    16  17   8     8  24   7    11   0   3     0   2   0    10   0   3     1  10   2     2   9   0     4   0   0    16   8  17    20   2   0    16   0  17    21   1   0     1   6  22     0   0   6     1   1   8     0   0   8     1   1   8     2   0   8    19  17   0    24  17   0    16   1   2     0  16   2     0  18  10    16  16   0    16   0   0    17   0   0     1  16   0    32  32  10    48  32  18     2  34  24     0  35   0     2   8   0     0  25   0     2  40  16     2  40   0     2  32  16    36   4  16     1   1  18    32   4  49    66   4   0    82  33   0     0   1   1    60  51   1    29  17   1    11  48   1    67  16  33    65  64  49    73  64  33    38   2   4    33   6  21    36   0  20     2  40  28     8   4  52    20  52   4     4   4  16    32   2   2     4  34  11     8  36  17    92  44  65    92   9  97    99  35  80    92 108  67     0  96  27    76  76  35     8  72  19     4   4   5    10  26  34    84  36  18    64  32   0   116  36  20   116  36  21    96  16   0    32   0   1    40  24   3    50  32   2    52   6   0    38  33   0    36  32   0     3  34   2    16  38  17    40  42   1    40   4   1    42  26   9    34  20   1     2  16   3    64  20  32     0  16  33    96   4   1    96   0   0    52  36   0    70  36  16    34   5  16    25  32   0    17   0   1     9  19   1    17   0   3     0  18   1     4   0   3     4  17   2     0  20   1     2  20   8     2  18   0    26   2   0    12  18   1    16   2   1    16   0  12    16   0   0    16   0   2     0   4  14     0   5  18     1   7   0     0   1   0     0   2  16     6   1  18     4   7   0     2   7   0     1   0  18     1   4  16     1   0   0    20  16  17     0   4  16    17  23   0     1   1   4     0   4  12     2   4  14     2   4  15     0   4  11    19   5  10    19   5   0     1   3   4     0   2  20     0   0   1     0   2   5     0   0  16     1   7  16     4   0  16     0   6  17    26   0  15     1   2  11    17   2  19     5   2  16     6   6  19     0   0   0     0   2  18     0   1   4     3   2   2     1   2   8     2   0   3     3   0   8     2   8  17     7   4   0     2   0  23     0   2   1     4   4  16    17  16  17    17  16  17     1   0   1     5   2   1     1   2  17     0   2  16     4   6  16
  2   7   2     0   2   6     2   0   2    10   0   2     8   0   1     2   2   8     0   2   1     3   1   8     3   1   8    16  16   6     0   0   2     2   4   0     9   9   4     0   0   0     0   2  22     3   4   0     2   8  16     4   0   4     6   8   4     2   0   0     3   0   4     3   8   0     5   8   4    10   0   4    14   1  10     2   0   8    25  32   2    26   5   8    26   1   0     0  33   2     3  33   8     0   2   6    32  34  22     1   2   0    34  33   2    26  25   0     1  28   8    25  28   8    24  32   1    15  16  10    10  25   6     2   1   2     3   0   4     0   1   0     0  13   6     6   8   2     4  10   2    22   8  17     4   3   3     4   2   4    16   0   6     0   2  14     0   0   0     0   4   6     5   1  14     5   1   5    19   0   4     2  20   4    17  20   0    16   6   0     0   0   0    18   0   0     0  16   0     0  32  10    17  44   1    41  41   0    17  44   8    56  32  32    34  33  41    16  41   5     4  40   0     0   0   0     0  32   0     6   2   2     2   6   6     0   4  18     5   1  20    64  64  36    17  76  63    74  12  16     8  16   9    56  48   2    13   0  33    28  32   0     0   0   0   109  96   1    11   2  17   102  98  16    35  39  21    43  33  17    42  36  20     6   0  16    36  28  12    36  42   8    36  40  26     4  11  11     4  64  25    92 102  65    12 106  64    92 111  64   120  97  64    48   0  24     0  64   1    84   0  17    72  72   7    96  64  26    45  93   2     1 113   0     4  68  32     0  80  32     0  64   1     0  64  33    72   8   1    66  34  32    82  34  35    68  21  33    34   0  21    50   0  21     0   6   1    10   0   9    44  37   1    46  56   2    40  57   9    40  48   1    24   7  16     0  52   2     8  32  18    36   0   0     0   4   2    60   5  17    52  33  16    17  33  16    88   1  28     9  35  27    25   2  19    17  57   2    16  24   0     0  16   6    18   0   4    26   0   0     8   2   0     9   2   0     8   7   0    16   1   9    12  23   0    14   4  12     2   0   0     2   5   0    16   4  12     1   1  16     1   6   0     1   2   0    20   5   0     2   1   0     0   0   2     4   0   2     4   0   3     1   4   0     0   4  17     0   4   0     1   5  16     3   5  16     0   0   1     0   0   2     0   6   3     0   0   1     0   2   8     3   1   8    16   0  12     3   1   4     0   2   5     0   2   1     0   4  17     0   4  16     4   4   0     0   0  17    18   0  17     0   0  18     4   2  16     4   3   0     6   2   2     0   7   0     0   2   4     8  11   4     2   5  20    17   1   4     2   1  12    18   0  12     0  10   4     0   4   0     0   0   5     4   2   1     2   4   2     5   6  17     1   4  17     4   4  16     0   6   0     0   0   0     4   5   0     4   5  18
  6   4   0     2   2   0     8   8   0     0   0   0     0   0   8     0   0   0     2   2   0     0   0   8    10  10   8     0   0   6     4   4   4    10  10   0     0   0   2    12  12   8    10  12  28    11   8   7    10  12  19    10   0   6     1   8   0     3   0   0     2   4   0     5   8   0    14  10   0     0   0   2     0  24   0     2   2   0     4  33   1    32  32   0     2   1   1     1  32   0     3  32  10    33   0   6    34  32  10     0   0   0    32  35   4    24   1   0     2   1   2     0   1   0     6  29  10    12   1   0    15  24   3    12   0   8     0   4   4     0   4   4    11  12   7     0   1   0     4  10   0    22   9   2     0   1   0    16   3   2    17   2  16     5   6  18    17   0   0    20   1   0    17   1   5    25   2   4     2  18   0    16  18   4    24   8   0     0   0   0    16  32   0     0  97   0    42  64  64    14  83  96     2  94  64     1  73  67     2   2  48    16   0  16    16   0  16    35  19   1    36  16   4     4  24   8    34   6   0     4  24   2    34  26   2    36  16   0    68   0  32    80  64  48    80  76  60    56   6   6     8  60  14     0   6   6     1  53   5    81  49   1     1  33   1    52  32  48     1   1 113    68  80   0     2  34   2     5   1  33     2  34   4     0   0   0     0   8   4    16  40   0    64  36  20    68  66  64    48  32  83     0  83  72    44  25   9    12  15   1    44   3   2    60  37  25    76  72  11    64  80  41    64  16  65    32   0  70    32  16  70    40  40  88    48   0  76    16   0  16    32   0  64     0  64  33     0  16  32    74  10   0    80  32  50    68   4  48    36   4   3    48   0  19     4   4  21    24   8  17    48   0  16     8   8   0     0   0   1    36  36  16    33   1  20    33  17   0    53  37  26    32  33   4    16  36  16    20  32   0    17   4  20     0   1   4    48   0   5    17  32  17    93  48   2     1  32  32    64   1  32     8   0  49    10   3  20    26   2   4    10  28   0     0   4   0    16   8   0    16  19   7     8  23   9    14   7   3     0   1   0     0   1   2    16   5  10     1   2   0    16   2   0    16   6   0     0   4  16     1   6   0     0   2   0     1   1   2     1   1   2     0   0   0     1   5   2     3   1  16     1   3  16     0   0  16     0   6  16     0   6  17     4   4  19    20   0   2    30  20   2    10  16   9     1  19   4    17   3  12     0   0   8     0   2  20     5   3  16     5   7  18     6   4  18     4   4  19     6   0   1     0   0   1     0   4  17     0   0  16     4   2  17     0   6   1     0  10   4     8   0   0     0  10   4    27   1   8     6   0   0    28   0  12     6   8   1     0   6   1     4   2  20     4   4  16     0   5  16    21  18   9    19  18  15     0   0  12     0   4  16     5   8  17     0   4   0     4   4  16
  0   0   4     8   8   4     2   2   0     2   2   0     1   1   1     2   2   0     1   1   1     0   0   8    10  10   4     8   8   0     0   0   6     4   4   0    12  12   2    14  14  12    13   8   9    11   8   5     0  12   3     4   0   0    13  14   0     4  10   4     4   4   0     2   9   1     2   8   0     0   1   7     4  24   0    24  32  10    28  32   0     1   0   0    29   0   2     1  32   2     2   0  10     1   0  12    32   0  12     0   0   0    32  35   4     0   1   4     2   0  10     1   0   1     7   0  11     4  28   0     6  26  10     4   4   8     0   4   0     0   0   0     0   0   0     0   1   0     0   0   3     8   0   0     0  10   0     0   5   0     0   3  16     0   0   1    16   6   8     1   2   6    17  11  10    11  11  12    42  18   0    32   7   4    34   0   0    32  81  68     1  32  69    32  32   0   102   4   8   119   6  19     2   5   0   101   5   5    89  41  25     8   8 104   129  33  65    12  92  76     1  81   1     4   4   4     5   5   4     1  17   1    40  24   0     0  16   0    88   8  56   112  64  16    72  74   8     0  32   0    16  44  28    52  32   0     2  54  38    72  52   4     0 100   4    25   1  17   112  36   4    37  81  97    67  31  15    33   9   9    58  34   0    48  16   0     0   0   0    44  16   0    32  28  14     0  96  64    96   0  25    36   0   9    40   8  18    44   1   1    56  34  24     0   0   8    20  66   9     5  87  66     0  80  65   102  70  90     8 104  89    68 100  72    56 104  31    88 104  25   120   8   9    80   0   0    19   3   0    17   1   0    38  38   2    32  48  16    36  36  17    20   4  24     4   4   0     0   0   8     0   0  17    36  52   8    36   4   0     5  37  24    21  37   0     1   1   8     8   8   8    20  36   0     9   5   0    12   1   1    21   0   0    24   8  16    17  40  16    36  48   8     5   0   4     8   0  48     8   0  52     0  32  52     0   0  49     0   0  41     8   5   8     0   3   4    20  22  12    16  30   9    20   6   3    16   6   3    16   1  14     0   5  14     0   5   8    12   2   8     0   3   8     0   4  16    16   3  17     0   2   1     0   3   0     0   0   0     0   0   0     4   2   2     0   2   3     1   7   2     1   7   2     1   7  18     0   4   4     0   0   0    29   3   4     4   2   2    28  16  24    17   1  12     1   1   6    17   1  12     1   7  16     1   1   0     0   0   2     5   7  16    20   4  16     0   4  16    16   0  16     0   4  19     0   4   3     2   4  14     0   0  16     2   4  17     4   8   1     8   0   4     0   8   0    17   1   8     2   0   0    19   1  16     1   1   0     5   5   0     5   5   0     4   3   0     5   6  16     3   4  11     0   4  12    16  22  12    23  30  19     6   6  18     6   1  18     2   1  20
  0   1  18     0   0   4     3   3   9     2   2   0     3   3   1     0   0   8     0   0   8     8   8   4     0   0   4     6   6   0     2   2   0     8   8   2     0   0   6     0   0   8     0   4  14     5   4   9     5   0   8     5   4   0     3   4   4     8   8   5    14  11   1    10  10   0    10   9   2     5   0   2     4  24  11    24  27   8     0  32   1    32  32   0    32  32   0    32   0   2    32   0  26     0   0   6     0   1  28     0   0   0     0   0   0     0  32   0    28  29   0     1   0   1     2   1   2     0  28   0     3   0   3     5  30   1     1   4   1     8   0   0     3   0   3     7   0   3     7   0   2     0   1   4     0   8   2     2   4  22    17   6  17     4   6   9    24   5   9    17  14   5    17  26   8     0  27  12    24   9   0     0  72   4    56  10  80    68  27  98    64   5   0   116   4  18   116   1  24   112   0  18   130  23  34   134  22  38   128   0  32    14 110  14   145  97  49   105  41   9    65   1  65    36  68   4    68  68   4    20   4   0     0  32   0    32  32   0    24   8  24    80  64  16    64  64   0    16   8  24    16  33  16    20   0   0     1  52  36     3  48   0    66  89   9    24   5 117    74  61  45     0  98   2    66  48  32     4  32   0    52   2   0    60   6   0    26   4   2   106   2   2    96  16   0    64  48   2     0  42  30     0  19   0     8   9  28     1   2   8    16  33  12    16  33  16     4   4  16     4  20   2     4   4   2    72  56   0    72  24  15    72   8   5    68   4  10    60  12  29    24  40  14     0  32   0    73  25   0    49  33   4     3   3  16     4  36  16    32   0  16    61  45  16    32   0  16    25   9  16    25  41  16     5   5  16     8  24   0     5   5  24     4   4  24    21  37   0    55  39   8    16  37   2    32  32  16    33  32  24    48   0  16    49   0  24    20   8  20     4   0   5    33  32   4     4   0   0    11   2  16     0   1  17     4   0   2    32  32  24    11  50  24     0   3  24     0   4   4     1   4   8     0   2   2     0   6   7     1   6   0     0   4  10    16   2   8     8   0   4     0   2   0     0   4   8     0   6  17     4   0   1     4   0   0     0   0   1     0   0   1     0   0   1     4   2   3     4   2   0     1   7  16     0   0   8     0   4   2     1   1   2     4   0   0     6   0   2    25  19   2     0   0  15     2   0   8     0   2  14     0   2   8     4   2  22     0   2  22     1   1   8    16   0  14     1   1  14    18   4   2     0   4  14     0   4   1     2   4   1     0   4  15     0   4  17     4   6   0     4  10   0     4   4  16    29   1  12     2   4  12    18   0   2     0   4  18     4   4  16     1   7  18     0   2   0     1   1   2     4   3   0    17  16   1    23  18  11    16  30   0    20  16  16     4   0  16     0   8   4
 10   8  22     2   2   8     2   2   8     0   0   0     3   3   9     2   2   8    11  11   1     8   8   4     8   8   4     0   0   4     2   2   0     1   1   1     0   0   6     0   0   6     2   2   4     5   0   9     5   2   8     0   0   4     0   2   5     2   1   1     0   3   0     2   5   0     4   4   9     0   1  10     2  29   8    29  28   8     1  32   0    32   0   0    32   0   0     2  32   2    32  39  24    34   1   6     0   0  28     0   0   0     0   0   0    34   0   6    28   2   0     1  30   1     1   2   1     2   1   2     6   3   2     2  25  10     0   0   4     8   0   4     9   0   5     7   0   3     6   0   3     2   8   3     0   0  19     3   4  22     5   0  17     5   6   5    28  16  16    17   9   5    27   8   0    34  31   8    34  78   0    64   2   0    24   3  80    55  42  19    35   0  83    16   4  82    54   1  64     4  34  64    38  32  64    16  32  16    97  49   1    96  48   0    97  33   1   104   8   8    40  24  72    16   0  48    17  65  49    69  37  37    32  32   0    64  48   0    88   8  24    16  64  48    88   8  56    56  40   8    48  32   0    55  32  32     6  18  34    14  16   0    74  77  45    42   4  84    67  12  92     2  23   7    66  41   9    38   4   4    30   0   0    56  38   6    42  18   2   110  50  34   100  50   2    44  57   0     4   3   2    43  15   0     2   0  16    16  32  16    24  40  24    16   0  17    16   0   9    20  36  19    69  37  18    57  41   8    64  32  25    93  13  20    78  46   9   123  43  22    80   0   3    80   0   0   105  73   0    64  64  68    79  79  64    73  73  84    69  85   0   121   9  16    32  32   0    50   2  28    16  32   8    21  37   0     1   1   8    13  13  24    17  33   0    29  45   0    36  36   0    40  13   2    50  32  17    32  32  24    17  32  16    17  34   0     4  32   4     8  33  28     8   9  24    13  32  16     6  34   1     4  38  24    40   4  24     0   4  24     2   0   0     1  22   8    52   4  12     0  12   8     0   0   4     1   6   8     1   1   0     1   2   0     1   2   1    24   0   0    24   3   8    20   0  17     0   4  17     4   6   0     4   2   0     5   3   0     5   3   0     4   2   1     0   0   1     0   0   0     5   7  22     0   0   4     0   4  13    19   1   0    23   5   4    17   1  20     0   8  18     0   0  20     0   0   3     0   4  15     0   6  15     1   1  14     1   1  14     1   3  12     0   0  12     3   5   0     3   5   0     3   5   0     3   5  14     3   5  14     2   4  16     2   0  17     0   4   0     3   1   0    18   0   0     3   1   8    20   0  12     5   1  20     2   0  16     3   1  16     2   4  14    16   2  12     1   1   6     2   3   6    21  22  17    22  23  10    20  31   0    16  24  20     0   0  20     0   3   6
  8   9   0     1   1  11     1   1   1     2   2   0     1   1   9    11  11   5     1   1   3     4   4   0     0   0   0    14  14   4    14  14  12     0   0   0     0   0   6     0   0   6     0   0  12     0   0  12     0   4   8     1   0   5     3   0   7     1   0   5     0   0   0     0   1   0     0   0   0     0   1   0     6   0  10     0   1   0     2   4  10    33  32   5     0  32   0     2  32  10    34  33  10     2  33  10     0  34   4    34  33   6     2   2   2    35   0   7    25   2   1     7  30  11     5   6   9     7  30  11     6  28  10     1   0   1     0   0   0     0   1   4     8   1   0     1   0   1     6   8   3     6   0   0     2   0  16     3   4  14    25  12   4    17   0   3    17   1  19    17   8   8   112  75  16    66  75   8    16  33  82    66  21  97    20   7  51    20   1  16     4 119  56    23  66  19     6  99  52    20  96  44    70 118  32    68  20 100    34  18   2     8   8   8     4   4   4    20   4  20    56   8  88    16   0  16    16   0  16     2  66   2    96  16   0     4  20   4    64  64   0     0  80  32     0   0  32    64  16  32    10  49   0    67  16  32     5  64  32     0   8  57    16 107  24    34  12  69    10 104  32     0  36  11    12  57  40    36  35   2    10  32   1    38  38   7    40  35   7    42  54   3    48   3   2    12  43  18     1  11   0    31  47   6    12  12  22    29  45   4     1   1  28    49   1   0     4  36   0     4   4  17    16   0   2    64  32  36    73   8  36   104  24   4   105   8   4    68  52  18   104   0   9   100  16  19    64  68   2    65  81  64    67  83  64    83  67  64   100  68   2    18  34   4     0   0  33    72   8  36     4  20  33    33  49   0    32  48   0    33  33  24    17   1  16    28  44  24    34  34   2     4  32   7    68  52   6    33  16  24    32   1  16    41  40  26    24   0  18    25   6  28    17  40  26    60  11   2    37  41  16    13  26  19    32   8  27    40  10   0     0   0   0     2  33   0     8  20   8    24  16  12     0   0   0    16  24   1     1   3   0    25  18   1     1  11   4     1   8  12     3   2   8     0   0   0     4   6  16     5   4  16     4   3  16     2   6  16     2   6  17     0   2  19     5   2   0     5   3   0     1   7  16    29   1  10     2   0  15    16   0   3     4   4  19     5   1  18     1   1  20     3   1  20     2   4   8     2   4  15     0   6  15     0   0  12     0   0  12     1   3   2     0   0   0     1   7  16     0   4  16     2   4  17     1   5  18     1   5  16     3   1  16     0   0  16     3   1  16     1   7  18    18   4  16     1   5   0    18   0  20     6   0  17     4   0  21     0   0  15     2   0   0    18   2  14     1   0  18     0   5  16     8  14   0    24  16  16    16  16   0     5  10  17     2   8   2     0   0   6
 12  12   8     5   5   1     5   5   1     0   0   0     0   0   8    10  10   0     0   0   4     4   4   4     0   0   0     8   8   8     0   0   0     3   3   9     1   1   7     0   0   6     0   0   8     0   4  12    24  24   8    25  24   1    24  24   4     3  24   7     4  28   8     1   0   1     0   1   0     0   1   0     6   1  10     0  28   0     2  12  14    37  34  25     5  36  25    25  28   1    24  28   0     0  25   8     0  33   4    24   0   0     2   7   2    24   4   0    26  24  14     1   0   1     0   4   4     4   5   8     1   0   5     1   4   5     2   0   2     0   1   4     0  25   0     5  24   1     8   9   2    10   8   3     2   2  17     0   0   8    16  15   3     5  16  18    36   1   3    70  64   1    46 105  26     2  67  72    32  39  80    70  69   0    20   5  32    11 102  32    11  19  26    34  22  44     0  68  28    12   6   2    74  68  44    76  12  12   108  92  12    44  92  76    36   4  68    36   4  68    38  86   6    16   0  16    19  67  19    18   2  18    46 126  78     4  20   4    32  80  64    12  76  12     8  40  40    14  10  10     2  34  32    15  18   2     0  86   4     8 100  38     8   7  52    12  32   7     4  96  36   108   8  15     8  19  32    34   3  16    18   1   0     2   5   4    64   5  33    64  52  32    64  53  33     8  41   1    17  35   0    28  12   2    60  12  16    36  52  24    33   1   8    44  28  16    68  20   1    70   6  16    68  36   6   116   0  20    32   5  20   104  13   2    72  25  10    32  80  29   106  18  69    44  28  65    72  24   8    74  26   8     3  19  72    67  67   6    98   2  16    11  11   0    66   2  36    75  59  32     2   2  33    21   5  16    16   0   1    21  37   0     8  40  21    16  32   8    32  48   9    36   4  12    36   5   2    44  61   0     0   2   0    18  33  16     8  14  10     8  13   8     1   0   2    25   1  17     5   0  11     9  32  17     1  32  25    33   2  16    32   8   0     0   0   8    32  24  12    12  48  12     4   8   8    13  10   1     1  16   0    21  24   0     0   0   4     6  10   2     3   1   2     5   0   4     5   1   4     0   4  12     2   4  12     2   1  12     2   1  12     2   5  16     2   0  18     1   5   0     1   3  16     9  11  22     3   1  10    20   4  18     1   1   2     1   1  20     5   3  20     0   2   0     0   4  16     2   4   4     2   4   2     0   2  20     0   0  23     1   7  16     2   0   2     6   0   0     7   1   0     6   0   0     5   5   0     2   0   0     2   0  16     3   1  16     3   5  12     1   5   6     3   1   4     4   4  16     4   0  20     3   1   0     4   0  16     4   0  18     2   0  11     4   2   9     1  10  17     3  10   7    10   2   6    10   9   6     2   0  18     2   9  18     2   0  22     4   9   0
 14   8  12     2   2   4     0   0   0     1   1   3     0   0   0     1   1   9     9   9   5     2   2   4     5   5   5     6   6   0     1   1   5     7   7   5     0   0   0     0   0  10     0   0  10    24  24  12     8   9  12    18  17   0    25   0  11     0  32  24    24  24  24     0  28   0     0   0   0     4  29   0    24   4   0    24   0   6    28  16   8     1   4   1    26  16   0    26  26   8    26  25   8     0   1   8    28  28   0     4   7   8    24  25   8    24  26   0     0   0   4     1   4   1     0   0   0     0   4   4    11   4   7    13   4   1     3   0   3     0  24   8    28   1   0    24  24   8     8  16   1    10   2  17     1   5   1    25   8   8    16  26  19    32   0   2     4   8  24     0  80  40     5  72  32    72  48  96     8  44  48    64  88  32    48   1  34    33  80  64    41 104  16    33 102  12     8  85  14     0  50  42    10  44   8    14  62  46     8  40  40     4  52   4     4  68   4    12  12  12     2  66  34    14  14  14    22 102  22    48   0  80    35  35   3    34   2   2    34  18  66     0  80   0     2  18  34     8   1   8     0  32  32     0  16   0    10   0  32    80   1  20    16   5  44   108  29   0     4  83  38    73  58   7     8  56  34    24  41  32    50  40  24     1  32   1   106  32   0    65   4  45    80  36  46    81  33  44     8  41  16    48   0  18     4  36   6    49   1  16   101  37   2    85   5  20    64  32  32    94  41  32    64  37  23    80  36   7    48  38  20    40  32   6    34   0   6    34  37  23    14   8   4     6  15   1    98   0   4    42   8   8    34  66  12     2  50   4     0  32   4     0   0  38    67  51  36     8  40   4     2   2   4    33   1  32    50   2  36    58  10   0    58  10  19    56  40   9     8  40  21    64   0  32    52   4  20    48  33  20    28  45  16    16   3  16    16  34  16    16   2  18    17   4   0     0   0  18    17  32  16     1   1   1     1  16   3     2   2   0    32   2   8     2  40   8     2  40   8    32   8   4     6  32  16    23  12   1    16   8   1    18  16   1     2  18   2     4  20   0     4   0   2    19  16   0    17  16   6     0   1  10     0   3   4     2   3   6     2   2   6     3   0  15     3   4  12     2   4  16     0   0  16    19   1  16    21   1   4    20   4  18     0   4  19     0   0  22     4   0  18     0   6   0     0   0   0     0   4  17     4   2   2     0   0   2     1   3   0     1   5   2     0   0   0     5   7   0     3   1   0     3   9   0     0   0   0     2   0   0     2   4  17     0   0  21     0   2   8     0   2   0     0   2   6     0   2  18     4   0   1     0   0   3     4   8   2     2   4  16     2   0  17     4   4  17     1   0  17     1   0  17     3  10  19     2  11  18     0   0   4     2   2   6     2   3   6     2   8  18
  9  10  13     2   2   4     3   3   1     6   6   0     0   0   0     2   2   0     2   2   8    10  10   0    11  11   1    15  15   1     3   3   1     3   3   1     1   1   7     0   0   2     0   0   8    10  11  12    27  26   1    32  32   8    32  32  24    32   0   2    27  32   1    28  28   0     5   4   1    25  28   1    31   1  25    38  35  24     0   0  24    34  32  24     5   8  25    25  27   1     1   1   1     0   0   4    24  24   0     0   7   8     6   1  10     0   0   4     1   0   5     0   4   4     0   0   4     1   0   1     0   4   0     4   2   8     4   4   8     4   7   0     0   0   0     4  24   8    12  16   1     1  10  16    12   2   3    18   8  10    22   8   0    33   0  16    65  34  49     1 116   2     4  68  44     7 104  32    71   4   4    65  80  41    72  44  48    72  46  64    65  60   0   106  50   8    42   2  66    54 100  18    92 104  24    94  14  30    65  33   1     6  54  38     0  64   0    16  64  16     2  66   2     0   0   0     9  73  41    16   0  80   114  34  18    10  10  10    32  16  64    40   8  72     0   0  32     0  52   6     0  34   2    10   4  36     0  24  48    64  16  96     8   1  48    96   0 102     4  82   2    97  26   1    16  32   8    80   6  36    88  73  16     1  68  17    33  98  11    16   0  32     1  16  11     0  48   3    16   0   8     1   1   2     0  16   0    68  52   4   101  21   4    85  37  16    60  12   8    64  50   4    48   0  19     0   1   3    32  37  23    32  34  22     0   1  19    50   9   1    41   8   6    10   8   1    80   2  32    74 122  13    83  99  24    34  34   0     1  33  52    33  33   4    75  27   4    16   0   4    33  33   0    16  32   0    22  38   0    30  46   1    60  12  48    10  42   0    84  36  32    14  46   7    56   8  22    32   0   4    16   1  24    56  33   0    72   1   0    16  33   2    49   4  18    16  32  18     0  32  16     0   1   0     0  16   0     2   6   6    32  16   9     2  32   8     2  40  28    34  32   0    42   8  28    46  48  41    53  34   2     2   2   1    16   2   0    22  20   0    18  16   7     4   0   4     0   0   8     2   1   4     1   0   0     1   0   5     1   0   8     0   0   4     0   1  20    10   9   4     3   5   4    11   9  16     1   5   0     8   4  18     9   7   6     0   0  20     4   2  16     1   7  16     4   0   0     0   4   0     5   3   0     4   2   2     5   3   0     4   2   0     0   4   0     0   6   0     6   4   0     0   0   2     0   0   2     2   8   2     6   8   0     6   8  19     0   8  21     0   0   3     0   0  20     0   4   3     6   4   2     1   1   2     0   2   2     1   7   2     5   3   0     0   4   0     1   0   0     6   3   2     0   3   0     2   3   6     0   2  20     0   2   4     0   2   0     0   8  14
 12   4  10     2   2   0     4   4   0     4   4   8     0   0   8     2   2   8     2   2   8     3   3   9     0   0   0     0   0   8     2   2   8     2   2   8     1   1  11     3   3   1     0   0   8    11  11   9     2   2   0    16  16  12    32  32   0     0   0  34    32  32  32    28  28  24     7   7   5    25  25  29    32  32  24     1   1  37    32  32  26     5   5  25    24  24   4     2   2   0     1   1   1     1  33   1     5  25   3     0  24   8     1   0   5     1   2   1     0   4   0     3   0   7     1   4   1     9  14   5    11  24   3     8  28   8     3  28   3     5  30   1    25  24   9    24  24   0     8   8   0     1   2  21     8  18   1     0  18   9     1  16   5    66  10   4     1  16  38     0 112  34    17  64   0    64  64  72    81  96  72     2  48  72     1   1  16     1   0   8   121  12   0     1   7   0    34   3  67    32  97  12     5  80  33     8  56   8    16  64  16     0  32   0    17  65  17    17  65  17    16  64  16    25   9  25    73  41  41    61  13  29    17  97  17    74  10  10   113   1  81     6   6   6     1  65  33     1  48   4     8  40  10     0  92  36     0   9  14    66  28  64    12  24  32    32   0  66     0  18  35     0  82  34     2   3  18    29  72  32     8   9  24    48  10  80    34  15   9     3   6  61     2  64  12     3   2   4     0   1  32    98  74   0   108  66  12    52  96  20    16  64  48    25  41  52    20   4  58    13  28  32     8   4   5    48   3  27     0   6   2    32   4  29     4  39   6    16   4   5    25   8   4    64  43   1    76  32  32    88  42  37    64  48   4     0   0  36     8   8  60    48  32   0     1   1  20    49  33   0    17  33   4    19   3   0     5  37   2    15  47  10    18  34   1    16  32  19    80   0  48    50  32  22    48  34  19    18  32  16    32  24   4     4   1   0    96  32   0     6  33   0    48   6  18     0  41  18     0  32   0     0  16   1    37   0   0     1   0   3     2  16   0    33  10   8    34  11  28    32   2   0     0  28   4    56  54  40    59  34  33    32  32  32    21   2   4    16  20   0    16  24   0    18   4   0    19  17   1     4   2   8     1   1   1     4   2   8     0   1  11     0   1  19     0   1   6     0   5  20     2   5  20     2   0   8     3   5  16     2   0  18     8  10   7    10   0   6     4   8   0     5   5   0     0   2   0     4   2   0     1   1   2     0   0   0     0   0   0     1   1   2     4   2   0     1   1   0     4   2   2     0   0   0     1   7   0     1   1   0     0   8   3     4  10   1     4   8   0     0   0  16     0   6   1     4   0  16     4   2   1     0   6   0     0   6   2     0   6   2     0   6   2     4   0   0     0   1  16     0   1  16     0   2  16     0   2  16     0   3  16     0   1  16     0   1  16    10   8  24
 12   4   8     4   4   0    12  12  10     7   7   1     8   8   0     8   8   8     2   2   8     2   2   0     1   1   1     1   1   9    11  11   9    11  11   9     1   1  11     2   2   0     0   0   0     3   3   1     0   0   0    16  16  24    34  34   0     0   0  32    32  32   2    29  29  29     6   6   4     5   5   1    32  32  32     0   0   0    32  32   0    25  25  25    24  24   6    24  24   4    32  32   0    32  32   6     0   0   6    10  24   0    10   6   2     8   4   4     0   4   0     1   4   5     1   0   1     8   4   0     7   0   3     4   0   8     7   6  11     6   2  10     1   4   1     1   0   5     9   0   5    25  26  16    18  24   2    27  32   8    57  40   0    66  45   0     0  55  32     4  18   6    48 102   6    17  38  13     2   0   1    65  35   1     0  68  65     1  90 104     0  48  67   102  23  98    36   6   1     4  22   0     0   0   0    34   2  66    16   0  48     9   9  41    16   0  16    17   1  17    17  65  17    24   8  56    73  89   9     2  18  98     1   1   1    46  30  14    64  64  64    50   2  82     9 105  41     9   8   2     9  28  13     0  64  33    58   7  24     6   0  72     4  17  66     0  17  16     4   6  51    16  70  16    22  68  21    86  68  50    64   0  89    32   2  95    34   1   4    17   0  27     3  64  26    19   0   8     2  82  32    10   2   8    34  64   0    67  65   4    28  45  28    60  44   6    38   6  12     8   8   1    10  14  21    32  39  21     0  36   8     4   0  20     0   5   0    50  35   8    48   0  24     1  32  49     3  34  34    65   1   4    67  19  36     2   2  32     8   8   1    58  10  33    59  11  24    21  37   0    48   0  10    59  11   8    47  15   0     1  33   0    53   5   0    25   9  16    20   4  19    40  40   2    18  32  17     0   3   2     0  32   0    44   9   0     0  16   0    40  40  16    52   8   2    56   0  17    37  40   1     9  40  11    53  56   0    16  50   6    22  32  20    33   0  20    42  11  24    48   3  16    58  10  36    56  16   9     2   2  36    18   0  36    10   6   4     8   4   4     4   4   0    18  16   0     2  16   9     2   0   0     0   0   1     6   2  10     7   0  18     4   8   0     0   9  20     0   9   6     0   0   6     0   2   5     0   2   2     0   0  17     0  10   3     2   0   1     5   9   2     7   5   0     1   5   0     4   2   0     1   1   2     0   0   0     0   0   0     1   1   2     4   2   0     0   2   0     4   0   2     0   0   0     1   1   0     0   6   2     0   4   0     6   4   3     4   4  17     4   4  18     6   4  17     4   2   1     4   2   0     4   2   0     4   2   2     1   7   2     1   5   2     4   8   0     4   2   0     4   7   0     2   0   2     2   0   2     0   6   0     0   1   0     2   9   2     0  12   2
  8   8   0    12  12   2     8   8   2     4   4   0     4   4   6     8   8   0     0   0   8     1   1   1     2   2   0    14  14  12    11  11   5    11  11   5    15  15   9     3   3   1     3   3   1     3   3   1     2   2   0     1   1   1    34  34  34     1   1   1    34  34  34    33  33  33     1   1   1    36  36  36     1   1   1     0   0   0    32  32  32    28  28  28     2   2   2    30  30  30    32  32  28     0  32  26    24   0   8     9   0   1     9   8   1    10   0   6     8  10   4     0   1   0     9   0   5     8   0   4     4  24   0    14  24   2    15  24  11     2   0  10     8   2   0     9   0   1     9   0   5     8  16  16    19   7  16     1  43   0    64  17  44     2  35   0   104  47  42   122  45  10    81 101  17    49  37   1     0  98   2     2   2   2    64 104  18    80  46  38    18   6  50     6   6  34    17   2   8     6  17  42     3   0   3     4   4  36    80  64  48    25  73  25     0  32   0    80   0  48    16  64  48     0   0  32    72  88   8     4  20   4    32  16   0   102  22   6    66  66  66    50   2  82    18  98  18    17   0  48     9  65   1    16   0  36    16   1   5    18   4  18    12  28   0    28   8  16    24   0  54    16  64  18    72  13   7     5   4  22     8  41  87    48   0  44    48   0  52     4   5   5     2   0  44    23   0   8    33  82   0    34  98   8    72  26   0    50  42  28    54  38  16    28  12  30     6   6  19    72  25  14     4  14  60    16   4   4    71   4   8    96  32  26    80   3   8    64  33  36    16  38  56    74  33   0    71   8  32    67  16   0     3   3   2    68  20   3    80  32  48    42  42  32    21   5   0    15  47  32     1  17   2    10  10   0    41  25   6    18   2   4    34   2   4    25  41   4    42  10   8    24  32  17    18  32  16     4  33  20     4   8  10    36   9   0     7  16   9    28  40  24    22  40  10     8   8  18    57  18  33    48   2  16    49  16   5    36  48   6    42  32   6    32   2   4    50   2  16    48   2  16    56  23  24    50   4  21    11  48  36     9  32  32    36  34  36     0  42   4     0   6   0     0   0   0     4  18   1     4   0   8     6   2  15     6   0   8     0   1   1     0   8   1     0   9  16     2   6   3     0   2  11     0   2  12     0   2  13     0   2  20     6   8   3     2   8   1     5   9   0     2   0   0     1   5   0     4   2   0     1   1   2     0   0   0     0   0   0     1   1   2     4   2   0     0   4   1     4   0   2     1   7   0     1   1   2     1   1   2     4   2   0     4   2  16     2   0  17     6   4  18     4   2  19     0   6   0     4   2   0     0   0   0     1   1   0     1   5   0     4  10   2     0   1   4     8   8   4     8   9   0     0   4   0     0   5   0     4   1   0     4   4   0     0   1   0     8   9   0
  0   2  20     0   0   4     6   6   4     3   3   5     5   5   7     4   4   0     4   4  10     4   4   0     2   2   0    10  10   0    10  10   4    11  11   5    14  14   8     4   4   2     4   4   2     4   4   0    27  27  25    33  33  33     2   2   2     1   1   1     1   1   1    33  33  33    32  32  32    35  35  35    34  34  34     5   5   5     7   7   7     4   4   4     6   6   6     6   6   6     0   0   2     0   0   6    24  24  12     9   0   3     9   8   1    10   0   6     8  10   4     0   1   0     9   0   5     2   1   6    10   1   2     2   0   6    25  24   5     6   0  10    20  16   8    13   8   1     5  12   5    21  29  20     2  41  17     0   4  10    42  14  26    16  39   8    24  11  16   121   0   0    73  13  18    41  75   2    59   7   2     0  84  38    16  76  34     3   2   0    66  64  40   112  64  14   113  64  10    33  88  13     6  64   2     8   8  72     0  64  96     2   2  98     0  32  96     0   0  64    64   0   0    80  64 112    66  66  34    36  20   4     0  16   0   100  20   4    64  80  64    34   2   2     0  18  66     1  20  66    17   5   0    24   4  36     5   4  44    14   5  17    53   4  16    26   0   4    40  16  52     8  91  37    74  76 122    74   8 102    18   0 116    16  64  30     2   0  10    58   1   9    48   0  62    43   0   8    32  96   4    65  40   5    40  42   4    40  32   6    60  34  30    10  10   8    64   0  39    64  12  45     8   0   4    68   7  32    96  47   4    76  18   0     8   2  20    72  40  48    48   2  34    66   2   0    64  13  34    75  24   0    73  57  32    11  11  32    16   0  32    21   5   0    55   7   8     7  23  26    33   1   0    40   8  16    40   8   8    12  28   0    76  12   8    27  43   0    14  14   0     0   1  16    48  33   3     4  32   3    20  40  16    32  32   8    16   0   8    24   4  10     6  16   2    32  60   0     5  18  33     4  19  32    32  18   0     2   8   2    15   0   6     6  18   0     0  16   0     4  16   0    48   0  16     0   0  16    49  16   8     0  16  28     0  34  17    44  32   5     8  34  20     0   0   0     0   4   0    24   4   8     0   0   2     7   2  15     7   2   2     2   0  18     0   8   3     4   0   3     0   2   1     0   2  15     0   6  15     0   2  19     5   5   2     1   3  16     4   2  16     2   4   0     1   3   0     4   2   0     1   1   2     0   0   0     0   0   0     1   1   2     4   2   0     0   4   1     4   0   2     1   7   0     1   1   2     1   1   2     4   2   0     4   2  16     2   0  17     6   4  18     4   0  17     0   6   3     4   2   2     1   1   0     4   0   2     3   1   0     4  10   4     8   0   0     8   8   5     0   1   0     0   1   0     0   0   0     0   5   0     2   4   2     4   0  16     0   0   0
  1   0  17     6   6   0     6   6   0     4   4   4     8   8   4     9   9   3     1   1   9     6   6   0     6   6   8     8   8   4     8   8   4     9   9   9     3   3   9     3   3   1     5   5   1     5   5   3    27  27  25    33  33  33     2   2   2    35  35  35    35  35  35    32  32  32     1   1   1    35  35  35    36  36  36    28  28  28    28  28  28     0   0   0     2   2   2     0   0   0    29  29  29    29  29  25    28  30   8    10   0   4    10   6   2     8   4   4     0   4   0     1   4   5     1   0   1    10   0   2    11   0   3    14   2   2    19  24   3     7   4   3    23   4  11     1  16   1     0  12   0    23  28  17     5  52   5    70  27  34    66  27  32    14   9   8    30   3   0    76  74   0    16   0   1   104  65   0   113  66   3    16  66  32    16  76  32    33  84  50    19   0   2    21  68  10    22   1   8    88  41   8   102  40   2    96  16   0     0  96  96     1 113  33    18  98  18   112   0  16    32   0   0    56   8  88    64  32  32    96  32   0     8  40   8     9  41   9    34  66  66    98  50   2     8  26  10    96  18   2     0  16   0     8  64  34     4  68  40    12  72  56    62  13   9    18   1  53    32   0  64    10  27   3    92  72  72     8  89  77    91   0  60     2   0  52    33   0  16     8  17  81    34   1  17    42 104   5    80   1  16    73  40   3    73   8  39    34  10   8    46  36  26    22   6  22    32   0   1     8   8  47    72   8   9    40   2  32     4   9   0     0   2  18    40  36   0    72   0  32    68  26  16    14   9   3     2  23  18     4  38  48     1  49  48     5  21  16    26  74   0     1   1  48    79  15   0     3  19  32    14  30  10     3  19  16    51   3  20    41   9  16    58  10   4   107  43  28    65   1  16    49  38  20    36  32   4    45  32   5    38  16   9    43  32   9    22  32  16    18  40  24    18  40  26    26  10  18    32  48   2    48   2  16     6  35   0     6  37   0    11  40   8    28   4   0    19  14   8    52   0   0    36  32  24     0  36   0     2  48  16    20  32  16     0  32  16    16  32  35     1  32   2    25  18   2    37   2   0    18  16   2    18  16   1     2   0   7     0   0   0     2   0   4     1   0  19     3   2  20     0   2  18     0   2  19     0   2  16     4   0  18     0   0  19     0   4  18     1   1  18     2   0  16     1   1   0     4   2   0     1   1   2     0   0   0     0   0   0     1   1   2     4   2   0     0   2   0     4   0   2     0   0   0     1   1   0     0   6   2     0   4   0     6   4   3     4   4  17     4   0  18     0   2   2     0   6   3     1   7   2     1   5   0     3   1   0     2   8   4     7   1   4     1   0   0     1   0   4     3   4  23     5   4  17     5   4  17     0   5   0     0   5   0     0   1  16     4   4   0
  5   6  21     3   3   5     6   6   0     5   5   1     9   9   5     5   5  11     6   6   4    14  14   8     2   2   4     9   9   1     0   0   0     2   2   8     3   3   1     1   1   1     4   4   0     0   0   0    30  30  24     0   0   0     0   0   0     2   2   2    24  24  24    32  32  32    32  32  32    34  34  34     1   1   1    29  29  29    28  28  28    24  24  24    25  25  25    30  30  30    30  30  28    30  31   2     0   3   0     0   6  12     1   0   5     1   2   1     0   4   0     3   0   7     1   4   1     3   4   7     2   2   2     1   6   1    26  24   1    26  32   2     3  32  11    17   0   1    18  20   4     4  32   4    34  48  33    10  41   2    66  42  10    16  10  32    24  34   9    68   0  17    67  96  11     3  65  49    17  96   2    49  64   3     1  66   8   101  68  50    81  64  10    66   1   6    66   9   8    36  32   0     4  60   8     2  32  33    72  48  32    64  89   9    72  90 106    88  72  24   112  64  16   112  64  16    96  32  64    16  32  18     0   0   0     5   5   5    47 127  79   104  24   8     8  14   8   104   0   0    40  68  72     8  86  36    68  12  40    28  68   8   114  65  29    42   9  53     2   1  69     8   9   1     0  85   3    72  73  13    64  72  12     0  96  20     1  96  16    40  97  17    10  40   1     2  48   1    11   8   5    64   2  32    81  32  33    67   0  39    90  12  44     4  36   6    76   8  45     0  44   0    84  35  41     0  35  40    48  32   8     8   9   2    40   1  18    72  24  18     8  62  34    10  16   7    72  16   7     0  53  45     6  22   0     8   8   0    11  11   0    15  31   0     0   0  34    33   1   0    50   2   0    49   1  20    49   1   4     6   6   1    46  30   1     4  16   1    34  34   4    34  38   6    35  48   4    41  13   0     1   0   1    12   1   0     6  33  16    18  41  25    10  44  24    16  32  18     8  26  10    36  37   1    38  57   0    54   0   0    45   0   0    41   0   0    42  53   8    39  48   8     1  32  10     1  16  16     0  20   0     0  33  20    48   1   0    40   1  16    76  34  32    45  50   2    41  32   6     0  32  18    32  26  26    16  18  16     4   2  17     5   0   1     1   8   0     8   0   0     0   8  18     6   8  20     2   8  22     4  12   0     1   4  16     1   1  18     0   4  18     0   4  16     1   3   0     4   2   0     1   1   2     0   0   0     0   0   0     1   1   2     4   2   0     1   1   0     4   2   2     0   0   0     1   7   0     1   1   0     0   8   3     4  10   1     4   8   0     4   0   0     0   6   0     0   6   2     0   4   2     5  11   2     5  11   4     7   1   4     6   0   4     0   1   0     6   0   3     3   0  23     0   0   0     6   0  18     6   0   2     0   1   0     0   1   0     0   1  16
  4   4  17     0   0   4     4   4   0     2   2   4     1   1   5     3   3   1     4   4   0    11  11   9     0   0  12    10  10   8     0   0  10     1   1   1     6   6   0     0   0   0    26  26  24    28  28  26    30  30  28    30  30  30    28  28  28     7   7   7     2   2   2     0   0   0    32  32  32    32  32  32     8   8   8     7   7   7     4   4   4     0   0   0     1   1   1     1   1   1     1   1   1     0   0   8    24  24   8     0   0   3     3   0   5     2   0   5     1   0   9     1   4   8    11   0   5    10   4   0     8   0   6    11   6   3    18  27  14    22   0   9    20   3  11    18  16  26     0   0   1     0  16  40    65  56  45    66  32  34    82  74   0    11  68  35   124 102  26     4   4   9    88  40  25    24 109  52    18  32  17    50   0  36     2  64   2    65  80  10    97   0   4    99   5  14    96   5   0    38  56   8    48  28   8    60  56   0     0  56   0    64  72   0    96 104  72    57  41  74     2  40   8    24  41  16    34  64  64    80  34  16    75  57  32    99  34   0    45 125  77   108  28  12     6  21   4   104   9   8    40  72  72     0  26   0     0  20   8   106  43   0    32   1   8    26   8  12   114  66  13    40   9   1    96   9  92    22   9  37    90  70  55    17  66  20    64 110  20     8  56  33    10  56  33     8  58  37     0  56  36     0  58   3     0   0   2     0   2   0    42  36  20    42  36   8    18   4  16    82  37  41    16   1  33    59   1   2     4  19  10     1  19   8    69  81   2     0  83  80    12  80  84    76  72 127    76  26  68   132  48  72     1  72  73     1  24   1     7  11   9    12 124  96   142  78  76     0 114  96     4  86   4     0   1   0    52  38  20    39   7  16    62  14   0    34  10   0    32   0   4    50   2  16    56  33  16    18   8   9    32  17   1     4  27   8     4  40   8     4  38  16    16   8  17    25  42  18     0   2   0     8   9   6     6  23   0     0  32   0     0  39   0    32   4   0    48   7   1    34   4  13    32   5   9    41  16   0    32  38  16    18  34  16    16  39  17    32  33  18     0   2  32    25   0  32    32   0   6    10   0   2    34  32  21    46  16  17     0   8  19    20   0   8    20   0   8     8   9   0     0   0  16     4   0   2     0   0   3     0   0   0     0   8  17     2   8  19     2   1  18     3   5   0     4   5   1     1   6   0     5   5  18     4   4  16     4   0   0     1   3   2     5   5   2     0   4   3     5   5   2     5   3   2     4   9   2     6   8   2     6   8   2     0   8   3     4   8   1     0   2   0     4   3   0     0   0   0     5   8   0     0   1   0     9   0   0     6   0   0     6   9   4     5   9   4     2  16   0     9  16  17     1   0   4     1   2   2     4   9   0     6   0   0     4   5   0     0   5   0
  0  13   0     1   1   1     0   0   0     2   2   8     8   8  10     1   1   3     0   0   4     1   1   1     2   2   8     1   1  11     4   4   4     5   5   5     6   6   4    24  24  24     2   2   0     2   2   2     2   2   0    31  31  31     2   2   2     1   1   1     6   6   6    30  30  30    32  32  32    32  32  32     1   1   1     2   2   2     0   0   0    24  24  24    24  24  24    27  27  27    25  25  27    26  24   9     2   1   8     2   1   5     1   0   5     1   4   0     1   0   0     9   0   6     9   0   4     6   0   5     6  17   5    30  24  16     2   1  20     3   2  17    34  34  17    58  49   2    18  48  37     8   2  33    97  16   5    24  74  32    16  10  12     8  84  39    20 100  35    72  20  24    76  65  17    66  40  80    16   8  21     3  53   8     1   6   8    66  34   8    66  32   8    32   0  12     0   1   4    37  17   8     3  65  72    76  86  72    82  32   0     0  65   1    74  80   1     0   9  80    42   9   0    30  41  25    46   0  64    94   8   8    34   4  16    18  32  20    76 110  70   100   5   5     3  61   8    78  10   0     8 112  65    64   1   0    69  60   0    47  44   0    12  10 112    98   2   0   112  66  25    10  14   1    14  29   9    28  12  73    80  68   6    64  98  50     4  42  54    11  40   2    73  40  40     0  34  32     1  84  37     0  32  34    64  26   0    40   3   3    32  17   0    40  48   9    64   4  44    64  32  40    65   7   0    82   4  16    65  64  42     1   1  26    16  24  80    28  24  18    24  32  17    96  24  35     4  12  45   128  16  33   140 104   9     0 112  96   134  99  72   136  25  34   136  27  32   131  51  36   130  32 100     2 113  68     0 112  37    38  16   0    12  16   1     0   8   0    42   2   0     1   9   0    18   1   0    33  33  16     1   0   0    44  14  11    36  12   1     0  19   1     8  36   0    37  37   2    32  49   0     9   9   1     0  16   0    34  48   0    34  48   1    17   4   2     6  38  11    32  52  10    33   2   0    49   2  10    32   3  29     1   2   0    52   5  16    52   6   0    64   4  32    16  36  48     1   0   0     3  10  26    34   2   0     8  24  16    44  26  17    20   8   0    24   0   0     1   8   0    24   0   0    20   4  22    20  10   8     1   0   0     0  10  17     0   9   0     3   9   0     5   8   0     0   8   0     0   1   0     1   3   0     5   3   2     1   5   0     3   1   0     3   1   0     3   8   3     5   8   2     4  10   1     8   0   4     4   0   3     4   0   1     4  10   2     8   2   4     0   8   1     8   2   4     2   8   6    11   2   6     0   3   0     0   2   1     9   0   0     8   0   1     4   1   4     4   8   4     0   2  21     0   2   8     2   3  12     0   1  18     4   5  16    18   0   8    18   0  24
  9   1   9     9   9   9    11  11  11    10  10  10    16  16  16     2   2   2    25  25  25     0   0   0     0   0   0     0   0   0     6   6   6     4   4   4    29  29  29    33  33  33     0   0   0    35  35  35    34  34  34    29  29  29     0   0   0    28  28  28    30  30  30     6   6   6    12  12  12    32  32  32    32  32  32    26  26  26    24  24  24     0   0   0     0   0   0     3   3   3     2   2   0     0   1   9     0   1   4     0   1   0     0   0   0     0   0   1     1   4   8    10   0   8     4   2   4     0   0   5    22   0   7    22   0   0     6   2   2     4   3  26    50  32  10    60   2   2    16  52  35   104   8  35     0  88   1    41   0  37     0   9  36     2   0   0    75  33   2    10 104  83    35  45  64    75   0  68    63  64   0    81  65  20    67  54   2    42   4  10     2  50   1    56  32   1     3  17   1    29  24   0    10   2   4    30  32   4    95  33   5    69  35   5    72  51   3   108  69  18   108   0  67    10  45  19    58   7  16   124  98  16   112  34   8   105   8   0    68 100  68    12  29   4   102  45   3     4  10   0    71  67 104    78  46   0    12  12  32    46  14   1    11  43 112     0  16  32    66  66  17    36  20  65    36  20  65    36   4  72    33  81   0    64   0  18    30  46  50    74  10  26    88  72   3     0  67   1     4   6  67    96  20   3   100  16   0    32  17   1   110   0   0    96   5   8   113  44  16    73  40   0     9  40   8    66  25  42     2  65  32    16   0   0    17   8   6     9  32   6    16  34   3    96  51   4     4   0   1     0   4   0   105   0   9   105  36   1    97  35   1    11  43  15    12  44   0    36   4   0   128   1   0   135 101  68   130 116  98     6   1  66    28  44   0     0   0   0    16   8   0     0  10   0     0   0   0    27   8   0     1   0   0    72  22   1    16   4   1    60   5   0    60  44  13     0  32   0     0  33   4    35  49   2     3  18   1     2  18   2     2   2   0    33  36   9    33   0   7     4   0  24    30  32  14    17  38   1    16  43   6    16  40   0    16  41  24     1  10  24    49   0  17     9   8   1     0  16   0    60  32   2     5  32  48    44   0  18    40   0   0     8  16   0     8   2   0    28  21   0    24  17   5     0   4  15     0   7  14     1   0  16     0   9  17     0   1   2     0   9   2     4   8   3     2   8   2     1   0   0     1   2  16     1   1  20     1   3   0     7   9   2     2   0   2     1   0   3     6   0   0    11   0   7     1   2   1     8   3   4     0  10   0     6   8   2     0  11   0    10   8   2    10   1   6    10   1   6     3   0   3     0   1   0     1   0   1     0   0   0     8   8   4     4   8   0    12  24   4     4  16  22     2   0   0     0   8   4     2   4  20     3   1   0     2   4   4     2   8  16
 11   1   9     3   3   3     0   0   0     1   1   1     5   5   5     5   5   5    25  25  25     2   2   2     1   1   1     6   6   6     1   1   1    28  28  28     0   0   0     0   0   0     0   0   0    32  32  32     0   0   0    24  24  24     0   0   0     2   2   2     2   2   2     0   0   0    24  24  24     0   0   0     1   1   1    30  30  30    28  28  28     0   0   0     0   0   0     8   8   8     8   8  10     8  10   4     0   0   4     0   1   1     0   0   0     2   0   5     0   3   8     9   2   8     4   3   8     3   0   4    22  25  16    16   1   4    34   1   8     0  34  12    54  54   8    46  52   9    36  22   7    96   8  33     1   4  32     9   0  33    17   0  33    67 100   5    81  64  65    67  96  69   104  32  64    42  10  32     1  72   4     1  65  34     4  34   0    70   2  48     6  39   1    10   3   2    20  18   1     4  17   0     9  18   8    29  17   4    30  25   4     4   1   5    22   7   9    44  76   9    78  69   1    44 108  75     2   6  19   119  68   3    81   0   8    97  96  25    97  81   1     0  27   5   100  22  36     3  30   0    70 102  64    24  72  33    68  52   0     8  88   9   128  98  32    12  18  96    98   0   1    33  19  65     1   1   0     1   3   8   105  11   8   109  27   1    47   9  18    90  78  22    14  14  16    16   4  84    32  24  73    96  16  11    64   8   3    40   8   1     0  80  65    72  33   3    33  56   8    32  32   8    79  15  24     2  10  36    16  10  43    16  10  56    38  32  80   124 116  71    36  76  73   104  85  66     0  95  72     8 121  64     8   2  64    64  20  64   104  25   8     8  26   8     8  24   8    64   0   2     0  64  64     3   1   0   130  80   4   128   8  98   128 106  32    40  68  64    33  11   1     2  23   4    17   0   0    30  14   0    16   0   0    17  14   0    64  20   4     4  60   4    64   0  33    64  16   0     1  49  33    33  33   0     0  17   0     4  18   2     1  20   8     7   4   6    22  32  28    16   4  22    24   0  28     8   4  30     0   0  12     0  32   4     0   0   0     3   2   1    27   8  19    41  40  19    32  56  10    38  32  18    40   2  18    40  32   0    12   0   0     8  17   0     0   0   0     4   1   4    16  18   5    20   4  12    16   0   0     0   6  16     0   5   1     2   1   0    20   1  17    20   1   1     2   0  17     1   6   0     1   0   0     5   3   0     5   1   0     7   1   4     6   0   0     1   0   1     5   0   0     9   2   5     1   0   1     2   2   2     8   0   4     8   1   4    11   0   7     1   0   5     1   2   1     2   3   6    10   2   6    10   9   6     8   8   4     8   9   4     8   9   4     4   9   4     0   0   0     2   8  21     2   4   5     2   4  16     0   0  16     2   0   2     0   0  19     2   2  18
  2   0  11     8   8   8     2   2   2     0   0   0    24  24  24    25  25  25     1   1   1     0   0   0     0   0   0     6   6   6     2   2   2    30  30  30    30  30  30    32  32  32    32  32  32    19  19  19    19  19  19    27  27  27    33  33  33    34  34  34     0   0   0     1   1   1    24  24  24     0   0   0    26  26  26    30  30  30     1   1   1     0   0   0    10  10  10     1   1   1     5   5   7     8  11   5    10  11   0     0   2   1     2   2   0     0   2   5     1   3   8     9   3   0    10   3   8     4   1   0     0   9  18    18  18   8    50  19  12    52  51   4    32  32  24    38  48  41     6  66  57    64  72   9    17  12  19    56   0  10    33   4   9     0   5  24    97   0  80    64   6  87     0   6   5    56  12  68   108   2  84   100  66   6    64   0   0    68   0  16    78  17   8    14  24   0    12   0   0     8   1   0     0   0   0    32  10   5     0  20   4     4  11  12    40  38  11   126  35   1    14 109   0   106  85   9     8  70  33     9   6  34     1  68   2   116   0   2    49  64   4    32   6   6    70   6  96    33  16   2    70  68  64     9  82   5    64  64  33    65  62 101     1  48  36    64   4  64    34   2   4    32   7  64     3  19   0    32  87  64     6  21   4    40  10  29    26   8  23    56   4  84    36   0  82    16   4  17    68  71  65    64  85  68     2  70   7    64  65  64     0  21  69   104 113  65   120   8  72    96  25  64    98  80  64    38   4  64    20   4  20     4   0  32     3  65  33    78 104   9     9 105  45    40  12  13     0  18   1     0  17   0     8  25   8     0  20   0     0  18   0     8   8   9     8   8   8     0  16   1    32  16   2    96  16  70     0  66  36     0  64  20    16   8  96    66  26  96    68  92  66    71  30   0     5   2   0     0   0   0    16   1   0     9   9   0     5   5   0     4   4   9     0   0   9    56  40  32     3  35  32     2   2   0     3  19   3     6  22   0     6  22   8    15  14   6    16  36   4     8   1  14    18  32  16    11   4  22    26  33   2    16  33   0     0  34  28     9   8   2     2   1  11    24   9   2    33   0  19    10  32  34    13  34  42    76  16   0    68  32  32     0  32   0     4   4   0     0   5   0     0  16   4     0   2   1     0   2  15     0   0  17     0   6   0     2   4   1     0   4   1     2   0   2     0   1  19     3   5   0     1   5   4     5   3   4     5   1   0     5   1   8     5   8   0     0   8   3     0   8   5    10   2   4     1   0   1     0   3   0     0   1   0     0   1   0     0   0   0     1   0   1     1   0   1    10   0   6     8  10   4     4   0   0     4   5   0     4   5   0     4   4   0     4   0   0     4   3   0     6   0  16     0   2  20     2   0  16     0   4   0     2   0  17     0   4   1     0   6  16
  2   0   0     8   8   8     0   0   0     2   2   2     1   1   1     1   1   1     1   1   1     1   1   1     1   1   1     1   1   1     5   5   5     3   3   3    31  31  31    29  29  29    24  24  24    25  25  25     3   3   3     9   9   9     3   3   3    35  35  35     0   0   0    32  32  32    17  17  17     2   2   2     7   7   7     2   2   2     4   4   4     0   0   0     2   2   2     0   0   0     5   5   7    11   9   4    11  10   5     0   0   0     0   1   0     0   3   4     1   1   0     1   3   0     8   4   0    15   4   8     1   8  24    30  26  20    32  18   4    34  16  17     2  32  16     1  12   1    38  64  25    65  80  38    16   4  51    41   0  46     0   4  21   104  20  88    97  16   0   112   4   4    48   4  68    48   0  84     0  32  80     1   0  70     1   2  68    35  73  72    38  81   9   108  48   0     0   5   0     8   1   0     8   1   0     1  17   0    40  13   2    48   7   2    58  13  10     8   9  10    34 114  73     0  90   3    32  98   1    67  88   2    35  81  17     3   1   0    19   2  56    21   2  16    68   6  80     0  22   2    64   4  65    41  18  69    64   0   1    65  18 100     0  36  68    33   4  72    38   0  68    35   0  64    32  83  64     5  33   5     4  16  36     0  18   0    97  71  25    33   6  87    32   6  92    56  36  21     4  64   8    40 117  69     8  17   3     0  49  64    68  48  65    69  16  99    71  80  96    39   1  65    18   2  68    20   6  36     0   6   6     0  94  45    14  53  39    14  48   1     0   5   0    40 104   9     0  81  33     0  65   0     8  24   8    40   8  72     0   1   0     8   8   8     0   0   1     0   0   5    32  16  64     0  64  21     0  64   4    70  72  24    80  10  48    18  18  40     5  30  65   101  16  64    32  65   0     1   0   0     0   1   0    11   9   0    10  10   0    24  40   1     0  48   1    53   5  32    17   1  32    53   5   0     2  34   0     3   3  22    22  38  24    20  38  12    18  32  28     8   4   0    16  40   8    56   1  16    56   3   1    50   4   6    48  11  18    58   1  17    48  34  16     0   0   2    32   2   2   101  24   2    70  17   0     2  24  40     8   1  40     4  33   8    16   1   0     4  16   0     2  20   1     2   6  13     2   4  12     0   4  17     0   6  17     0   4   0    20   0  18    17   5  16     2   5   1     0   0   0     2   0   1     7   5   0     5   0   8     5   1   0     6   4   0     0   4   0     0   4   2     0  10   4     0   2   0     0   0   0     8   1   4     9   0   5     1   0   1     0   0   0     1   0   1     9   0   5     5   0   1     3   0   3     0   5   0     4   4   0     4   7   0     5   0   0     0   9   4     0   2   5     0   4   0     0   0   0     0   2   2     2   4  17     2   0   2     2   6  23
  2   0  10     4   4   4     0   0   0     2   2   2     0   0   0     0   0   0     0   0   0     0   0   0     2   2   2     1   1   1     6   6   6    28  28  28    30  30  30     2   2   2     5   5   5     6   6   6     1   1   1    25  25  25     7   7   7     3   3   3     0   0   0    32  32  32    17  17  17     6   6   6     7   7   7     6   6   6     3   3   3     2   2   2     8   8   8     8   8   8    14  14  10     9  10   1     1   0   5     0   0   0     8   0   4     8   2   5     1   3   0     0   2   9     0   6   1     2   2   8    24  27  17    16   4   4     2  11   1    60  18   0    33  17   8    33  68   9    80 100  24    17   4  36    35  70  42     5   0  20     4  14  12     0   7  12     2   7  76    97  17  66     0   0  16   112  32  18    24  32  16    24  20  16    32  10   8    42  20  72    34  17  64    34  81  70   112  65   0    17   0   2     8   1   0    37   5   1     4  21   7     0  21  15     0   1   7    10  12  26    44  64   4    32  24  23     0   0  17    40  64  33    41  80   1    18  16  66    39   2  72     4   4   6    84   1  64     6  16   0    68  65  96     1   6  64    64   4   4    32  14  79    68  64  36    35   5  10    51  96  68     2  66  64    55 100  20    74  36  20    64   0   1    81  92  15    49  82  14    17  15  10    56   5  64    32   1   5    38  53   1   102 117  71     0  68   0    40   4  70    32   2  66    44  22   7    54  68  70    98   2  64    32  68  68     0  68   0    20  81  36     4  17   6     2  58  11    10  17   0     3  49   1    12  72  41     0   0   1    32  16  64    33  16  64    32  28  76    32  28  76    32  30  79    32  27  73    20   4  68     3  67  68     0  64  49     0  64  24     0   6  24    18   6   1    84  68  40   110  12   1     0  80  32     2  81  48   112   1  16    19   0   0    19   5   0    10  17   0    48   8   0    46  24  11    48  32   1    10  42   0     0  32   0     4   2  17     5  18  16    14  10   5    26  40  14    18  34  24     2   2   0    25  10   0    48   6  16    66  16  33    64  16  32    72  24  40    16   0  16    90  40  24    82  34  16    32  82   2     2  80  42    10  74   8     8  80  32     0 124   9    80   0  25     0   4   2    21  28   0     0   1   1     3   2  13     0   1   3     0   2  12     4   2   1     4   0   1     5   7   1     3   0   2     3   5   1     0   0   1     0   0   1     4   4   0     0   5   8     2   7   0     6   3   8     0   0   0     2   4   0     0   0   0     0   3   0     0  10   0     0   9   0     8   8   4    10   0   6     0   0   0     8   8   4     4   8   0     4   9   0     4   8   0     0   9   0     0  10   0     9  10   5     8   8   0    13  12   0     4   4   0     1   1  20     0  10  16     0   0   0     1   5  20     2   4   0     2   4  30
  7   5   0     5   5   5     1   1   1     0   0   0     9   9   9     8   8   8     8   8   8     0   0   0     4   4   4     1   1   1    24  24  24     3   3   3     1   1   1    29  29  29     7   7   7     7   7   7     1   1   1    16  16  16    36  36  36     4   4   4     4   4   4    37  37  37    35  35  35    25  25  25    10  10  10     8   8   8    15  15  15     8   8   8     8   8   8     2   2   2     1   1   3     0   2   8     0   1   1     8   0   4     8   0   4     0   0   5    10   0   0     0   2   9     0   2   0    12  14   8    28   7  28     0  14  16     5  12   5    36   6   1    17   0   9     5   4   4    49  36  13     2 100  20   102  98   1    11  17   1     3  10  66     0  12  64    33  21  72    80   6  64    34   2  88    80  34  64    60  32  80    34  64  72    43  64  74    42  88  76     2  16  64    91  84  65   106  96  48    96  96  80   117  64   0    52   0   2    52   0  16    34   1  10     0  36  20    34  12   9    32 102   0     0  24  65    12 114  16     0   2  52     6  74  16     1  19  72    48  23  64    48   2  12   100   8   0     8  19   0     2  80  64     0  16   2    64 106  41     0  75  15     2   8  28    49   9  10    38  96  15    51  88  12     3   1  44    10   0   1     2  60  41    16  76  15     3  76   8     1  19  76    10  83   0    33  81  68   106  20   0    40  49   6   114  35  21    38   5  86     0   6  54    82   4 100    64   0 112    37   4  84    33  10   8     1   0   3    16   1   0    16  50   0     8  58  10    18   1  33    10  18   1    14  35   1     0  41  12     4  73  12     0  73  12     1   4   1     1  92  45     0   2  37     0   2  33     4  82  36     2  34   0     6  52   0     7  55   0     4  52   0     0  52  10    16  52   9    80  32  33     2  36   0    97  36   0    82  32  16    80   4  33    18   5   0    12  28   0    46  16   0    42  24   0    51  35   0     2  34  16    19  39   0    18   8   0    32   2   4    52   0  21     2   2   8    16  38  18     6   6   0    25   3  16    32   0  17    74  18  35    74  22  33     2  48   5     0   0  33     0  81  33    17   0  51    32   0  64    53   2  81     2  18   0    35   8  65    49   8  65    45  64   0    72  64   0     5  18   8     1  16   0    20  19   1     0   3  12     0   1  13     4   0  13     0   1   1     0   1  21     2   1  22     1   5   5     1   4   3     0   0   7     6   0   3     4   2  13     2   7   0     0   5   0     0   1   8     0   1  18     0   4  18     4   5   0     5   6   1     1   6   1     4   8   0     2  10   2     9   8   5     1   8  17     4   0  16     4   0   0     3   8   3     8   1   4     9   0   5     9   0   5     9   2   4     0   2   3     8   8   4     4   2   0     0   0   0     2   4   4     2   0  17     7   5  26     9  13  24
  5   1   4     4   4   4    12  12  12    12  12  12     0   0   0     0   0   0     8   8   8     0   0   0    24  24  24     0   0   0    32  32  32    33  33  33    32  32  32     1   1   1     4   4   4     7   7   7     2   2   2     0   0   0    36  36  36     4   4   4     4   4   4     0   0   0    33  33  33    24  24  24    24  24  24     0   0   0     0   0   0     4   4   4     0   0   0     8   8   8     0   0   8     0   0   4     1   0   4     8   0   0     2   0   0     6   0   3     6   8   0     8   0   8     4   8   1    24  31   8     0   8  18    32  12   0    32  14   4    16  10   6    92  10  11   117  33   5    53  34   4     4 102  20     4  82  32    15  26   0     5  18  69     1  17   0    16   2   1     2  82   0     0 106  32    80  66  26    36   2   0    87  32  19    39  20   0    73  56  10    95  40  28   105  46   0   113  36  16   121  96   2    49  97  64   116  65  16    80  64  17    48   0  16   112  72   8    64 108  24     8  48  25    96  16  85    68   9  10     4   8  48     8  13  56    16   8  64    20   5   8    10   1   0     8  16   0     2   1   0    32  91  64     0  16   0    64 101  36    16  78  12    80  13  28    16  18  34    34  44   4    49  36   6     0   4   0     2  32  48     2   8  33    50  72  43     1  12  40     0  22  32     8  16   0     5   1  36    21  48  32     0  24  33    22  18  34     6  31  78    46  20  68     3   3  16    18  38  20    17   0  84     2  16  14    32  64  46     2  66  24     5  66  16    22   8   8     2   3   0    14  11   8     9   2   0     1  38   0     1  32   0    68  32   4    86  32   1    82  36  53    83  42  56    67  32  39    72  34   1    67  49   0    70  54   0    67  35  42    67  34  32     0  18  42    56   0  33     0  16  35     0  16   2    65  32   2     2  25   2    65   4   1    64   4  32    67  16  32     2  17   0     0   2   0    59  11   2     2  18   1    37  26   0    36  18  16    48  10  16     8  10  20    32   2  18    18   1  18    22  10  16     0   1  18     0  32  17    32  50   5     4  54  13    72   4  36     2  11  40     7  73  41    33   1  65    22  40  20    50  34  84    50  10  80    53  38  81    20  40  16    48  10   0     0  64  64   104  32   0    41  32  17     4   1  17     3  16   4     4   0  12     4   1   5     4   1   5     0   1   4     2   1  20     0   2  16     5   3   5     5   4   4     4   0   6     4   0  10    16  17  11    24  20   9     0   0   1     0   0   0     0   0   0     4   0   0     0   2   0     5   2  17     3   4  19     3   4  19     0   0   4     0   0   0     6   0   2     0   0  16     0   0   0     0   3   0     0  10   0     9   0   5     9   2   1     8  12   1     0   4   0     1   5   0     0   2  20     3   1  12     0   2  12     3   1   8    21   1  17
 21  25  20    28  28  28     4   4   4     4   4   4    10  10  10     8   8   8    16  16  16    32  32  32    32  32  32    32  32  32     0   0   0    32  32  32    32  32  32    28  28  28     0   0   0     8   8   8    16  16  16    32  32  32     0   0   0     0   0   0     0   0   0     0   0   0     0   0   0     0   0   0    24  24  24    10  10  10     0   0   0     4   4   4     1   1   1     2   2   2     0   0   8     0   0   0     1   1   8     8   8   0    14   8   2     4   0   3    12  24   8    15   0   9    14  20   1    12   8   0     4   5  20     4  32   0    16  14  32    64  18  10    73  74   2    84  34   4    53  96  12    97   2   6    32  26  33    50  24  65     6   8  72    32   8  64     0  68  28    88   6   0    80   0  52    68   2  50     0  32   0    48  32  18    34  32   4    35   0   2    16  32  20    42  56   0    42   8   1   113   1  16    16  96  80    58   1  89    17   0  89    89  72  88    32  72 108   136 108  86   136   8  89   130  48  16     3   0  64     3   8  64     4  15   0    17   2  72    28  31   4    24   0   4    97  16   0     0  16   0    40  19  64     0   0   1    32  74  40    16   0  49    80  38  53    54   3  34    34   0  33     2   1  62     0   9   0     0  33  40     0   8   0     2   0   9     0   0   0     0   2  48     9  82  36    32   6  36     2   0   2     5  12  10     4  80  34    50  89  11    69  53   4     1  37  20     3  32  16   104   4  80     0  20  76     0   0   2     0   0  50    32   8  56    16  16   0    10  49   3    18  18   2     0  24  38     0  20   0    14   8   0     4   1   4    13  18   0     1  34   0     4  34   1    77  40  41     6  16   0    34  32   0    34  34   0    43   0   8    41   8  14    33  32   6    34   4   5    48   4   2     0  12  17    33   0  16    32   8   2    21  36   1    84   2  48    65   2  37    66  50  32     0   8   1    48   0   0     8   8   1    33  40  16     9  44   0    21   8   0    17  10   2     0   3   0    16   1   0    48  12  16    32  33  16    20   8  17     2   5   0    36   7   4    18  36  17    64   3   0    37  80   0    32  18  64    99  59   1   112  33  16     5   2   1    52  42  84    21   2  19     8  24   0     0   3   0     0  34   0    64  96  89    37   0   9     3   5  29    24   1   5     4  17   9     6   1   0    18   8  13     0   3  17    18   3  22     2   2   4     5   2   4     1   4   6     8   0   4     0   0   5     0   0   9     9   8   4     0   1  21     1   1  21     4   5   0     5   2  17     5   0  17     2   0  14     2   4   6     3   0   3     1   2   1     7   0   3     4   0   0     0   0   0     8   8   4     8   0   4    10   1   6     5   0   0     0   0   1     6   8   2     0   4   2     2   0   1     0   0  20     2   0   5    17   1   0     7   9  20
  2   0   0     3   3   3    12  12  12    14  14  14     2   2   2     0   0   0     0   0   0    32  32  32     0   0   0     0   0   0     0   0   0     2   2   2    28  28  28     4   4   4     4   4   4    28  28  28     4   4   4     0   0   0     0   0   0     0   0   0     2   2   2     2   2   2    32  32  32    24  24  24     0   0   0     0   0   0     9   9   9     8   8   8     9   9   9    14  14  14     4   4  14     0   4  12     0   6  12     0  12   9     0   0  10     8  12   9    15  24  10    13   0   9    11  20   8    32  34  16    52  40   1    36  10  13    48   8   3    72  17  10    33  80   2    96  50  12    32   0  20    48   0  80     4   0  48    52   8   6    48  10  40    32  96  10    88  46   8    32  58  10    32   6   0    32  50   0    32   0   0    43  24   0    49  32   6    53  34   2    48  40   0    11  42   0    37  48   0     4  24   2   102  16   0     0  72   6     0   0   0    80  50   8     0  76  12     0  36  36     0  64   0     1  48  18   133  36  16     4   0  80   101   9  88   108  35  17   124   3   0   104   0  16    96  16   0    11   0  16   100   0   0     4  16   0     4   4   4    36   5  33    40  66  16    32  10   1     4  13   0     2  44  60    28   0   4     5   8  54    21  56   8     1   0  12     4  30   8     1   0  32    33  82   4    49  70  38     0  67  34    54  64  33    44  64  64    96  21  64   100   3   0   129   7   4   136   5  20    16  32  13     2  32  12    98   0  88   102   0  64   100   9  10    51  92  10    48  88  41    19   4  36     0  33  32     4   1  36     1  36  39    68   0   0    70   2   4    85   0  25   104  34  22    22   0   9    11  17   0    25  20   8    42   0  16    40  16   4    10  25   8     3  19   4    11  16   6    32  32   2    35  56   0     0  40   0    44  43   0    36  52   0    32  19   0    68  22  32    66   2  32    64  34  35     3   3   0    41   9   0    33  16   0    41  56  12     9  40   0    48   9   0    16  13   0     0  12   0     0   0   1    24  12   3    44  12  17     0  37  21     0  37  17     2  39  23    32  36  16    97  16   2    10  66   4    74  58  68     0   8  68    81   4 113    68  69   0     0   8  64    65   0  64    33   0  72     0  36  28     0  21  81    96  64  68    32   6  24     8   4  24    12  15   1     4  12  16     2   1  17     4  11  16    16   2   3    11   1   0     9   8   0    10   9   8    12   5  12    21  20   5    21  20   5     9   8   1     8   9   4     0   8   0     4   4   0     4   1  16     3   0  15     0   0   0     3   0  15     3   4   3     4   1  16     3   0  19     0   1  20     1   8   5     8  10   4    10  10   6     8   0   4     2   0   3     2   8   3     4   8   1     0   8   1     2   8  22     0   8  19     0   8  19     2   8  16    27   9  24
 17  25  16    27  27  27     1   1   1     4   4   4     8   8   8    12  12  12    16  16  16     0   0   0    33  33  33    32  32  32    33  33  33    24  24  24     0   0   0     0   0   0     4   4   4    24  24  24    33  33  33     1   1   1    33  33  33    33  33  33     2   2   2    34  34  34     2   2   2     4   4   4     0   0   0     0   0   0     9   9   9     8   8   8     2   2   2     2   2   2     5   5   5     4   4   4     5   3  13     8  10   0     8  13   8     2   0   0     8  12   8     0  25   0    16   0  20    38  32  20    36  40   0     2   0   9    28  16   8    76  65   1    65  16   8     0  80   2    37   0   0     4   0   5    36   8   1     4 112  72    16 106  40    80  42   0    52  40  24     0   7   4     0   6   5    40  16   1     0   0   0    43  16   0    56   0   0     6  16   2     8  40   2     9  49   3    44  56   0     6  25  32    99   9   2     3  80   0     5   2   4    88  36  68   180  68  12     0  12   0     0  28  42     0  20   0    21  16   0   133  36   1   129  54   2   153  38   2    28  40  24   128   1  16     7   0  20     1   2  20    15  32   8   118  16   2     0   5  68    20   1   3    12   3  53     6   9   2    40  65  17    42  64  11     8   1   5    36  65   2    16  73   5     4   0   1    44  75  41   104  10  88   101   2  80    97  16   2   115  16  26    64   2  80    90   2  84   128  34  16   128  38   4     0   2  21     1   4  20    10  99   4   132  76   5   134  12   9   144  32   8    16   4   0    19  48  70    82 125   2    83 116  70    64  96  45    64  96   0    64  16  39     8  32  36     8  34   6     1   8   4     9  39  34     5  20   4   103  17   0   123  84   8    73   0   5     1   4  12    40  26  15     1  17  10     1  28   6    43   0   2    40  18   0    36  34   0    24  12  16    60  13  28    34   1   0    45  30   7    69   7  38    65  49  35    73   9  40     8   8   9    52   4   1    49  32   6    37  36   0    34  16  10     0   0   0     3   1   0     8   0   0     1  21   1    35   5   0     3  33  20    19   1   4     2   0   0     2   4   1    40   6   6    96  16   4    73  74  41    66  65  96     8   0  96    90  64  64    20   0  36     0  16   5     0  16  41     0   4   9     1   2  72    34   6   0    42   5  88   102  66  12     2   7   1    16   7   1    32  13  17    20  10  16    16  12  19    10   0  18    10   9  24    10   9   8     4   4   1     0   0   4     0   0   4     0   0   0     9   1   3     0   8   2     0   5   0     4   1  16     4   1  16     0   0   0     4   0  16     0   0   0     0   3   0     2   0   2     1   8   1     8   0   4     0   1   0     0   3   0     2   2   2    11   0   7     7   8   1     2   8   0     2   8   0     0   0   1     0   0   2     1   1   4     0   0   0     1   9   4
 11   1   8     9   9   9     4   4   4    10  10  10    12  12  12    14  14  14    20  20  20    26  26  26    34  34  34    31  31  31    29  29  29     6   6   6     0   0   0     0   0   0     0   0   0    17  17  17    33  33  33    33  33  33    33  33  33    32  32  32    32  32  32    32  32  32    16  16  16    15  15  15    10  10  10     5   5   5     1   1   1     1   1   1     9   9   9     0   0   0     0   0   0     1   1   0     1   7  12     0   2   1     0  11   9     1   7   8    10  13   2     4   1   8    16   9  18     3  44   1    47  41  37    62  16   1    30  17   1     4  17  72    68  65   0    32   0  12     1   0   0    47  17  16     1  72  36     0  25   0    16  74   4    64   0   2    36  44   4    30  42   4     8  10   9    32  27   1     0   8   1    37  20   0    57   0   0    32  16   4    40  32   0     6   0   2    14  49   0    75  25   0     7   5   2     2   8   0     1   4   4     0  64  85   128  72  32    32   2  16    24 115   0    16 112   0    28   8  32     9  28  33     1  14   0     8   2   0    16   2  16     3   2  16   146   0   4     2   0   4   147   0  18   103  32   0   124  22  12    28  17  65    12  13  73     8   8  32    44  10   0    58  93  42    30  76  34    66   0  36    76  10  43    65  10  25    13  40  92    16  10   8     8   2   0   144  16   0    32   1  11   128  18   6   136  35   5   136  62   4     1 104  20     4 104  48     0  96  40    10 120  65    15   8  65    15  96   0     4   0  16    13  44   2   165  78   7   139  90  36   177   2  32   160  51 105   135  33  76     7  32  68     0  64  24    91  26  20    73  99  12    69 113  15    25   5  15    44  64   8    27  80  12    40  68  20    32  64   8   104   4  12     0  18   4    34   2   0    41  16   0    35   2   0     5  42   0     4  51   0    44  45   8    44  12  12    44  12  10     6   6  18    27  11  10    76  60  32    72   8  32    72  40   2     8   8  10    32   0   0     2  17   0    33  20   2    45   9   0     5   0   2     2  20   0    32  16   1     4  32   0     2  32   5     2  36  22    11   0  16    10  36   4    35   4  16     2  33  20     0  49  48     0   4  97     2  81  64    74  72  98    66  64  44     0  16  57    32   4  24    33  16  33     1   2  83    24   6  72    40   2  75    72  66  17    58  17  16    48  29   0    28   0   9     4   0   0     8   0   3     2   1  18     4   1  16     4   1   2     1   0   1     5   5   1     1   9   5     2   0   0     5   0   3     0   5   0     0   1   0     4   1  16     4   1  16     0   1   0     0   5   0     3   0   3     0   0   0     7   0   3     8   0   4     8   1   4     0   1   0     0   1   0     8   0   7     6   0   2     2   8   0     0   8   2     5   1   2     4  10   1     2  12   1     1   9   0     1   5   0
  3   9   0    10  10  10     0   0   0    12  12  12    12  12  12    13  13  13    16  16  16     2   2   2    30  30  30     2   2   2     0   0   0     6   6   6     0   0   0     2   2   2     2   2   2     8   8   8    32  32  32    40  40  40    29  29  29    29  29  29    28  28  28    26  26  26    18  18  18     2   2   2    10  10  10    10  10  10     2   2   2     0   0   0     0   0   0     0   0   0     0   0   0     1   1   0     9   5   0     9   5   8    10  11   8     2   4   3     8  13   0     3  12   8    25  23  19     1   8   4    44  35  33     3  25   8    82   0   4    71  21   1     4  86  64    36   0  74    34   2   2     8  65   2    32   2  32     0  90  32    16   8   0    80  32  32    80   4  36    50   4   0     4  34   6    37  26   5    37  24   1    37   9   1     8   4   0     8   2   0     8  24   0     0  60   0     8  49   8    70  33  16     5  64  40     1  66  10    65   1  86   129  65   0     0  32   0     4 129  24    12   2  12    24 115   1    20 122   3     4 112   1     8 112   3     0  99  40     1 104  34     1  96  48     9  96  48     2  96  18    17   2   2   131  34   2   147  50   0   116  21   0    28  16   1   120  19  72     9   2  66   102   3  90     6   4  75    10   9  67   134  36  71   154  56  67   134  32  40     0  97  16     0  69  48    10  69   6     0  65  34     0 101  22     8 100  38    40   2  36    40   0  16    33  24   6    39   8 102     9 132   0    16   8  21    35 142  52    51   8  36     1   2  40    49  12  23    43  10  20     1   0  55    32  98  34     5  96  13    10  32   8   146  49  28   144 121  84   144  33  84     0  13   2     4  37  33    64  64   0    69  16  15    45  16  40     0   0  33    42   2  18    24  64  41    88   4  42    65   0  32    17   0   1    20   5   0    32  21   0     4   4   4     0  16   6    43  27  14    68   4  38     8   8   8    72  40  35    80   0  51    64  32  32    65  17  35     5  53   0    10  10  12     2  23   4    12  19   0    15   0   0    17  21   0     0  17   4    34   4   8     8   8  16    10  32  22     8  36   0     0  32  20     0  40  12     2  49  20    64  56  44    66   0  50    10  90   7    24  66 117    72  84  49     1  16  60     1  64  54     1   0  33     3  16  35    32  22  64    32   6  74    40   4   0   121  93   0     1   1   0     0  21   9     4   1   0     0   0   1     0   0   2     2   3  16     4   5   0     5   5   1     1   8   5     5   9   3     0  11   2     1   6   1     0   1   0     0   1   0     0   0   0     0   1   0     0   2   0     0   6   0     6   4   2     7  10   3     6   0   2     9   0   5     9   0   5     0   0   0     1   2   1     9   0   4     8   8   5     5   1   2     0   8   2     0   0   2     0   0   3     0   4   0     3   5   0     3   1   0
  2   0   0     0   0   0     2   2   2     0   0   0    15  15  15    15  15  15     0   0   0    29  29  29    31  31  31     1   1   1     0   0   0     4   4   4     0   0   0     0   0   0    30  30  30    10  10  10    34  34  34    33  33  33    32  32  32    28  28  28    28  28  28    24  24  24     6   6   6     9   9   9     0   0   0    14  14  14     8   8   8    10  10  10     8   8   8     1   1   1     0   0   0     1   3   0     8   7   0     9   0   0     4   0   8    14   4   8    14   0   1     8   4   8    31  25   6     2  29   8     3   0   0    25  23   0    67  81   3    64  20  76    68  64  64    96 102   6    34  42   2    26  65   6    32  64   1     3  66  34     0  24   0     2  48  32    64  17  32     0  32   4    36  32   5     0  26   3    13  25   8     5  24   1    40   5   0     4  37   1    68  54   0     6  53   8    17  17   8    68  36   8    64  64  72     1  32  72   128  32  17     0  96   0     0  96  49    32 128  16    36 129   0    16   1  16    61   1   2     1 131  16     0   3   2    32 131   2    33   8   3    40 136   1    41 136  19     7   4  19     8   2  32     8  98  18   136  50   1   128  23   0   144  76  16   148  66   0   146  50  18   134  34  10   150  48  11     0   0   8    10   9   6    10   9  10     8  97  57    18 125  11    56 142  16    10   5  16     8 133   2    40   0  19    42 128  20    36 128  25     4  10   5     0  10   8    18   0  97    24  12  97    26   8   4    19  12 112    16 142  96    17 136  96     8   0  20    11   0   4    12 138  23     9   6   0    40 118  32    42  97  40    18 105  21     1   9   2    48  13  52    36   9  51   164   4  96   161   0  98    22  20 105     2  64  32   100   4  65     8   0  48     9   4  40    33  68  30     8   5  32    81   2  16    17  36  18    21  38  16    13  13   0     4  20   0     1   0   2     0  16   0    42  26   3     4  20   3    10  58   9    65  17  32    73  57  32     0  18   0    42  58   0     0  17  10     0   3   0     0   3   0    24   4   0     0   4   0    10   4   0    32   4   0     0  18   2     0   4  16    16  40  28    18  40  24    32  16   4    66  19  30     0  18  32     8   8  16   128  48  98     0 104  66    73  19   0     1  64   8    16   0   9    16   2  27     0   8  49     1   4  32     1   2  80     5   8  26    69  71   9     4   9  17     8  20   1    16  16   9    16   0  16    16   3  16     6  12   0     0   8   3     9   8   1     3   8   1     4   2   3     0   2   0     0   0   0     0   1   0     0   1   0     0   0   0     0   2   0     7   2   3     7  10   3     8   0   4     9   0   5     8   0   4     0   1   0     0   0   0     0   1   0     8   0   5     6   0   2     0   0   1     2   8   0     0   0   2     0   6   2     0   2   0     4   2   0     1   5   0
  9   9   8     1   1   1     0   0   0     0   0   0    24  24  24     2   2   2    32  32  32     0   0   0    28  28  28     0   0   0     0   0   0     0   0   0     4   4   4    29  29  29    38  38  38    34  34  34     3   3   3     3   3   3    34  34  34    28  28  28    30  30  30     0   0   0    10  10  10     2   2   2    15  15  15     1   1   1     1   1   1     1   1   1     0   0   0     9   9   9     8   8   9     9  11   9    11   0   0    13  12   0     7   4   8     8   4   0    10   0   5    26  24   0    24  17  13    10   5  16    18   2  28    67  75   4    65  17  13    37  23  88    68 114  82   120  66   8    14  38  10    74  65  14     8  69  40    24   2  32     8   0  48     2  64   1     0  33   0     1   1   1    36  50   1    37   8   3     9  51   0     1  17   2    20   3   9    36   6   1    80  12   0    64  36   8    71  66   4     1  64  82     2   8  76   128  32   0     0  96  24     1  96  56    32 128  34    52 139  10     6   8   6     4   9  26     4   3  20     0   1  18    12   1  20    13   0  20    13   2  22     4   2  24     5   8   2     4   2   3    50 128  22    18  16  16     1  98  32     0 101  32     0  64  32    19  68  33     5 102  33     6   2  15     2  99  20     4 100   3    10   1  33     4 113   1    48   9  18     2 133  24     0   7   8     0   7   3    24   2   7    24   6   3     8   2   4    17   6   0    16   0   1    20   8   5    28   8 112    23   5  12     4   1 112     0   4   8     2   4   0     0   4   0    26   9  14    26   1   5     8   4   7     0 132   1    10 128   9    42 113  42    47 113  40    21 136  50    16   8  16    16   2  16     2   0   8    39 129  10    36  64  32   166  74   0    16  24  68     0   0  18    80   0   9     1   5  46    49   7   0     0  39  51     1  37  50    64  44  16     0  20   4     4  48   6    33   0   4     0  16   2    32  16   3    32  16   3    32  32   0    16   0  16    17  33   1    66   0  32    66  34  42     0  49   4    48  37   0    10  17   4     0   0   0     8   4   0     0   4   0    44   0   4    60  16   4    32   0  16    12  33  16    10  10  26    34   3  26    34  34  10     0   2  14    64  96  20    68 112  84     9  98  74    77  17  75     5 112  12    23   0  40     0  22  32     3  68  52     2  14  52    16  12  48    17   0  50    24   0  16    56   5   2    56  33  12    48  29  28    40   0  28     8  16   4    24  24   4     3   8   1     9   8  16     0   4  19     6   6   1     2   3   0     0   0  16     0   1  16     0   0   0     0   2   0     3   6   3     6   5   2     7  10   3     9   8   5     8   8   4     8   8   4     9  10   5     8   8   4     0   8   0     0   8   5     0   8  20     2   8  21     0   8   1     6   0   0     0   2   2     0   6   3     0   6   2     4   8   0
 12  12   8     0   0   0     4   4   4     0   0   0     4   4   4    28  28  28     5   5   5     4   4   4    24  24  24     8   8   8     1   1   1     9   9   9    28  28  28    33  33  33    32  32  32     1   1   7    26  26  30     0   0  26    32  32   0     2   2  24    26  26  24     0   0  12     0   0   8     0   0  14     4   4  12     5   5   1     5   5   1    11  11   9    10  10   8     0   0   0    10  10   8     0   0   1     0   2   0     0   1  12     1   0  12     1   0   8    22   8   0    16  12   0    24  29  18     8   9  24     2   9   0    64  72  12    65   0  40     4  16  30    68  96  13   108   0  48    10  36  24   104   4   8    24  84   4    48  12  65    18  68  36    18  65  36    66   4  36    20   0   1     6  49   0    37  32   0     9  33   1    47   1   9    36  32   1    48   5   1     0 100   0     0  84  64   163  24   6   130  65   0    40   0  48     8  97  57    36 128  57     8  96  42     6   0   3    32 138  16    21   1   0    25  11  24    16   0  14    13   8  20    29   1 112     1   3 116    10   0  12    13  10   8    13   0   9    18   1  14     8   2   2     8   1   0    32 132  16    34   5  33    18 128   0    39 128  72    51 146  80    20  16  20    28   9  33    32 128  20    60 128  19     0 141  26     0   4   3     0   7  27     1   4 120    24   2 114    16  12   3    18  12   0     0   0  12     0   0   0     8   2  12     0   6   6     0   4   8     4   5   8     5   1   9    20  12   3     1   4 112     3   0 112     3   9  10    20   1  10    20   8   3     2   0  16     6 129   0     6 129  10     4 136   0     1   0  16     8 137   0     4 136   0     2   2   8     6 128   0     6 128  10    32   2  32    32 104   1   128  48   0    49  29  64     1   1   0    65  70   4    65  37  14    64   7  32     1   8   1     4   0  16    69  34  16     0   0   0    32   2   2    34  16   2    12  26   0    58  42   0    24   8  18    18  32  16     3  34   0    51  11   2     0  33  12     0  16   8     3  33   4    33   8  16    37  33   0    41   4   8    37  17   0    16  16   0     5   2  20     7   0  16     1  24   0    34   0   0    66  48   2    64  49   6     0 112  24    68  34  74     0  43  96    77  56  96    77 107  64     7 116   8     6  52   9    64   0  36    81   8  36     0  72  16     0   6  16     8   7  60    76  75  44   112 108   0     0  40  28    32  30  16     0  18  22    12   4  20    20  22  16    14   8  17    22   0   3     0   0  17     4   5  16     4   1   1     4   1  16     4   0  16     4   4  16     6   4  16     6   4   3     1   2   0     0   2   1     0   3   0     0   0   5     0   1   4     8   1   0     4   1   0     0   8   1     2   8   2     4   4   3     4   0   2     6   8   3     1   1   0     4   2   2     4   4   2     5   5   2
 10   8  14     2   2   2     4   4   4    24  24  24    32  32  32     0   0   0     0   0   0     4   4   4    28  28  28    28  28  28     4   4   4    25  25  25     0   0   0     4   4   4    40  40  40    10  10  10    16  16   6     0   0   4     2   2  30     0   0  24    11  11   5     0   0   6     0   0   8     0   0   6     0   0   0     5   5   9     4   4  10     0   0  10     1   1   1    11  11   1     0   0   0     9   9   9     4   2   7     5   0   4    15  14   6    15   8  12    18   2   4     8   0   1    32   0  20    32  33  16     0   3  24    66  82  45     0  16  44    64   2  32    88  68  24    28  64  52   116  36  24   108  12  38    26   5  27    48   5   0    56   1  69    18  69  20    90   4  20    35   0   0    16   0   9    48   0   0    33  48   1    65  25   1    53  17   1     8   0  97   144  32  33     0  80  35    32  98  40    34   8  50    42 128  53    40 128   2     8   2  11    56 128   0    24   2  18     1   2   4     8   0   4    24   0  19    24   0  14     0   0  99    31   5  96    12  21 128    12  18   0    20   0 124    24   0 113    20  16   3    19  16 112    18   1   5     8   0   0    32   1  17    34   0  96    54   0   8    37 152  96    53 128 101    18   3  26     1   8   9    18  15  12    20  12   3     0  10   5    16  12  30     0   0   4     0  16  12     0   0 124     0   0  13     0   8   8     1  11   8     0   0   8     0   0  13     5   6   1     7   1   3     6  10  11     6  10  10     2   2   0     0   0  10     0   0   8     6   1   8     2   5  26     6 129   8     4   1   2     4   1   0    10 112   8    13   3  10     2   0   8     2   0   0     0   0   0     6   0   2     2   2   2     0 130   7    32   8  37     0  97   8    32  33   0   128  62   4   116  13  36    80  67   0     1   5  32     1  34  32     5   4  36     5   0  21    67   0  19     2  32   2     3  36   5     2  18   0    18   2  16    16   2   0     0  32  16     1  32   8    21  32   0    51   9  28    47   5  16     3   1   4    37  49   0     4   1  16    17  41  25     8   0  14    33  33  20    62   3  16    18   0  16    11   3   0    20  35  16    52   5   6    66  37   4     4  97   2     0   0  12    64   1  34    73   8  96    72 104  64    76   5  85    12  38  21    24  46   1    88   2  37    64   6  32    24  78  16    16   6  49    16  70  44    96  86   0   104   4  12    12   2  22     0   0  16    10   2  20     0  20   0     2   4   8     0   0   0     2   1   0     0   1  17    18   5   9    20  21  21    17  16  29     4   0   0     6   0   3     0   4   0     6   6   2     6   2   0     6   7   0     0   6   1     1   2   0     8   6   0     0   5   2     8   0   3     0   5  20     3   0  21     2   0   4     6   0   0     3   5   0     2   2   0     6   2   0     4  10   0
 10  10   8     0   0   0    28  28  28     1   1   1    32  32  32    32  32  32    32  32  32    32  32  32     4   4   4    17  17  17     0   0   0    20  20  20    44  44  44     4   4   4    40  40  40     0   0   0    24  24   2     0   0   4    28  28   6    24  24  10    12  12   4     0   0   0    10  10   4     0   0   0     0   0   2     4   4   8     4   4   8    12  12   6     8   8   4     1   1   9     0   0   0     9  11   8     9   2   8     9   0  12    25   6   0    12   6   8     6  14   8    40  18   4    40  26   0     0  35  17    81   0  40    80  42  38     1   4  52    72 122  32    90  36   8     6  68  38   112   0  20    96   5  32    40   0  73    96   4   8     8   4   9    18  68  17     3   4   4    49  36  15     1   8  13    54  12  27     0   0  17    97  32  16     1  52  65   134 132   1    33   4   0     4 130   1     0 130   1     2 136  20    10   0  17     2   0   5     8   2  11     0   1  15    28   3  20     8   0   8    12  16   5    16   4   5    10   8  21    18  20   0    15  20 132     6   0   0    15  16 132     2  17   2     8  17 128     6   1 128     2  16   0    20   0 112     2   4   0    18   0   4    23   0   0     7  16 128     7  16 128     1  16 128    16   0 116    17  12 112     1   6  12     0   3   7     0   1   7     1   4   2    16   8 122    21   0 114     1   0   6     2  12   0     0  10   0     1   8   0     1  10   0     3   6   0     5  12   2     2   2   2     3   8  13     0   8   0     0   0   0     2   4   0     6   4   0     2   8   8     4   0  17     0 132   0     2 129   2    10 117   0     8   1   0     0   0   0     8 131   8     9 131  11     8 130  10     2 130   2     2 129   2     2   3   1     8   0  11     0 129   9    32   5  43     0 110   4   162   6 101   129  15   4    64  70   0    16   0   0     5   0   0     4  32  16     3   0   5    67  20   1    64  62   8     2  31   0     2  42   0     0   4   0     3  32   0    19  34   0    34  40   8    81  33  56     6  54   8    65  51  32     7  27  32     0   0   2    35   1   4    36  32  10     2  32   6     1   1  18     1   1  16     2  17   0    32  49   4    64  37   6    70  49   8    36  16  17    39   0   9     0   8  19    64  65  96     1   1  68    96  93   2    44  67  65    80  32   1    49   0   4     5  42   9    68   2  41    20  69  49    12   2  13    40  23  78     8 112  45     0  64  32    72  35   3     4   4   0     2   6   1    24   6  18    32  22  21     8  17  16    32  19  20     2  20   9    20   4   1     7   0  15    16  16   4    24  20   9    16  20  16     0   6   3     0   0   2     0   4   0     3   0   5     7   2   4     8   2   2     9   0   3     0   8   0    15  14   0     0   6   1     3   3   1     4   4   0     0   0   2     2   2   0     2   2   0     6   6   0
  8   8   8    30  30  30     2   2   2     0   0   0     0   0   0     1   1   1    32  32  32    33  33  33    29  29  29    25  25  25     1   1   1     4   4   4    36  36  36     0   0   0     8   8   8     2   2   0     0   0   2    34  34  28     0   0   2     8   8   8     2   2   4     9   9   3     8   8   4     0   0   2     2   2   0     4   4  10     0   0  10     0   0  10     0   0  10     0   0  10     0   0   0    24  24  24     0   8   0    25  18  24     2   6   1    32   0   1    32   0  12     8  24   1    40  10   1     0   0   0    80  80  40    82   0  10    82  16  24    80   4  52    74   4  40    64  68  50    97  64  16     0   4  34    64   4  24    64  12  89    50   2   0     2   9  57    66   4   1    51  44   5     0  32   8    19   4   2    65  12  16    80  49   0   165  20  97     4 128  32     4 128   8     6 130   8    17 138  16     2   2   4     0   1  28    20   0   4     0   3   6    24   3   8     8   2  18     4  16   6     7  16   7     5  16  11    12   4 113     2  16 130     3   4   2     4   4   0     0   6   4    12   4 132    11   4 131     4   1   2     0  16 128     6  17 129    16   2 114    24   3   3     0  16 128     0   2   2     5   2   2     2  16 128     1  18 130     2  10  10     7   6   6     0  12 124     1  12 124     2  12 124     5  12   8    21   0  12    20   0   0     3   0  10     1   9   0     1   1   0     1   0   0     1   6   0     0  12  12     0   2  12     3   0  10     0   1   2     0   6   6     4   6   6     6   4   4     4   1   1     4   0  20    18 133   4     2 128   0     4   0   8     2 129  10     2   0   0     0   0   0     1   1   1     0   0   0     9   1   0     0 136   9     0 128   2     0 128   9     8 128  10    12 129  14     4   8   0    34  69  33   129  15   0   112  24  64    65   8  65    48  88   0    16   4   0     2  44   2     0  36   2     0  20  41     0  53  34    80  51   0     0  19   0    32   0   0    32   6   0    16   8   0    26  10  16     0  32   8    67  51  34     1   1   0    64  16   4    76  28  39    60  12  18    32  32   0    16  32  18     0   0   3     1   2   1    16   8   0     6   5  20    36   8  24     5  40   3   116 104   4     0  65   4    16   1  68     8  73  86    40  76  23    48  42   6    96  32  64     4  88   0    96  20   0     5  22   0     0  33   8     1  84  41    32  64  64    41  22  64    45  18   0     9   1  81    19  66   2    99  71  23    90  64   2     2  20   6    12   4   2     0   6  16    38  18  18    32  18  30    18  17  12     8  25  24     4   2  10     8   8   0     0   6   2     0   6   0     2   0   0     2   0   0     3   0   4     9   2  19     9   6  17     1  10   1    13   6   1     5   2   0     0   0   0     0   0   2     4   4  18     2   2   0     2   2  20     0   0   0
 14  14   8    24  24  24     1   1   1     1   1   1     2   2   2    35  35  35     0   0   0    24  24  24    24  24  24    29  29  29     4   4   4    33  33  33     2   2   2    36  36  36     2   2   2     6   6   0    32  32  26    36  36  26    25  25  11     4   4   2     0   0   6     0   0   0    10  10   4     8   8   0     2   2   0     8   8  10     1   1   1     1   1  11     1   1   9     4   4   2     4   4  10    24  24  18     0   8   2     2  18  16    24  18   8    34  23   8    34  30   8    42  26  25    40  32   9     8   0  18   112  81   8    32   0  26     0  36  24    16  36  31     0   4  45    32   0  15    98   8   8    96   1  80   100   7   8   105   0  64    20  82   8     0   0  48     3   0   4    48  40   8    51  16   4    69  32   0    85  40  24     0   8  81     4 132  16     6   0   0     2   0  16     2   2  21     0   3   4     4   6   0     2   1  24    22   0  16    18   2   2    28   0  24    12   3  16     4   3   0    12  16 124    60   5   0    57  16 128     0   4   0     4   0   0     4   4   0     5   6   3     4   4   4     2   6   0    10   5   0     9   0   1     2  21 133     2  21 133     8  17 129    12   0   0    12   1   1     4   0   0     9   0   0     2   2   2     7   2   2     2  20 132     0  16 128     0  16 128     0   5   5    24   2 116    13   0   7     4   8   1    18   8   9     1   0  12     0   2   0     4   4   0     0   6  12    20   0   8     0  12  14    16   8  10     3   8   7     2   0   4     3   1   3     0   7   6     3   5   5    20   1  16    13   0   1    12 128   8     8   3  12    12   0   0     0 130   0     4 128   2     1   1   1     7 121   1     3   5   4     3 121   0     1   9   0     0   0  10    10   2   3     0   0   1    10   0   0    40   1  32     2  74   0   147  29   4     0  22   1    24  24   0    96  20   0    37  76  42     0  85  42     0  43  35    16  80  11    16  55   1    82   2  35    16   4   0    24   0   0    50  10   0    32   0  16     8  10   0     4  16   0    64  18  32    64  16   0     0   0   4    64  16  44    36  52   1     0   0   8     0  16   1     8  16   4     8   9   6    32  33   6     0  17  24    66  30  28    84  12   0    35  60   3     0  76   4    35   8  71    33   0  65    41   8   4    13  40  16   100   0  80   120 104  24    76  92   1    46  88   9     0   4   8     5  80  35     9  80  32    25  32  80    24  32  64    55   2  66    18   2  34    11   0  67     4  68  36   100  64   8    32   0  28     8   4  14    16  16   8    20   1  12    30  17  12    24  27  16    16  22  20     0   2   3     2   0   3     0   4   0     3   0   0     5   0   0     0   0   0     9   6   0     1   8   0     8   1   2     2   3   1     0   0   2     5   5   3     5   5  19     0   0   2     0   0  20     2   2   0
  2   2   8     1   1   1    24  24  24     1   1   1     1   1   1    29  29  29     5   5   5     1   1   1    28  28  28    16  16  16    34  34  34     2   2   2     2   2   2    32  32  32     2   2   2    36  36  34    34  34   0     6   6   0    27  27  13     2   2   8    11  11   5    10  10   4     0   0   8    11  11   1     0   0   0     9   9   9     2   2   0     4   4   2     6   6   0     4   4   0     4   4  10     8   8  22     0   8  23     0  16  22    18  14   0     0  16  27     0  25   8    32   1  18    40   0  12    32   2   0   120  73   0    32   1  16     0   0  28    10  64  36    18   0   0    34  64  62    96   1  56     0   0  16    98  42   0     0   5  88    56  96  21    64   2  13    48  59   9    48   8  13    33  16   8    85  48  12     0   0  74   177 136 104     0 140   1     0   4   8     2 136   9    18   0  21     3   8   4     0   6   0    19   4  25    20   3   0    21   0   5     4   1  20     2  11   0     8   1  12     8   5   8     4  20 128     1   0   2     4   0   1     5   2   2     4   3   2     5   4   7     0   0   2     5   2   3     5   4   6     9   0   0     9   0   0     8   0   0    56   0   0    56   1   1    56   1   1     8   1   1    10   0   0     2   2   2    11   6   6    11   0   0     4   3   3     4   1   1     0   1   1     0   7   5    16   5 113    20   4   1     0  12   8     0   2  12     0   2  13     0   2  13     0   1  12    17   0   8     0   2   9    17  10   8     5   8   9     4   5   4     0   7   2     0   5   4    17 129  17     1 133   5     8 128   8     4   1   8     4   1  14     4 121   0     2 120   2     2 121   0    10 120   0     2 120   0     2 120   0     2   0   0     1 121   2     1   1   2     8 129   2     0 129  10     6 131   9    32   9   4     5  65   9    31  49   0     2  60  17   136   5   8   128  13  64   100   1  72    32   1  10    53  87   0     0   0  41    18  67  25     4  66  35    98  18   2    37   0   4    10  10   0    14  26   0     2  18   0     0  18   0     6   0   0     2  50   1     0  16  33    56   8  24    48   0  20    20  36  21     4  20   6    10  17   4    12  16   0     8  17   0     8  63   8     8  61   0     8  29  32   104  32   0    16  65  32    24   0  54    17   0  36    49   0  64     0  32  16    10  24   8    39   4  64     6  84   1     2  80  32     1  84   3    35   0  65     0  32   0    33  32  16    48  32  16    16   0   0    33   5  85    32  21  68    16   5  64     0  85  74    96 100  72    20   0   2     0   0   8    20  18  19    16  22  20     8   8   0     4  14   5     0   2   1     2   0   1     2   0   0     1   0   0     0   6   1     8   7  16     8   7  16     0   1   2     8   1   0     0   1   3     1   1   1     0   0   0     0   0   2     5   5   1     1   1   3     0   0   2
  0   0  12     0   0   0    25  25  25    33  33  33    33  33  33     0   0   0    24  24  24    24  24  24    32  32  32    36  36  36     5   5   5     0   0   0    33  33  33     0   0   0     8   8   8    32  32  32    12  12  18    24  24  24     1   1  11     0   0   0     0   0   0     0   0   8     0   0   8     8   8   0     0   0   0     9   9  11     0   0   0     4   4   2     4   4   0     4   4   0     1   1  13     9   9  14     0   8   6    20  19  28     0   2  10    36  19   0     1   4  26    45  18   2    18  11   1     4   3   0   104 114   0    16   4  34    16  66  16     0  10  21     2   1   8    46  65  45    32   1  25     0  11  40    18   9  16     0  22  68   108  50   4    96   4  12    53   7   4    65  36   4    68   4   4    65   8  32   133   8  52    13   4  16     1 140  16     9   0   9     2 140   9     0   0  22    16   2  16    16 134  16    11   6   9     3 128  17    20   0  20     4   2   4     3   0   5     2   8   8     0   0 112    56  20 129    56   1   0     0   1   1     0   2   2     4   6   7     5   4   7     0   4   7     4   4   5     4   5   5     2   4   4     4   8   8    60   8   8    58   8   8    69  24   8    56  16   0    56   1   1     8   4   4     1   0   0     3   0   0     6   0   0     8   2   2     0  22 134     0  22 134     0   5 120     0   5 121    16  15  12    17   0   8     1   6   8     1   0   1     0   0   1     0   0   8     4  10   9     4  10   8     1   4   0     5   2  11     2   1   2     0   0   4    17   4   7    11   1   1     1 129   9     6 129   0     6 125   4     4 126  12     0   7   0     8 121   2     8 120   2     4 120   0     0   0   0     0   4   4     1   1   0     2 122   0     2 114   2     0   0   0     2   4   1     0 128   0    47 120   0     3  96  33     0   9  16     0   1   0     2   9  16   136  49  24     4  44  80   108   0  66     8   5  80    56   3   8    36   2  43    16   5  35    37 100   2     1  34  16    44  24   0    12  26   0    20   0   0    16   2   0    48  10   0    42  10   0    33   1   0    35  51   0     3  35   4     1   1   8     0   0   0     8  25   0     8  28   0     0  16   0    32   4   0    34   6   8    38  49   0    72  37   0    89  32   1    16  72  37   112  72  16   120  72  24     4  96  12    10   8  74    42   8  66    46  29  74    20   0  43     1  20   1     3   0  17    37  32  80    21   0   0    16  40   8    32   4   4    71  27 107   100   1   0    72  20  64    74  64  72   115  64  72    48  32   1    48  40   6     0   0   2    22  19  16     0   3   0     0   2   3     0   8   3     2   8   3     2   8   1     0   9   0     8   8   0     8   4   0     8   4   0     0   1   0     8   0   2     1   4   2     5   5   3     0   0   2     0   0   2     4   4   2     0   0   6     8   8   2
 24  24  20     3   3   3     0   0   0    33  33  33    37  37  37    33  33  33    32  32  32    36  36  36    33  33  33     8   8   8     8   8   8     0   0   0    40  40  40     0   0   0    40  40  40    35  35  33    11  11   9     0   0   8     2   2   8     2   2   8     1   1   1     6   6   0     1   1   1    12  12  10     0   0   0     8   8   8     4   4   2     1   1   1    28  28   2     3   3   5    26  26   4    11  11  24     0   2  14    18  22  20     4  16  14    34  28  10    33  24   8    56   1   0    51  44   8    25  21   0     3  96  33    64 112  39     0  42  19     2  72  21    10  34  27    42   1  28     8  65  34     9   0  60     1   8  64     5  66   4    24   5   5    44  53   4    48  20   1    64   7  49    72 100  21     1   0  68    13   0  36    36   0  16     8 134   1     1 130   0     8   4   8    16 128   0     8   0  10    19 128  19     9   2  13     3 134  21     3   0  17     6   4   4     5   0 112     0   1 112     4  20   4    11  16 130     4   0 128     6   1   1     2   1   2     4   2   2     1   0   2     0   1   3     5   8   8    56  12  12     7   0   0    62   0   0    62   2   2    66  24   8     1  24   8    72  20   4    52  16   0     4   2   2     9   0   0     0   2   2    13   0   0     8   0   0     0   1   1     0   3   3     0   0 128     0  12 121     0  15   0     0   7   0     1   2 121     0   2 112     0   2 112     0   2 121     1   1   0     5   0   0     0  10 121     4   1 120     0   1   4     0   1   2     0   0   4     9 132  19     2   0   0     4 133   8     2   1   8     0 125   2    10   9   6    10  11   4     8   9   2     5   1   1     0   2   2     2   0   0    38  10  34     6  14   0    44 116  40     1 112   0     2 121   4     4 128   2    38 113   5     0  96  33    28  24  18     0   0   8     8   5   0     0   9   0     4   4  18   134   0  16     5  37  28    69   2  82     0  18   2    37   2  68     3   6   4   108  70   4    14  26   4    76  24  52    64  40  32    10  16   0    16  10   8    33  17   4     2  18   0     2  18   1     0   0   0     4   4   1    13  29  14     4  21   2     4   6   0     1   6   0    40  56   0    34  18   8    32   4   0    64   8  32    92   8  48     8   8   1    16  81  56     0  51  19    64  48  24    44  84   8    12   4  42    30   4  38    16   3  34    20   1  48    20   2   0    19   0  16    22   0  16     2   0  16     5   0  16     2  34  18    34  18   2   108  48  72    34  18   8   111 100   8     1   4  16     0   0  34    33  32  41     7   0  17    16  18   8     9   3   8     6   8   2     2   4   3     0   8   0     6   5   4     0   5   0     8   2  17     2   2  18     8   7   4     1   5   2     5   5   7     4   4   0    12  12   2    12  12   2     4   4   6     0   0   4     4   4   6
 16  16  20    33  33  33     1   1   1     0   0   0     0   0   0     0   0   0     1   1   1     0   0   0     1   1   1     1   1   1     8   8   8     0   0   0    32  32  32     0   0   0    32  32  32    32  32  32    17  17  17     5   5   1     0   0   0     6   6   0     6   6   0     4   4   2     0   0   0    12  12  10     0   0   0    12  12  10     0   0   0     4   4   2     8   8  12     8   8   2     0   0  20    24  25  24     8   8   8     8  20  23    17   0   2    24  48   0    57  53  10    26  52   0    50  16  41     2  32  32     9 112   3     9 116  35     0  32   7     0   8  49     0   8  23    36  73  31     9  50   6     9   0  36    32   2  18   113  70  18    21  20   4    20   7   0    72  49   0    12  52  32    69  68  53   160  64  85     6   0  52    13   0  16    12   5   3     8 130  18     4   4  13     6 140  16     2   3   0     3  10  20     3   2  13    26   8  16    18   2   9     3   6 112     4   0 112     6  20 128     6  20   8     5  16   4     3   0   2    11   0   2     1   2   0     0   3   2     0   8  10     0   9   0    60   0   0    57   0   4    56   1   2    62   2   2    60   0   2    48  30  12    66  28  12    69   0   9    65   0   1    54  16   0     0   1   0    10   0   0     8   9   8    12   8   0     5  24 129     0  21 130     2  17   0     2   3   0    16  11   8    16   4   8     3   4  11     3   8   3     4  28 129     0   6 125     5  14 120     1   9   8     4  14   0     4   9   0     2   0   3    18   1   2     0   5   4     0   0  16    10 128  20    10   1   8    10   9   4     2 115   0    14   6   2    12 112   0     8   0   0     3 113   1     3   9   1     6   0   0    37 125  32     5 125  32     0   8  32     0   8  36     1   4   4     5 128   4     5 128   4     4   0  34     4  10  16     8   0   0    10   4   0    16  18   9     2   8   7     1   0   0   130   4  16    65  51   2   109  19   2     0   2   2     1  18   2    36   0  84    78   5   2    92  10  32    18  34   0     8  56   8    25  40  16    43  11   0    34   2   0    38   6   0    38  22   0     0   0   0    32  16   4     1   4   1     2  12  12    34  48   9     0  33   0    40  56   0    42  46   0    16  11   0    65  16   1    81  40  35    81   0  11     0   3   3    66  17   9   104  36   2    12  85  41    24   0   2     1   0  38     0   0  12     3  64   9     7  10  88    52  32  16    23  40   8    13   0  16   100  32  16    78  34  66    66  98  66    96  66   6    11  34  10    40  34  40    26  50  43    38  58  33     3   2  17     4  18  17     0   2   2     2   4   3     4   4   0     4   2   1     2   8   5    11   8   0    10   0   1     9   0   0     0   0   5     0   4   0     5   5   1     1   1   3     4   4   2     4   4   0     0   0   0     0   0   6    16  16  22
 33  33  33     1   1   1     0   0   0     0   0   0     4   4   4     0   0   0     1   1   1     5   5   5     1   1   1    13  13  13     8   8   8     0   0   0     0   0   0     0   0   0    34  34  34     8   8   8    16  16  18     2   2   0     6   6   0     6   6   4     4   4   0     6   6   0     0   0   0     8   8   8    24  24   0    16  16  10     8   8   8     8   8   2    17  17  31    41  41   5    33  32  13    40  44  12     0   5  12    32  36  26    25   9  20     0  60   8    48  49  40    58   1   9    40  17   7    11 101   1     9 112  17    75  12   3     2  40   2     0   0   4    10   0  48     0  64   6     0  18  52     8   2  20     0  80  32   117   0  21    34  38  19     2   1  20    72  32  17    12  66  32     4  68   0   145  20  36    38 128   0    37 136   0     4   5   8     5   4   0     6   1   6    20   0  18    18   8  19     3   0  18     3  10   4     1   0   4     0  12  12    15  16   0    15  20 128     2   0   4     7  22 128     6  16   4     0   3 120     0  19 130     0   0   2     6   0   8     1   0   0     2   3   0     5   0   8    65  29   4     6  31  12    12  19   2    14  29  14    74   7   4     1  36   1    64   0  12    64  32   0    50  16   8    58  17   0     6   1   0     0   0   0     4   0  10     8   8   8     8   1   2     0   0   0     4  16 130     4  16 120     4   3   0     1   0   4     5   8 134     4   8   4    11  24 128     5   8 116     5  11   4    16   1 112    26   1 113    17   3   0     0   0   0     0 129  28     4   0  16     7  12   1     8 129   8     9   8   1    12   0  10     5 118   9     0   0   8     1   8   1     1 121   1     0   2   2     1 125   4     1 119   0    33   9  34    36  12   0     5 120  32     0 128   0     5 128   2     1 128   0    36 106  36     4  98   3    16   0   3     0   6   8     3   6   8     3   2   0     2   0   8     0   8   0   137  20   2   136  34   0   105  22   0     0  10   0    32   4  70    40  73  10     8  32   4    72  24  42    75  24  42    59   8  16    43  11  24     2  50   0    34   2   4     0  16   0     0   0   3    33  17   0     0  16   2     1   0   3    41  48  15    33   0   1     1   2   1    65  38  33    81   0  37     3   0   1     0   0  43     0   1  23    64  22  18     8   3   3    12  28   2    13  56  40     1  68  12    14  64  40    12  65  44     7   0  25    49  34  16    18  32  16    17  42  10     5  32  16    14  34  18     6   0  18    34  32  34    88  65  12    50  36  12     8   0  12    43  32  16    48  51   1    22   7  17     6  16  16     1  21   4     2  20   3     2   4   3     0   2   1     4   2   1     0   6   5     8   2  19     0   1  16     0   0   0     6   5   0     1   1   7     5   5   7     5   5   1     1   1   3     0   0   0     4   4   4    16  16  16
 33  33  35     1   1   1     1   1   1     0   0   0     4   4   4    36  36  36    33  33  33     9   9   9     8   8   8    10  10  10     0   0   0     2   2   2     0   0   0     0   0   0    33  33  33     0   0   0     0   0   8     3   3   1     1   1   1     0   0   0     2   2   0     0   0   8     2   2   8     8   8   8     0   0   8     0   0   0     8   8   4     0   0  12    25  25  19     9   9  11     8   9  12     1   4  17     0  12  21     1   4   4    24  41  16    33  36  48    40   1  40    67  37  33    67  19   3    99  96  34     0  64  26    64   7  16     2  33  12    76   0  17     3  64   4     6  32  16     6  32  60    27   2  48     1  16  48    80   2   7    68  32  16    76   2  17    64   0  33    76   4   0   129   6  96    33  38  32     0 128   8     9 129   2     0   1  14     4   0  18     9   0   6    20  12   2     2   8  23     0   0  16     0  12   1    17   0 112    49   6 121    50  20 128    54   0 132    10   4 132     0   0 128     6  21 128     4  18 131    10   2   3    57  18   0    60  16   0    61  16   2    12  24  10    64   8   0    78   6  24    71  45  25    70  42  24    72  37  20    70  47  28    64  15   0    65   0  15    65   2  13    58  24   0    56  24   8     4   0   0     4   1   0     0   1   2     4   0   8    12   9   4     6   1   2     0   3 128    20  17   2    20  16 120     5  22   2     7   2 134     0   8   4    12   8 128     5   0 112    17   1   4     7   0   2     0   8  26     0   3  22     8   2  16     8 129   0    12   1   0     0 120   0     0 113   2     0 112   2     1 114   9     5 124   9    12   0   8     4   2   0     2 120   0     4  10   2     7 121   0     5  15   6     3  11   4     0 120   4     2 120   5     0   0   4     5   0   6     4 128   0     0   2  34     6  96   0     0   2   3     1   3  26     1   2   9     1   9   0     0   8   9     1   0   0     8   4  10   136  29  26   104  42  22    96  42   2     8  39  22    40   7  66     0  69  54     9  34  50    67  40  56    25   8  24    64  16  36    66  18  33    66   2  33     4  36   4    32   0   0    16   0   0     1   0   0    40   0   0    15   0   8    13   0   0     6   0   0    10  20   2    40  40   4    64  33  12     0  33   2     0  50   6     3  50  38    64  23  35    78  38  40    12  32   0     6   8   0     5   8   4     5   0   5    26  72  16    16  36  80    48  32  20    48  32  16     9  32   0    43   3  83   107 101  71   112  98  80    96  66  78    98  66  14    40   0  27    24   0  25    18  18   8    18  18   4    16  16   8     3   1   0     0   0   4     0   4   1     4   6   1     0   4   0     8   5   6     1   6   3    11   4   1     2  10   0    11   9   0    11   9   5     5   5   5     5   5   1     7   7   1     5   5   1     5   5   1    21  21  23
 33  33  33     0   0   0     1   1   1     0   0   0     4   4   4     0   0   0     1   1   1     4   4   4     0   0   0     4   4   4    46  46  46     2   2   2    32  32  32     0   0   0    35  35  35    27  27  17     3   3   1     1   1  11     5   5   1     5   5   1     1   1  11     1   1   9     0   0   0     8   8   6    26  26   0    24  24   2     8   8   6     4   4  10    27  27  17     3   3   9    11   2   5     1   8  33    33  32   4    32  34  17     1  18  16     1   4   0    66  22  32     0  35  50     0  32   4     0   6   3    40   2  16    14  14  17    20  32   8    86   0   0    25  64  41    74   0  17     7   3  24     6   2   1    64  34  17     0  33   5    68  38   1     0  37   5    68 108  56     4  21  32    36  53   0     2 101  96     1 120  10     1   3  10     0   0   0     0   0  12     7   0   0    12   4  14     6   2  17    20   4  18     0   3   1    48   3 113    48  16   5    56   1   4    63   0   4     4  17   0    53   0 145    48   0 128    58   9 141     8   6 146     4   0  16    64   0  10    66  38  24    76  40  16    14  42  12     8  12   8     1  12   9     3   8  13     2   6   4     2   2   4     2  32   8    65  32  13     2  29   0    58  24  12     0   0   0     0   0   2    56   3   0    60   3   0     4   3   0     2  10  12     6   1   0     0   6   2     0   4 128     5   2 124     4   2   2     0   2   2     8   0   0     2   0 133     1  16 117     7   0   8    16   0   8     8   2   1     3   2  20     8   2  18     8 136  14     0 137  10     0 120   9     4   9  38    13  12   1    13   0  33     5   0   9     2 128   8     4 120   0     6   0   0     4   2   2     8   2   0     6 124   6     5 125   6     6 126   6     6 120   3     1   0   2    36 113  35    32 117  35     4   8  16     0  35   7     4   1   2     7   1   0     2   3  24     0   9   4     0  14   0     1   1   2     1   6  12     0   4   4   128  12  10   128  36  10    96  48   2     9   4  16    32  36  82     3  96  17    64  32  32    90  40  25     2  16   0    66  18  32     2   2   1    68  20  35     1  33   1    33  33   3    48  32   0     3   0  17    21  32   1    46  16   1    37   2   1    21   4   0    64   0  32    64  33   8     0  16  40     0   0  36     2  50  38     0  54   2     7  34  14    12  50   2     3  48   1     3  52   0     7  76  41    30   3  20    16   4  81    21  38  66    32   4  84    11  34  18    16  32  16    10  35  18     0  10  24   112  99  84     2   4  26    58  32  28    27  16   0    18  18   5     4   1  14     5  18  17     5  17   0     6   0   0     6   0   0     5   5   4     0   7   0     8   7   5     0   6   0     8   4   1     1   8   0     9   8   2     9   8   4     4   4   0     3   3   5     2   2   4     3   3   5     3   3   1    16  16  20
 32  32  34     1   1   1     2   2   2     0   0   0     0   0   0     2   2   2     0   0   0     2   2   2     0   0   0    34  34  34    34  34  34    36  36  36    37  37  37     4   4   4     0   0   0    25  25  19     2   2   0     0   0  10     4   4   0     4   4   0     0   0   8     0   0   6     1   1   7     0   0   2     1   1  11     4   4  10     0   0   2     0   0   6     8   8   2     2   2   0    24  24  20     1  18   5     3   8   4     1   0   1    19  17  17     0   5  32    67  33  32     3  49  32     0  50  32     0  32   0    80  34   9    24  34   9    84  32  32    86  32  32     6   0  33   100  32   0    98   0   8     0  35   0    32  15   0    64  22  19    64   0   8     0   0  16     8  96  32   164   5   0    32 127   9     0  98  97     1 120   0     1   2   6    12 130  14     8   2  12     8   2  12    10   0  12     0   2   1    16   1  22    24   0   0    48  17   0    50   1 134    56   4   0    55   8   1    60  16   3     2  16   0    64  33  23    68  39  21    72  32  22     4  32  18     0  32   2    76  36   0    76  44   0     8  44   0    12   8  12     5  12  12     4   8   8     4   1   0     2   1  24    68  34  12     4   1   2    62  31   1    62  28  12     5  26   9    57  24   5    57   0   6    60  29   2    60  25   6     0   8  11    12  11   1     9   2   0     2   2   0     4   4 131     0   0   2     5   4   6     9   4 128     0   0 128     9   4 128     1  18 114    18   4 112     0   8   0     2   0  26     4   2  18     0   0  19     0 128  14     0 112   6     1 112  47     0   2   4    12 116  36    13   0   1     4 122   0     0   0   0     0 120   0     0 120   0    10 120   0     0   2   2     0 120   0     2 122   0     2  10   1    32 112  33    21   2   0    21   6  24     4  27  16     4  57  21     4   1   9     2  33  10    11   7   8     4  12   0     8  15   2     3   4  10     0   4  20     2   4  16   128   2   8   128  48  12    98  32   4   123  32  21     8  42  22    26   2  80    18   0  34    27  64  56     8  42  16    67  19   8    74  26   3    64   0  32    80  32  51     2  34   1    17  34  17    49  32   0    53   0   0    38   8   0    32  16   2     0  24   0    40  24   4     0   0   4    64  16   4     4  33  32     6  49  37     4  50   2    88  34   8    82  47  33    25  32   1    11  62   1    11  24   9    25  74  27     0  67  34     4  38  82    16   1  49    44   0  80     8   4  20    34  98  66    40   2  20     8   0  16    83  98  24    16  10   0    49  52  42    49  44  36    18  12   0    11   9   4    27  17  16     1   5   0     0   8   2     0   8   5     8  10   7     8  10   5     0   9   4    10   8   1     8   8   0     9   8   3     0   1   3     5   5   7     2   2   0     0   0   0     0   0   0     3   3   1    17  17  17
 36  36  32     0   0   0     4   4   4     4   4   4     0   0   0     2   2   2     0   0   0     0   0   0     0   0   0    32  32  32     6   6   6    34  34  34    35  35  35    38  38  38    18  18  18    11  11   3     1   1   3     1   1   9     4   4   0     7   7   1     1   1  11     1   1   9     1   1   1     9   9   3     9   9   9     8   8  10     0   0   2     0   0  14    16  16  20     2   2   4     0   2   4     0   2   4     9  35  36     0   3   0     2   1  16     0  32  17    32  32   1     6  16   0    10  16  42     2   2  10    80  40   0    26  33  40    94   0   9     2  32  40     5  48  33    74  34   5     6  14  20     5  44  28     0  39  16    64  36   2    65   4   8    72   0  48    16  64   8     4  69  96    40 131   1     0   2   0     0 112   6     4 113  12     0 138  10     8   2   8    21   8  16     7  13   4    16   2   0    16   0  18     6   0   4     2   2  10    50  21 128    58   0   4    57   8   6    55  16   7    68  16   1    74  33  17     8  32  22     0  36  19     8  36  28    64   8  16     0   0  16     2  28  24    66  40   0     4  44   0     0   0   0     1   0   0     0   0   1    64   0  15    66  32  13     4   0  14    14  12   4    48  16   7    52  28  13    60   3   4    61   0   2    63  32   2    63  32   7     4   0  10     8  18  11     4   3   0     2   5   0     9   2 132     5   0 134     5   0 130     8   4 130     9   4   0     8   0 128     1   0 128    16  17   0    16   1 104    16   0  30    22   1  12    22   8   2     2   0   9     0   0   2     2 112   2     8   8   4    12 120   0     5   8   1     4  10   0     4 122   2     0   6   6     0  14   6     0 120   0     2   8  32    38  14  32    39   7  36    12   4   4    25   0  24     0   4   2     0   5   1    12  19  12    28  43  73     0   1   4     9  33  74     8   1   8    10   0  18   140   0  22    10  20  12   128   4   4     2  16   0     0   2  17   130   0  16     9  24  25   121  40  13   122   8  20     9  32  17    50   0  80    56   8  80     9  83  56     3  51   0    10  26  40     2  18   2    68   4  39     0  16   1    81  36  49    32   9   0     1   0   1     4  32   2    36  49   0    40  10   0    32   0   0     8  27   4    34  16   0    96   0   0    64  49  41    64  32  32    80  32  16    16  35  17    76  42  32     3   8   8     3  60   9     3  52   1     0  64   5     8  66  35    13  67   3    12  27  11     2 106  42    10  26  10     8  80  72    17   0   3    75  64  64     9  17   0    57  37  38    57  53  32    16   0  10     9   9   3     9   9   9     3   9   8     7   1   8     4   0   4     0   8   0    10  10   5     8   8   4     0   9   0     8   1   0     8   0   2     4   5   3     0   0   4     3   3   5     0   0   0     0   0   0     2   2   4    21  21  17
 32  32  34     7   7   7     2   2   2     7   7   7     0   0   0     2   2   2     8   8   8     8   8   8     1   1   1     0   0   0     4   4   4     4   4   4    36  36  36     6   6   6    12  12  12     0   0   2     0   0  10     2   2   4    28  28   4    28  28   4     0   0   0     0   0  10     0   0  10     0   0   2     4   4   0     0   0   2    13  13  13    16  16   6     0   0  12    16  16   2     0   8   6    16  26   0    16  10  16     0  11   8    44  41  16    33  33   1    34  48   0    36   0   1    70  28   8     0   8   8    64  21  10     0   1   3    76   1  10     2   4   0     2  36  33    96  20   4    80  45  12     0  13   8     0  33   0     8  10  10    18  28   0    64   0  32   168   0  96     8   0   1     8   2  20    40 114   5     0 128   7     4 131   8     4 138   0    20  10  16     0   2   2     0   0   0     2   9   2     2   8   9     2  16  12     4  16 126    10   0 128    10   0 130    57   4   1     1   0   4     2  16   0    64   5   1    64   5   2     0  28   2    64  24   6     2  24   4     2   0  12    58   4  16    65  24  17     0  36   2     0   0   0     0   1  18     0   0   4     4  32  12    62  34  12    59  32   0    66   0  22    70  37   3    60  11   9     0  30   0    62   1   1    62   0   0    62  33   3    60  32  14    48   0   8    48   3   4    50  19   2    48  16   9     0   0 128    10   0 131     8   5   3     0   1   1     0   1   1     1   2   0     0   0   0     1  17   8     2  16 120     6   0   4    20   0  21    50 129   5    35 112   6     1 112   0     0   0   0     4 120   8     4  10  32     0   6  34     0 112   2     0   2   2     0 112   0     3   1   0    32  10  32    34  10  32     0   0   0     0   8   0    18   2  24    12   0   0     9   0   0     8  17   8   140  33  68    24   0  26   136  35  91     8   4  26     0   2  10   144   4   6     4  20   4   154   4   8     2  20  20   144   2   4   144  96   0   146   1  12   119  33   9    96  52   0     0   2   0     0  32   0    33  32  72     9   9   8    41  89   2   119   7  16     5  37   0    64  64  33     0   0   0     1  64   1    84   4  50    20   6  18     4  16   0     0  51   2    40  61   8    42  58   2     0  28   0     2  57   6    10  34   1    64  16   8     0   0  16    64  34  24    82   4  26    14   0   0    67  48  36    66  48  36     2  56   8     8  40  56     8  85  36     4   7  39     0  45  45     8  48   0    12  56   8     2  66   6    83  64   5    19  32   3    16   8   4    33  37   6     1  13   4    25  25   1    25   1  17    16   2  18     9   9   0     0   0   8     0   8   5     4   8   5     5   6   4     9   4   0     8   7   0     8   3   1     4   1   0     0   4   2     0   0   0     2   2   4     6   6   0     6   6   0     2   2   0    20  20  16
 39  39  39     5   5   5     2   2   2     3   3   3     4   4   4     0   0   0    13  13  13     8   8   8     4   4   4     0   0   0     0   0   0     6   6   6    46  46  46    22  22  22     0   0   0    12  12   8     5   5   1    29  29   3    29  29   1    28  28   0    28  28   2     4   4   0     4   4   2     0   0   2     1   1   1     7   7   1    25  25   5     2   1   1    32  33   7     0   0  26     0   8  18    16  27  18     3  35   0    32   1  18     1   0   0    16   5   0    36   5   0   102  12  61     4  70  49    12  13  40     6  20   0   108   1  16    46   3  17    40  67  49     0   5   0   109  22   2    26  32   2    48  27   0    76  12   8    80   4  42     4  67  34     0   2   2   164   0  50    34 128   1     0 128   1    32   2   5     0 131   0     0 129  12    16   2   0     4   8  16     0   0   0     1   4   2     2   8  18     3  12 113     6  16 115     6  20 125     3  20   3    14   0 132    11   0   0    10   0   0    50   5   5     0  12  12    64   0   2     0   0   2     0   0   2    58   0   0     0   0   0     1   1  13    59  24  16    64  32   1     0   0  17     0   0  17    64  33  13    56   1   5    58   0   2    59   4   8    66  32  18    68  32  18    68  45  19    60  25  13    62  31   1     2  31   1     3   0   0     0   2   0     0  32   0    64  32   6    64  32   4    57  24  12    56  24   4     2  15   3     0   0   3    10   4 128     8  21 129     0  22 128     0  31 128     0  22 112     6   4 124    18   0  25    50 128  21    34 112   1    35 113   0    43   0   0     1 120   4     0 112   0     0   4   0     4   4   0     0   2  38     0  10   2     0 114  34     0 122   0    32 114  40    33   1  32     4   4   0     2   5   4    27   8  24    26  16  24    12  17  13     0  16   1   128  50  76     8   2   8   128  35  91    17   0  25    11  96  10   132   0   7    12 100   1   142   4  12    10  20  28   128  11   4     8   3   2   144  21   0     8  12  12    24   5   0     8   0   0   121  52   3     9  24   2     1  19   0    41  25  72    88 104  28    64  16  35     0   0  33    20  68  20    16  64  16    20   4  16    84   4  48    80  33  50    70  48  48    76  20  36     9   0   5    43  48   3    34  35   3     0   0   3    64  16  36     2  49  33     8   1  33    72  25  27    13   8  45     5  16   4    70   8  32    11  40   9     8   8  40     8  78   0     9  72   0     0  56  40     9  17   3    72  30  14    25   8  36    18   0   6     7   4   0     8   4  12     6  21  12    24   0   0     3   1  19     3   1  23     1  13  11    11   9   8     9   1   8     1   9   4     4   8   4     4   6   6     9   4   0     9   6   2     8   2   1     4   0   0     0   5   1     1   1   3     6   6   4     2   2   0     0   0   4     0   0   4    17  17  17
  2  34  38    36   2   2    35   5   4     2   0   7     4   4   4     4  12  12     9   1   0     0   0   0     0   4   4     1   1   0     1   1   4     2   0   2     6  42  42    26  22  22     0   6   4     8  12   8     4  28   4    28  32  24     2  32  30    34  32  28     0   4  24     4   0  10     0   0   0     4   4   8     4   5   0     4   5  11    20  24   6    20  17  16     0  17  22     0  24  14    24   4  10    17   8  19     7  24  18    52  44  10     5   8   8    17  37  12    55  39  21     0   5  29   112  68  16    64   9  27    40  18   1    36   4  20    38  35  21     0  64  20     1  20   3    65   6   0    50  52   0    52  12   8     4  12   0    20   2  40    86  81   5    50   0 101    32   0  49     2   0   1     1  16   1    12   2   4     0 128   3    16   3   0    20   0   2    16   0   2    20   8  16    18  10   0     2   8 112     6   2   2     4  12   1     0  18   7     5  16 125     0   0   0     2   0   5     2   1   1    50   9   9    50   4   0    64   4   6     0   4   6     0   0  12    58  24  12    59  25  12    59  27  17     1  26  16    65   0   1     0   0  20     0   1  20     0   0  14    58   5   9     6  24  12    62   4  12    65   4   4    66  33  18    64  35  20    66  34   4     0  25   1    62  31  13    62   2   1    60  31   0     1   3   7    66   0   4    65  32   4     0   0   0    42  11 136    16  29 136    10  24   4     0   3   0     0   1 121     0  11 120     0  10 120     0  10 120     6  12   8     6  14  18    48 132  25    40 117   1    40 113   0    50 129   0     0 136   2     1   1   1     3   0  35    37   0   3    34   2   0     2   0   0     2   8   0     0   0   0    32   2  34     8   0   8    37  13  36     2   8   1    34   1  34    16  25  19    12  19   9     2  19   1   156  50  89    16  18  16   130  35  81     0  28  19    10 101  17   131   0  15    15  97   5   132   5  25     0   5   8     6   8  16   150   9  20    24   0  16   136   4   2   128   2   6   129   2  16   120   0  18    96   0  17    99   5   0    96   0   4     0   0   0    68  20  97    20   4  53    16   0  16    16  64  16     1   2   3    17  64  16     4   4   0    80  33  40    66  21   0    56   0   6     0  12   4    54   0  18     4   1   7    68  25   0     6  16  41    10  62   9     8  47  11    72  57  32    71  48  42    65  48  32     9  40   8    88  40  56     0  66  32    10  66  18     3  20  34    65  38   8    64  24   8    49  34  44    17   2  36    51  32  14    18  21   8    21   1  16     0   9  20     1  12   1     7   0   4    10   7  30    11   8  10     9   1   8     0   8   0     4   1   4     5   4   0     8  12   0     0   8   0     8   4   2     4   5   2     0   5   1     1   1   5     5   5   5     9   9   3     0   0   0     8   8   6    18  16  18
  1  33  34     2   6   6     5   1   0     3   5   0     6   8   1     4  12   9     1   9   8     0   4   5     5   5   5     2   4   3     0   6   2    32   0   2    14  32  32     4  32  24     4  24   6     0  24   7     1   9   0    21   1  19    18  32   6     3  33   0     4  44   2    20  20  24     0   5  18     4   5  10    29   3   1     0   7   8    36  27  20    36  33  24     0  32  28    32  24  26    16  12  24    18   0  18    50  20   3     2  22   0    38   7   0     1  56  16     2   5  56    74  67  21    14  65  19    96  29  11    32   0   0    46   2  16     8  34  16     7   2   0    73  16   2     9   2   2    41  54   2    40  23   0    88   1  34    20  80   8    88   0  13   172  67  87    32 121  51     0 130   0     0  98   3     0   2   8    17 130   1     0   5   4    19 128   1     2   0   0     4 128   4     0   8   4     0   1  29     4  12 113     0  14 114     0  22   0     0  20 128    49   0 128    50  17   8    60  16  12    68  16   4    68  24   6     0   1   0    64   5   2    64  25  14     0   1   8    66  32  21     1   1  20     2   0  16    67  36   0    64  32  16    64   0  21    60  32  16     6   0   0     8   4   0    12  28   9    42   5   1    70  38   4     0   0   1     2   1   2     2  33  16     2  26  12    60   3  12    13  12   8    49  29  12     0   9 138    32   0 140    34   2   4    23   9   8    10  26   8     8   0   0     0  22 121     0  14   3     0   4   0     4   1 120     4  12 124     0  12   8    23  12   2     7 138  24    41 129   4    40 129   8    16   0   5    24 141   0     1 112   1     6   8   2     6   0   0     4   4   4     2   8  32     0   8   0     2 120   0     3 123   2     2   2   3     4   4   0     2   2   3    32  10  35    18   1  19     0   8   0     0   6  16    16   2  17    16  48  10     2   0  26    18  16  17    17  16  13    21   8   3     9   1   8     0   4  25     7  12   0     5   9   4   135   1  20   145   8  18   129   6   0   129   0  16     0   0  24   133  36  36     4  32   4    20  36  28   108  60   5   114   2  25     6  38  35     4  68  71     4  68   4    64  80  36     8  88  14     0  16   2     0  49   0    66   4  52     8  48  36     4   4   1    64   0  32     2  16  23    68   1   2     6   4  22     8  24   1    14  61   8     2   0   9     4   0   5     2   8   5     3  56   0     1   0   0     8  48   0     8   0   0     8  64  16     0   6  48     0   2  56    17  44  34    33  40  38    57  32  12     4  16  10    17  16   6     3   5   0     0   5  12     0   0  19     5   0  16     2   1   3     9   8   6    10   8  12     0   0   6     0   0   2     0   0   0     0   0  10     2   0  10     0   0   0     4   4   2     5   5   1     3   3   1     3   3   1    10  10   0     0   0   8     0   0   4    24  26  18
  1  33  36    33   1   4    39   1   2     2   0   2     2   8  10     0  10   8    40   2  32     0   2   2    33   1  38     0   0   4     0   6   2    32   0   3    28   0   0     2  32  28     4   0  28    24  32  28    16  18  28    10   0  25    14   0  17    26   4   0    10  32   8    12   8  26    26  24  26     2   6  10    16   8  27     4   3  27    16  11  19     0   3   6    20  16  12    32   1   4     0  25  25     4   4  16     4  20   1    76  18   0     0  62  40     1  82  40     2  17  40     1   0  20    89  72  10    22   8  11    28   2   8    36  38  13    64  34  16     6   0  16    69  16   1    35   2   1    32  22   5    32   4   4     2   1   0    18   1  37    74  17 100   136  80  48    24  96   1     8 133  16     4  18   0     0 130   4    17   0  14     1   5  14     0 132   9     0 128   0     8  18  12     4 144   0    36   5  96    52  14 112     0  10   3     0  14 121    48  20  16     8  16   0    69   8   0    69  40   5    69  32   8    68  24  10     0  29   2     2   5   4     0  28  12    66  32   1     3   0   2    64  32   0    59  27  16     1   0  16    60  37  17    64   1  21    62   1  20    62   1   1    12  33  13     4   4   9    18  32  13    68   0  16     0   0   0     2   1   0     0   2  16     2  25   0    60  14   0    24  24 138    31  16   7     7  26  13     0   8  96     3  12 104     2   0 120    16   1   0     8  19   0     0  20   0     4   2 121     6  26 120     0  14   1     0   2  12     5  14  24    16   6  16     1 134   0     8   6   0     8 128   8     2   0   5    16 134   0     1   0  33     1 114  33    45 112  41    47 112  41    46   0  32    34  12  36    32  14  34    32  12  38    38  14  34     0   0   2     0   3   0    37  11  32    16  16  16     1  12   0     1  14   0     1   0   0     2   4   8     0   4  14     6  20   2    19  20   0     5   4  16     2   4  16     9   5  18     0   8   0     6  15   0     3   3   0   137  14   0     1   6   8   132   8  16   129  14   0   134   0  20    20   4   0   116  36  22   100  52   1    22  38  21   116  36  17   112   0  16   128   0  33    14  14 101    14  14   5    78  14  47    17   1  35    24  72   9    94  46  34    74  42  40    76  28  44    66   8  34    68   8  22    74  16   4     4  55  46     8   8   3     0   0   9    10   8  17    26  74   2    10  26   2     1  50   2    64  32  32    73  48  32     2  52  52    12   6  49    16  54  16    16   5   8    49  44   0    32  40  25    16   8  17    16  16  28     2   1   2     7   0  16     0  12   0     6   1   2     0   9   2     8   8   2    11  11   1     1   1   7    11  11  11     0   0   2     1   1   3     0   0   0     8   8   2     0   0   4     4   4   6     0   0   0     5   5   1    10  10   4     0   0   8     0   0   6    16  16  20
  5   3   0     1   5   0     0   0   4     2   0   9     0   0   0     2   8   8    35   1  40     4   4   2    36   2  34     0   4   7     0   4   0     0  32  35    28  34  30     2  32  28    28  32  31     0  32  28    16  32  16     8   0  17     0  16  16    24  20  18    27   5  24     0   0   8     8  10  12    25  28   0    17   0  14    16   3   4    16  18   4     7   2   4    32  34   0     0  52   6     1  60  20     5  27  48    68  45  32    95   2  49     8  26  40     0   4  12     0   1  10     8  67   6    88   0  32    24   5  13     1  42   8    34   0   8    72   3   0     1  48  33    77  18   1    34  16   0    12  17   2    80   0  32    26  65   2    10  69  52    18  48   7   168  88  33     8   0   1     0   1   1     8 134   9     8 134   0    16   6   6     0   5  12    16 133  12     0 120  12     0 122   0     4  12   4     4 135 100     4   5   1     0  22 115    48  30   9     0  20 136     1   0   1     5   0   4     5   0   2     0  33   2    64  28   0    64  29  12    56  15   8     0  20  12     0   3   4    67  32   6     3   3  20    50  18   2    48   4  17     3   4   0    57  32   0     6  33   8     4  33   9    58   1   9    50  33   8    66  32   8    66  32  13    64  33  16    64   1   4     0  19   2    48  26   2    24  27 128    16  16   6     1 157 111     7   0   3     6 132   8     2   4 113    16   4   1     0  19 128     0   3 129    48   0   1    48   3 136    53   1   0     4  16   0    28  18   0    29   6  16     1 130  16    41   0  32     0 117   1    33   2  32     9  14   1     0 121  44     0 115  44     5   2  41     1   0  41     6   0  40     2 112  40     0   8  32    32  12  32     3   7   0    39  15  32    38  14  32     0   0   2    33  11  32    16  18  16     0  12   0    16  12   0     0   2   4     2  36  12     2  38   4     2   4   2     1   4   0     3  12   0     1   1  17     1   1  17     5   8   2     1   5  24     1   1   6     0  14   8     0  14  14     0  14   0   128   2  16   134  32  52    92  36   0   112  32  23   112   0  17     8  40  29   108  12  20   116  68  16   144  64  53   136  56  37   140  28  12     8   8 103    30  14  71    86  70 101    64  96  40     8 104  32     0  32  32     6  20  38     0  16  38     9  50  54    16  67   0    26  74  16    20   4  23    18  14   1    29   6   4    18   2   2     1  50   2    72  58  34    72   4   1    40  44  16    32  32   8    40  49   0    40  13  24     8   1  19    12   8   1    20  17  18     0   0  16     4   6   0     7   6   2     6   0   2     6   0   2    10   2   0     9   8   3     1   1   9     0   0   2     2   2   2     2   2   2     1   1   1     8   8   8     2   2   4     6   6   0     0   0   4     0   0   0     4   4   0     4   4   4     8   8   4     0   0   4    20  22  16
  5   1   0    32  44  38     4  10   2    14   0  10    10   8   9     2   0   1     2   0   9     0   0   1     2   0   6     0   6   1    32  34  34    24   2  26     0  24   4     7   1  28    29  33   0     5  33  32    16  34  33    24  24   5     0   2   1    17  17  16    18  20  28    15  13  17    31  29  13    25  24   3    21  16  12     4   0  13     4   0   1     4  16   0     1   0   1     0  26   0    68  25  16     0  89   1     4  49  48    25   0  17    24  67  24     0  67   0     0  67   2    16  67  36    24   8  22    40  40  18     2   2   0    40  48   9    77  16  32     1  34  49     9   0  17    13   0  17     2  11   8    30  17   0    20   5   6    64  80   4     8   2 101     2  61  32     2 120   0     8   7   9     8 129   8     8   1  12    19   1   0    16   0   0    17 129   0    48   2  36    44 114  32     4   0   4     6 128  99    18   6   5     2   0 112    48   4   0    48   0  24    65   0 136    77  32   4    65   2   0    73   4   0    49  20   2    56   0   4     0  13   0     0   5   0    56  16   0    59  26   9    57  26   0     4   8   4    12  25   0     6   5   7    12   0  12    10  16  10    12   1  15    12   1   3    56  33   5     0  32  12    52   1   0     2   1   0    56  24   0    48   3   0     0  24 132    16   3   2     4   0  16     2  10  10     1   8  24     0 136   1    18   4   0     5  16   0     9   2   0    48   2 129     8   3   0    24   1 129    28   1 128    24 153   5    17 128  96    49  16   1    40 116   0    17  16   1     1   1   1     1  19   1     1 115   1     0 113  44     0   5  44     8   0  32     8   1  32     0   0  32    32 128  32    10 116  44    34   8  32    39   9  32    34  10  32    32   8  32    33  10  32    32   9  32    16  16  16     0   8   2    16   8  16     0  42  20   128  34  64   130  38  78     0  39   0     1   5  16     3   1  17   129  32   0     1  12   3     1   9   0     0   1  26     0   0  31     1   0   8     1   8  12     1  10  20     0   8  20     0   4  22    96   4  16     6   4   5   100   4   5     4  36   3     1  33  16    35   3   0    70   6   4    19  99  20   150   6  36   154 106  48   136  40   9   145  65  80    24  72  93     9   9  74    74  10   8     3  88  32    10  72  34     9 112  34     0  75   0    16   0  17    10  10   5     2   4   0     2  20  48     2   0  32     1   4  32    64  16  32    64  14  37    40  18   9     8   2  37    24  32  40    42   4   1    12   9  19    12   9  12    20  19  16     4   5  17     2   7   2     1   0   2     6   3   2     4   9   0    10   9   0     1   0   1     1   1   9     1   1  11     0   0   0     0   0   0     8   8   8     2   2   2     4   4   4     0   0   0     2   2   4     0   0   0     2   2   4     6   6   0     4   4   0     6   6   0     4   4   0
 16   2  16    33  41  36     2   0   4    35   9   8     2   8   1    34   8   8     2   0   0     3   1   2    38   0   4     0  32  36    24  28  24     1   5   2     0   0   2     5   5   2     5  29  24    28   6   4     2   0   1    26  32   5    26  32   3     0  32  18    17  23   4     7   6  24    12  12  24     1  12  14    81  88  78    84  81  76    84  80  64    73  64  72   112 112  76    65  72  96    32  80  98     4  64  82    37  93   0    34  16   3     3   6  51     0   2  50     0   3   6     8  51  32    68   4  33    48  35   1    16  32  10    33  48   0    65  16  32    73  20  33    89  40  21    72   8   2    78  56  40     0  49   4     1  64  36    80 116  16   152  24   0     0 120  45    32   4   9    40   1  37    33 129  32     1 133  12     8   2   8    10   1   8    36 129  32    40 115  32    44 114  40    36   0  36    18   4  16     0   8   5     2   8 116     2  12 118    48  12 120    48   1   8    52   1 134    50  19   6     2   5   0     1   0   6     1   2   2    56   5   0     0  13   4     2  14   4    58   2   0    57   2   0     9  12   4     6  24   6     8  20  10     0  29   5    14   5   5     8  10   0    48  25   9    56  31   9     0   1   3    60  28   0    12   8  11     5   8  15     8   0   2     8  16 128    24  20 132    25   8 104     7 152 104    36 146  98    49   8   9    19  16 128     5   0   4     6  17 128    48  25 116     0  27 128     0 145   8    57   0   8    40  16  80     1 113  25    33 116  33    33   4  33    32   1   0    33   3  33     1  13   1     0  15   0     0   1   0     0 115  36     0 119  40     8   5   8     0   5   0     2 132  36    14 112  40     2 120   0    39   9  32    28   4  28    28   4  28     1  10  32     0   9  32    16  18   0    16   4  18     0  14   0   144  34  84   136  18  72   136  20  80   152  34  88     0   9  16     8  13   9     1   1   9   129  37   3     4   0   2     0   0  21     0   8  21   128   8   4     0   5  21   139   4   4   128   0  12    11   0  28    64  32  89    64  36  64     0   0  21   104   8  16    33   1   0     1   1   0     6   6   4    89  41  28     3  19  12    26 106  48   128  96  32   129  81  34     0  48   0     0  32   0    68  36  20    27   0  64    94   0  80    74   0   3    19   3  52    16   2   1     0   0   0     0  12   3    32   4   2     4   8  48    13  84  40     4  12   8    64  16   2    48  18  10    32   0  47     0  48  15    32  35   3     0  11  12     4   2   3     0   3   0     6   0  16     6   6   2     2   4   2     6   0   2     1   4  21     8   8  18     1   0   1     1   1   7     0   0   0     0   0   0     2   2   2    10  10  10     3   3   3     2   2   0     6   6   0     6   6   0     4   4   0     6   6   0     2   2   4     0   0   0     2   2   4     2   4   0
  5   1   0    40   4  44     4  10   0    32  40  32     0   0   1    32  40  41    10   0   1    34  12   0    44  50  42    28  30  28     0   2   5     0   4   4     1   1   0     0   6   0     5   1   4     4  26  28     0  30  27    26   4   5     2  36  35    32  32   0     0   0   1    19  10  16     4  19  25     0  11  18    66  76  70    16   4   4    32  16   4    56  37   0    56   0   0    32   0  16     6   9  17     4  25   0    38  16   0    33  16  66    32  16  18    32  19   0     2  80  32     0  19  32    52  38   2     4  20   2    21   4  10    32   4   1     0   0   8    81  32  37    17  32   5    89   8  41     3  24  40    12  32   8     1   4   0    80   4  68   179  80   0     0 119  32    40   6  41    40   4  32    35 132  32    38   0  40     9   5   0    11 135   8    34 130  34    45 112   0    40 115  24    56 130  50    17  10  17     1   0   4     2   8   0     2   8  11     5   1   0     6   1  14     8   1   0    10   2 130    58   2   0     3  18   4    64  19  12     2  16   8     0  15   8     0  15   8     1  24   5     0  26   6    49  14  14    53  24   8    49  14  12    48   0  14    48  25   5     8   8   8    10  24   4     2  28   0     8  25  15     4   4   3    13   4  11     3  12   9     4   8   0     8   0   4    24  24 133    40  16 128    40  18 128     1  20 128    22  16 140    48  16 128    16  16 112    16  19  96    32 129  98    50   4  74    17  16  70    48 112  36    50 105  21    48 113  21    48  97   1     1 116  49    41  98  49    32 107  32    53 104  49     5 112   1     4 121   0     4  13   0     0   7   8     8   9   0     0   0  32    32   0  32    40 112  40    34 112  40     9   1  24    25   1  24    24   0  24     1   8  32    32   8  32     0  24   0    16   5  19     0   0   6   130   4  64   112  20  86   114  18  80   148  52  75     4   1  18    16  16  24     1   6   2     1  12   1     0   8  17     6   0  22     0   0   6   130  38  16     4   5   1     0  47  25     8   4  12     0   9  13    52  32   0    20  36  20    52   4  21    96  96  18    50   2  18    81   1   0    47  31  12    14  14   8    21   5  76    73   9   2    64  48  33    96  16   0    80  64  17     0  80  38     4  36  32   128  49  36   138   4  44     8  96  32    75   0  64    16   2  50    28  10  33    26  12  51    38  20  49     2   0  56     5  20  36     4  64  44     0  19  32     0  55  32    56  55  42    32  20  11     8  19   4     6   9   5    30  25  20     8   9  17     2   9   1     0   9   0     2   0   2     4   7  16     0   0  20     8   8  18     9   9  19     8   8   2     8   8   4     9   9   9     0   0   0     9   9   9     9   9   9     2   2   4     0   0   4     0   0   4     8   8   4     4   4   4     4   4   0     0   0   0     0   0   4     6  22   0
  2  32   1    12   8   4    11  13   4    44  44  37     0   6   1    32  38  33    12   4   1    33  41  44    17  31  28     0   2   2     5   1   2     2  28   6     2  28   4     4   6   6     4   2   0     4   2  24     0  24  29    24  24  26    24  36   1    32  32  10     0   0  35     8  10  10    35  34   1     2   5  40    34  44  32    65 104  76    73 108  68   106   4   4   104  48  12   101   9   8     5  17   5     0  25   0     3   4   1     0  20   2    33   0  65     4  85  34     0  64   4     4  35   0    85   0  32    36   0   2    20   5   3     0  17   0    16   0   9    85   0  33     2   0   6     9   8   1     0  32   7     3   6   0     0  64   4     0  21 116   152  92   0    24 113   4     0   4  35    24   1  37    32 133  34    33 117  44    11 130  10     1   5   0    14 130  10    45   1   0    44 114  26    49 116  11    17 130  17     8   8  11     0   0   8     2  16   9     4  16   9     4  16   1     4   1 124     8   4  13     2   0   6    66   8  14     1  24   4    66   5   4     6   7   0    62   5   4     0   1   6     0   2   4     1   4   2    57  26   4     3   4   8     1  24   4    10   0   8     0  12  10    10  12   8     4   1   1     6   8   8    14   6   9     0   0   6     5   0  11     5  10   1     4  11   0     0  10   0     6   8   0     7   0   8    48   0  10    39  16 142    17 154   0    32 137  80    34   8  18     0   9  40    34 101  55     1 124  39    16 120  16     2   0  28    32 137  40    32 137  32    17 130  19     0  14   0     0 127   2     4   0   2     4   8   0     4   4   2    41 102  33    60  98  40    41 100  17     0 114   2     4  82   2     4  82   2    12  50   2    16  18  20    12  20   0    17  25  20     1   9   0     0   9   0     8  17   1     0   1   1    12   0  10   128   3   7   128  28  70   128  18  66   128  34  17    16  16  18    16  20  16     0   6  18     3   0   1     0   4   3     4   4   0     2  12   2   128  40  18     0   5   1     0  44  28     8   4   8     0   3   9   116  38   0    48   0  20   100  36  21   100   4   5     4  36   0    66  18   0    76  28   4    11  11   0    46  14  64     4   4   0    40   8  81     0   0   1    48   0  65     1  17   0    17   1  96     1 112 102   136  41  68     0   1  96    42  36  70    44   9  83     1   0  34    20   0  48     8  72  16     2  64  40     4  16  38    20  11   2    17  67  24    65  48  34     0  48  14     0  56   6     4  19   2     8   0  20    22  18  22     0   9   0     4   8   0     0   0   2     4   1   0     0   4  16     0   4   4     0   1   0     0   1  18     1   1   3     4   4   0     4   4   4     9   9   9     9   9   9     9   9   9     8   8   6     8   8   0     0   0   6     0   0   8    10  10   4     5   5   1     0   0   0     4   4   6    16  22  16
 33  33  46     0   0   8    37  13   0     4   0   0    44  34  37     8   8  12     8   8  12    32  36  38    29  15  12     5   7   4     0   6   5     0   6   5     2   4   0     6  28   1     0  30   0     4  24   1     0   2   3     8  32  35     0   0   6    40  46  44    34  32   2    42  40   0    32  45  41    34  32  33    32  45  32     2  10   1   115  12   4   115  64   8     6  13  72    36   0  24    33   0   9     0  18   0    33   0  65    48   3  82     0  68   2     6  54  32     0  16  14     7  34  12    81   0   2    37   4   2     0  16   2    36  17   1    22   8  10    84  32  32     4   0   0     4  48   0     2  65   0     6  64  36    76   4  68     8  14  96    24  56  35    22 112   1    44 131  11    44 128  46    34 129  38     8 125  32     8 114  40     0 112  40     2 118  42     0   6   6     8 114  37     8   6   8    24   1  25    25   8  24     0   0   8     4  16  10     2  16   1     4   0   0     4   0   2     0   0 123    62   0 142     2  20   9     4  16  14     2  16  12     6  11  12    54  10   8    60  24  14    60  25  12    60   1  14    56  24   8    58  30   2     0   0  10    62  25   8     0   9  10     6   0   8    13  28   8    61  24  13    57  24  15    57   0   7    56   1   8    52  27   1    54  27   1    60  18   8    36   1 136     2 147 128     0 144   4    23  16  66    19 130  44    48 137  18    16 129  56    48  16  66    48  96  75     8  17  64     8 141   5    34  13  16     0  13   0     0  12   2     0   8   0    18 133  16     4  11   0     0 114   0     8 120   0    40 120  41     4  30   8     4   2  16     8  22  18    12   2  20    16   2  10     0  18  26    12  98  10     8  98  16    17  97  18    33 113   8    33  24  32     0  24   0     0   1   3     4   1   7     4   1   7     5  40   2   133  11   2    11  29   0   132  12   3    16  16  16     0  17  17   148   0  20   128   4  16     6  12  16     4  14   2     6   0   3   140  16  18   132   8  24   122   0  20   112   8   8   120  42  16   113   1  24     1  17   0   100  52   0     0  16   7     6   6   6     0   0   1    99   3   4    10  10  65     8   8  80    64   0  69    52   4  85     0   0   1    52   4  64    33  17  70   101   5  70    72   8  74    24  10  40    12  45  40    79  78  56     0   4  66    10  10  34     0  81  35    25   8   4     6   5  12     1  84   2     7  66  46     5   7  57     7  68   0    65  65   2     8   1  10    12   2  20    22  17   6    10   8   6     0  11   4     3   0   0     2   9   2     4   3  18     0   1  16     0   2   0     1   3   5     2   2  16     4   4   0     1   1   1     4   4   4     8   8   8     0   0   0     1   1   1     0   0   8     0   0   8     0   0   2     1   1   9     6   6   4     7   7   1     4   4   0     8   8   2    18  24  20
 42  40  36     4   8   3    46   0  38     0   0  32    45   3  36     0   4   4     0   2   4     1   5  32    28   0  24     0  30   6     0   0   7     4  28   5     6   0   5     0   0   2     0  30   2    24   4  19    25   0   8    17   8  44    24  37  36     0  44  44     0   0   4     0   6   0     0  13   3    18   5   0    18   9   0     4   4   1    60  12   2     7  34   0    68 108  96    68   7  72    36  26   4    32  19  68    34  18  64    16   4  16    18  71  48     0  74   0     0   0   8     0   0   4    65  48  36     6  36   0    36  16   2    46   1   0     4   5   0    21   0  17    28  64  16    28   1  16     6  80  32    42   1  32    74   0  86   136  33  88    16  16  17     8   8  40    20   0   2    32  10   0     0  10  36     8  12   2     0 124  40     8   4   0     6 138   2     0 128  16     8 128  49     8   2  34    24 128   8    25   4  16     5   9   8     6   8   0     2   0   8     0   0   8     0  16   9     2  16   2     0  24 113    25  16   6    36  28   6    32  18 128    30  19 136    12   1   0     5   0  10    60   5   2    60   1   2     0  25  14     0   1   0    61  24   2    12   6  10    52  10   8    48  25  12     2   0  15     1   2  11    11   2   7    64  26   0    48  24   2    40   9 138     9   8 128    13 152   8    39   2   8    40  18  71    58  16  97    13  24  96    17 128  92     6   8  69     0 129  10    38 147   0    40 147   1    56 145   0    26  21 127     2  12   8     0  15   0     0   2   0    16 138  18     5   4   1    10  13   0    35  10  32    10  25   0    24   7  24    30  17  18    29   6  25    19  96  25     5 112   9     5  51   3     0  56   0    33   1  32    32   8   4     0   0  20     0  24  12    18  16   3     0   0  16     0   0   0    12   1  13     0   1   5     4   0   4   128  22  69     0   0   9    16  54  73    18  20  16     3  20  24    22   4   8     4  12  16     0   4   0     6  14   3     6   8   3    12  18   9   141   0  24   137   2  18     4  34   8     9  26  16     0  56  17     0  32   0    96  16   0     4  36   4   100  36   5     4  36   1    48   0  64     3  19  96     0   0  64    64  32 100     8   8   9    64  16  64     0  16   0     0  16   0     8   8  64    72  72  66   121   9  26   116   4  17    96  98   2    22  65  21     2   0  50    77   8   0    74  24  34    73   8   0    81   2  36    68   2   6    20  73  28    20  64  16     5  65  24     8  48  24     7   3   8     0   1   8     2   0   0     0   0  16     6   0  18     2   3  20     2   1   6     8  11   4    10  11  18     0   1   4     2   3   0     1   1   1     0   0   0     4   4   4     2   2   2     2   2   2     9   9   9     0   0   8     8   8   2     0   0   6    10  10   4     7   7   5     1   1   5     3   3   5     8   8   0    26  26  17
  0   0   0    32  42  42     9  33  44     0   2   2    33   1   2     1   5   0    34   0   0    14   0  33    30  32   0     6  24   5     0   6   5     0  24   0    24  32  24    28  32  31     7  33  30    25  36  21     1   7   8     9  32  45    24   4  33    10  10  32    40  38   0     4   8  36     8  12  32     0   8   0    52   0   2    18  36   2    54  40  32    50  32  49    48   5  64     0   5  65     4  84  66     0  17   2    20  66  20    16  65  48    26  75  16     2  67  16     5  18   5     3  50   0    64  56  36     2   9   5    32  26   0     8  11   1    84  11  32    12  66  16    28   1  48     1  18   1    46  18   1     6  16   0    96  21  16   144  36  81    16  20  24    16  12  41    32 122  35    32 120  34     0 120  32     0 112  33     0 116  41    16 128  33    16 136  32     5 137  40    12 136   1    10 128   0     4   0   0    16   8  16     4   1   1     4   2   1    20  10  24    20   4  16    16   0  18    20   0  21    28   4  12     0   4 103     8   0 112    20   0 112    26   0   0    53   8 138     0   2   6    56   1   0     1   0   2    48   0   6     1  18  10    52  12  10     8   8   0     0   0   4     2   0   4    57  16   4     2   0   1     1   0   1     0  17   0    40  17 130    10 128   2     1   5  96     3 134 100    33  26   8    16  10   4    50   1  54    30   0  71     0 152   6    32  16   2    48  18  10    12  16   2    12  16   2     4   1   2     5  12   9     0  12   2     8   5   2    56 128  58    58  64  50    32  80  32     3  32   0    11  36   2     4  40   8    20  30  16    16   1  24    44  97  16    44 113  40    45 112   1    41 113   1    38   0   8    33 113  32    34  96   8     1  97   0     0 104  17    16   0  16    16   0  17    20   1  17     4   2   0     1   8   4     9   4   8     8   6  45     8   4  73     8   2  67    18  24   0    19   9   9   130   8   4   142   8   4     6   8  16     0  10   1     2   8   0     8  16  16    13  16  24   128   2  16   116  42   0   125   8  24     7  45  16    21   3   0    16  32   0    20  36  16     0   0   5    16  32  20    32   0  64     0   0  32    10  10  41    64  16  97     8  24   9    64   0 101     0  80   0    32  64  64    42  26  66     4  20  67   112  34  16    48   4   2    82   0  51    80   5  33    66   8  32    64  29   1    58  22   0    48   3   4    20  36  34     0  36  36    20   0  32    10   7  74    16   5  89    70  66  16     4   0  18     0   0  10    24  19   4     0   2   0     4   9   3     0   2  22     6   0  16     2   1  22     1   2  21     6   5  20     6   6   4     3   3   1     2   2   4     2   2   2     8   8   8     2   2   2     8   8   8     8   8   0     4   4   4     0   0   4     1   1   1     3   3   1    11  11   5     0   0   8     3   3   9    27  25  24
 24  28  24    36   6  39    12   2  15    40   2  42     1   1   0    36   2   0     0   2   0     0   0   0    28  32  28     2   0   6     6   0  25    24   4   3     1  33  32     0   0  32    25  35  34    25   2   0     1  38  36    25  34   1    24   0   4    32   4   4    33   2  35     0   0   4     8  12  38    16   0   1    42  36   0    20   0  32   118  64  58    68 100  80    32 116  65     0  87   1     0  10  36     8  77  40    72  62  42     2  64  32    26   4  56     2   2  48     0  67   0     0  50   5     4   0   2     2  33   1    34  13   0    32  28   4    88   6  12    16   0  32    16   0  32    20  18  64    40   4   0    35  20   2    75   0  80   136  36  80    16  16  18    16   8  34    16   1  34    32   0   2     0  11   4     0   2  25    18 132   8     6   2   8     4   0  10    21   8   8     4   8  10     8   0   0    22   0   0    17  11   5    19 129  17     4 129   7     6 135   4     4   5   7    16   1  17     0   8   6     0   2   7    16  10   7    10   6   6    22   1  12    28  16 116    48   1   0     1   8 132    32  24 136    39   8 128    34   1 128    32   1 128     1   0 132     8   9 132    40   8 129    32   0 133    32   1 137    36   3 139    32 160 128    32 185   0    32 133  98    35   4   6     1 148   8     4 144   4    54   0 101     1 136 108    21 144   4     1   2 136    68  10   8     0  22 142    32  26 130    21   2 113    17   0 112    20   0 114    16 132  58    50 133  56     1   0   3     0   2   2     3  80   3     0  50   0    10   4   0    13  52  10    24  28  24    12  38  16    32  17  32     4 112  32     4 112   0    32  98  42     0  96   8     0  24   0     2   8   0     0   8   0     0   8  20    18  10   0     0  18   0     0  18   0     0   0   0     0   2  24    12  11   1   130  38  68    24  22  81    26   0  67   132  36  91     0   2   2     6   3   3     0   9   9     1   0  13     4   0  18     0  14  17     0  12  21     0   0  17     1   8   8     1  10   0     0   4   8   117  36   0   116  40  16   123  11   8     3   3  16     2   2   4     0   0   0    16  32  17    32   0  65    33   1  70    32  16  68     4  20  65     8  24  72    68 116   4    96  32  17    70  86   4    39  87  80     6   6   3     0  64  66    80  66   3    80  32  17     0  13  17    58   9   9    32  28  12    40  22   0    32  38   4    18  34  32    80  36  36    64  68   0    16  80   8     4  68  65    21  80   8    85  68  72     0   0   8    16  16  10    16  19   1    22  21   3    16  23   2     2   8   3     0   3   0     2   3   6     2   1   0     6   6   4     2   2   0     6   6   4     2   2   2     0   0   0     0   0   0     8   8   8     0   0   0     4   4   2     5   5   5     6   6   4     1   1   5     0   0   0     2   2   8     2   2   0    26  24  25
  1   1   0     1  35   0     9   1  10    41   1  40     1   1   0     4   2  34    32   0   0     0  32  28    30   0  25     0   2  30    28  32  29    34   0  34     0   2   0     0   2   1     0   2   2    25  32   0     4   5   2    24  44   1    24  36  33    34  40  34     0   6  35     0   4   2     8   0   2     8   0  32    32  32  56    68 104  82    56   0  72    32  36  84     8  64   5     8  51  32     8  60  39     0  45  48     8  45  25    76  54  40     4  60   0    10  81  12     4   8   4     8  56  12    69  62  32    48   2   0    48  20   0     0   1   0   112  77  12    64  12  52     1  22  65    65  18  73     0   2  33     1   0  32    75   2   8   153  48  25    18   2   0    16   6  26     8  10  27    32  10  27    43 120   0     1   8  44    16   0   0     6   3  12    20   9  10    13 139   8    12 138   1     8 130  10    12   0   1     9   1  11     2   8   0     0   2   2     8   6  12     4   0   8     3   0   4    16   0  16    24   2  19    17   2  18    22  11  12    31   1   8    30   9 117     1  17   5     0  18   0    32 136  96    54 128 100    55 144 100    13   8  96     8   9 112     8   9  99     8   0 101     0   3  97     2   1 100     4   1 104     2   1 104     0  16 106     0  16 106    34 132  98     3 133 104     0 150   4     0  27   5     4  27 136    64  11 138    69   2  12    68   0   0     0  22 134    40   0  96    40 128  16    44 128  16    44   0  48     8  10   0    56  96  56     1 112   0     0  96   0    24  80  16     0  66   0    10  64   0     1  20   8     5   4  32    44 121  40    33  10  41    36   3  32     4 112   2     6  96  24    18   0  16     0   0   0     3   5  28     3   1   0     1   9   0    16   8  16     1  24   0     4  16   1     4  17   9     0   0  24    13  10   0   155  32  88    19   3  18    56  12 115   150  52   2     4   4  10     5   8   0     8  11  11     0   0  10     8   9   2   128   4  10   134   5  16   132   1  16   140   4  16   128   1  19   128   3   9     0   1   9   121   3  24    11  15  16     0   0  16     1   1  20     0   0   4    16  32  16    16   0  17    32   0  64    40  24  74    62  14  67    14  30  73    26  74  49    15  63  16     2  34   6    14  62  14     2  66  22     0  64  16    24  70  56    72  25  41     0  11   1    64   8   8    64  42   8     0  55   1    68  48  37    64   4  33    16  64  52    16  64  34     2  24  46     1  20  68     2  72   1    70  68   3    40  40  19     8  12  10    42  43   1     4   7  29     0   2  17     0   4   1     0   2   0    17  18  21    17  20  21    22  20   0     2   2   4     0   0   0     8   8   8     0   0   0     0   0   0     8   8   8     0   0   0     0   0   2     4   4   0     6   6   0     8   8   0     2   2   0     1   1   1     2   2   0    26  24  25
  0   4   0     0  34   2     4  40   6     0   2   3    40   2   1     8  42   1    26  36   4     0   2   2    31  37  24    29  35   0     3   1  34     1   3   2     1   3   2     0   2   0     1   3   0     0  32   0     4   0   0    26  46   0    26   0   4    32   0   0     2   0  38     0   1   0     8   0   2     0   0   0    12   8   2    84 109  18   124  98  18    72  68  84     8  70   0     0  54  32     9   9  24     8  75  26    72  33  51    88  40  24    74  60   8    12  36  34     0  49   0     8  58   4     8  54   3    64   1  32    20   1   2     0   9  12    64  92   8    96  19  76     0  30  76    64  16  46    17   6  52     5   4  12    69  18  88   140  18   2     2   2  26    16   2  16    16  14  17    32   8  25    34   2  36     1 131  40     9 130  46     7 137  32     4   0  33     0  10  33     8 130  42    12 130   3     9   0  11    10   4   9    11 133   1     0 146   2    32 150  14    32  21  22    16   0   8     9  19   8     3   0   8     1   0   8     1  16   8     1   1  12     6  17   0     6  18  12    20  17  28    18   0   0     6   1  16     6   0 116    12   0 112     9   0   0     0   1   1     0   0   6     6   2  14     6   3 110     6   3 110     3 133 107    34 176 106    33 129   8     0  18   5     0  21 129     0   3 133     2   1   1     8   5   4    64   2 130    65 143 130     4 128 128     0 146  66    24   8  72    20   0  32     0  97  48    36 114   2    36 110  54    56  97  62     0  66   0    56  10  56    50   2  48    50 131  16     1  16  24     0  17  41     0   5  41     4 113  56    36   0   0    32   0  32     0   0   0     0  24   0    22  28   4    18  12   4     3   1   0    11  17   0     5   5   0     1  97   4    24  96  21    16  17  16    24  25  25    24   1  25     9  12   4   136  36   4    11  13  16   152   8   1    22  20   0     4  32   8   131  36   8   136  45   9   133   8   7   129   4   6     5   4   4   120   5  12   116   1   2   116   0  22     5   8   0     0   8  14   113  10   0     0  10  25     9   9  16   113   1  18    17   1  16     0   0   2     0   0   5    20  36  20     0   0   0     8  24  11    56   8   0    36   4  76     0  64   5    84   4  52    90  42  34    14  14  46     2  34  41    15  95  34     1   1  42     2  58  40    72   1  57    64  32  32    64  32  36     0  23   1     2   4   4    18  38   0    16  71  52    64  68   0    74  60  32    82  84   4    67  64  33    67  68   1     0   4   2     1   8   0    17  19   1     7  14   8    17  18  20    16  22  16    10  10  18    16  16  20     1   4   1     4   4   4     4   4   0     0   0   0     1   1   1     1   1   1     9   9   9     8   8   8     1   1   1     4   4   0     4   4   0     6   6   0     8   8   0     2   2   0     1   1   1     2   2   0    26  24  25
 25  25  24    33  35  34    33  35  32    32   0   0    16  40  40    17  29  26    14  28  28    12   0   4    10   0  28    28  32   0     3   1   0    32   2   2     0  32  32     0  32  33     1   3   0    32   2   0     1   0   0    25  39   1    25   0   0    34  40   1    34   0   1     2   1   2     8   1   2     8  32   2     4  41   0    52  10   2   112   6  44    88 108  28     2   2  38    72  50   0    66   0  48     0  65  58     1   9  59     9   8   9     3  20  33     0  59  32     2  43  44     0  50  40     2  81  32    82  68  34     1  32  48    33   0   2    69  84   2     1  10   9    38  16  74     0   0  36    33   0  48    53   0   0   105  48   9   128  16   4     0  17   8     2   4   1     2  28  24     2 112  17     9   8  44     0   3   7     1 138  46     1 138  42     1 134   2     1   8   6     8 134   2     8 131  10     2   3   2     3   5  10     2   0   2    32   4  10    32  20  26    48  20  28    56  18   8     0   0   0     9  18  10    57   1 120    49  24 120    50  18   0    34   8 113    32   2 113    32   3 112     8 161 112    24 143   0    18 153   0     0  20   0    32  29   1    32  23 104    32  16  96    34  16   0    32  16   3    33  18 141     0   4 136     5   0 128     0  20 136     0   0   0    11   4   0     8  12 137     0  26 140    32  20   4    32 144   4    32 133 111    32   8 104    32 134 102    20 128  16    16   4  20    24 102  38    24 114  66    12 126  78    44  14  44     0  10   0     8 121   8    14  18   0     6 148   4    40   0   4    32 144  36    12 120   9     0 112  41     6   0   8    32   0   8     0   0   0    42 112  40    36 100  36    42  96  32    32  96  33    41 113  32    34 114  32    32   8  32    33   0  32    24   1   0    16  24  22    24   3  29    16   9  21     0   0   0     8   0  16    14  32   8     1   8   8   132  36   4   130  33  69   128  32  68   130  40   8   142   4   4   127   4   4     4   1   1    10  37   9     6  32  16   118   1  27   129   8  14     1   1   1   129   9  31     5  11  24     5   5  16    28  12  18     0   0   1     4   4   2     4   4   5    12  12   8    24  40  24    16   0   0    32   0  64    27  11  48    26  74  24     7   7  20    29  77  20    10  26   7     6  70  44     1  87  32     9  67  56     1  65  41     2  16  32     3  16  34     4  20   2    16 100  50    21  68  16    59  98  17    19   2  32     0  92   4    65  88   4    33  32   3    35  40   3    53  43   3    20  32  16    24  48  20    17  32  26    17  18  24    17  16   0     1   2   5    17  26   1     1   0   1     7   4   1     0   0   0    10  10   8     0   0   0     8   8   8     8   8   8     8   8   8     1   1   1     8   8   0     5   5   5     6   6   4     1   1   5     0   0   0     2   2   8     2   2   0     3   1   0
 24  24  24     0   8   0    33  33  38    32  36  36    28  30  29     2   0   0    14   4   0     4   0   0    11  25  16    29  35  32     0   0   0     1  35  32    27  33   0    25  33  32    26  33  36     0   0   1    16   0   4    24  32   0    27   0   0     3  40   0     8  32  34    41  32  34     3   2   0     4   0   0     6  11   2    36  11   0    22   2   2     2  10   8    58  64   8     8   0   8    17   4  24     0   0  24     2  13  26    96  68   8    64   7   0     2  30   0     0  35  34     1  33   3    67 113   3     2   0   2    72  21   1     0  71   4    36  86  67     6   3   1    38  24  64     6   1  64    32   4   2    13   0  66   108  49   3   129  17   1     0  25  16     8   8   9    10 108  17    42   2  32     8 128  36    36   2   7    33 112  22     0 120  16     1 128  40     1 128  32     0 128  37     9   2  14     1   3   0     1   1   0    25   1  24    50   0  18    48  20  13    48  16   5    49   5   7    10   2   8    56  19 112     8   2 128    59   0 128     2  11 128    52  16 137    64   1 148    68  34 148    68  33 156    68  34 156    64  21   0    64  23   8    66   5 139    68  18 131    70  19 129     0   1 139    48   6 128     9  12 129    51  16 136     1  20 143    65  16 142     0   4   2    66   1   5    50  21   1    18   3   1    27 148  98     9 102   4     1 122   2     0 126  14    33  20 100    16 139  75    29 137  89    52 130  98     8  24  10     4 122   8    40 120   8     0 119   0    10  12  13    24 137  17    18 130   0     0   0   0     0   0   0     0 113  48     2   0   0    34 112  32    44   1  32     6 116   0     4   5   1     4 125   1     0   4   0     0 122   4     0   0   4    32 106   1    32 104  33     0 104  39    24  21   0     9   2  16     8   0  16    16  14  16     0  14   4     0   6   1     8   0  12     0   0   1   128  37   9    20  29   1     2   4   0     2  37   2   128   0  12   126   4  13     2  36   9     6  33   9     2   1   4   112   0  18   130   8  10   129   1   0     3   9  28   128   2   0   128   4   2     6   4   2   118   6  18   118   6  19     6   4  18    13  13  20    16  40   8     4   0   8    38  16   1     4   0   2    24   4  13    24   8  61    30  78  61     6 118  15    13  77  30    43  97  72    30  76  54     8 112  96    64   5   3    64   0   6    22 102  36    20  76  88    16  34  80   112  34  88    99  96  69    74  64   0    72  64  32     3   1  19    32  32  18    32  22  16    30   8  25    20   8   0     0   0   2     5   0   0    16  16  18     0   8  20     2   0  16     1   0   1     2   6   0     2   2   0    10  10   8     0   0   0     0   0   0     7   7   7     7   7   7     1   1   3     8   8   0     0   0   4     1   1   1     3   3   1    11  11   5     0   0   8     3   3   9     1   3   0
  1   9   1    32  32  33    36  36  36    26   8   0     1   5   4     0   0   0    10   0   0     2   6   2     8  24  26     3  29  30    30  32  32    24  32  32    25  33   0     1  35  32     2  34  36     0   0   0    26   0   1     9  34   5     1  32   1     0   8  33    30   0  34    14   6  26    16   9  16    36  33  10    32  34   0    38  34  28    50  56   9    21   0  13    51   2   0    64  72  24    65  64  10    12  88   8     2  20   8     4  80   8    34  76   8     1  18   1    66  35  12    67  67  66    68  37   3     0  16  65    64 100  99    40   5  69    40  72  73     0  18   0     1   6   0    37   6  65    35   8  17    32  32   3    17  32   3   137  26   1    24  18   1     8   8  16    26  96   4     2 112   8    45   9  32    10 121  33    12   1  34    16 131  32    16   5   0    17   0   2    16   1   2     1   2  10     1   2   8     3   5   8    26   0  10    16   0  10    54  16  26    50   0   0    48  14   1     0  10   1     4  10   0     0   0   4     8   1 130     0  11   1    64  16   0    64  18   0    72  33   0    72  33 128    64  34 136    64  12 144    64  25 137    64  29 139    64   3 129    66 129 137     0 142 136     1 132   8     0  24   2    33   0 104    37   0 118     7  17 132     0   0 129    58   4 129    50   8 112    20   5  16     6   5   4     1 137   2    39 154 110    32 140  12     2   8 104    18   7 102    51 134   6    48 128  96     5 132 100     0  20  97    10 100   9     1   8   9     8 122   8     8   2   5     2   6   4    16 128  16     2 128   0     4 128  16     0 130   8     2   9   6    40   5   8    44 119   3    33   3   0    32   1   0    37 120   5    32 128  13    37 120   0     0  98  40     2   0  33    22  10  17    17  19   0    13   0  28    20   3  16    16   3  16     0   6  16     0  32   5   128  36   4   130  32   1   132  33   0   101   8  73     6  32  80   134  57  84     2   4   4   132   1  12     2   5  13   116  40   8   112  46   5     2   0  16   130   1   9   128   0  16     4   0   1     5  32  27     6  47  19     4  38  19     4  20   2    26   2  28   116   8   9    16   1   0     5   8   0     7  32   0    18   0   1    22   2  72     4   2  76    12  14  72    16   2  81    60  10  88    44  10   2   109  51   6    89  35   6     1  64   2     2  66  50     3  64  32    76   0 114    80  32 114     4  32  72    33  32  10    27   2   8     2   1  75    74  40   5    32  40   4     0   8  20     1   1  20    18   2  16    17   2   9    22  18   0    20  16   2     4   7   0     4   8   0    10   0   0     2   0   0     2   2   0     2   2   0    10  10   8    10  10  10     2   2   2     2   2   2     6   6   6     3   1   6     8   0   4     8   8   0     1  11   0     9  11   4     1   3   4     0   0   0     1   3   0     2   0   8
  6   0   0    33  33  36     0   8   2    24  18  26     0   2   0     2   0   0     0   0   5     6   4   2     6   0  14     3  29  28     0   0  28     2  28   1    26   0  28     2  32  32    34   0   0    32   0   1     0   0   5    24   0   1    29  32   1    28   9  34     5   4  19     4   3   2    15  17   4    63  34  10    10  56  18    15  34  12    19  40   3    68  64  31    67  66  27    16  32  85     0   0  24    12   8   5     4  17  72     4  88   0     0  90  12     0  32   0     3  68 100    67  48   0     2  36   2   113   1  19    40  32  67    40  20  70     0  20   6     0  22   1     2   5   0    32   3  64     0   4  66    67   4  90    25  41   0    24  27  33     8  18  37     8  24  20     0  12   4    16 112  20    33 114  20    40   0  32    36 128  32     7 128   0     1 132   8     0 128  34    40 128  42    34 130  35    33 130  42    43 129  40    51 137  34    51 129  34     6 128  36    32 144  32     0 136  34     0 138   1    28 129  83    12 144  72     8  16  14    43  17   2    33   1 128     8   3 128    41 161   8    33 161   8    32   0 120    32   0 122    32   2  11    32 157  97    32 176  10     0  48  98     1  96  98    40 146  98    24 128  18     2   1  18     2   4   4    32   7   6    58  21 135    48  20 129    46   4   3     4   2 112    33 128  96     0 135   2     2 152   8    42  25 132    48  16 128    35   2 129    50   8 123     4 128   0     3 136  11    39   1  16     1   9  13    15   1  21     8 130  23     8   0   5     8   3   9    16   0   8    18   4  25    16   1   0     0   1  20    33 136   6    40 122  13    16   7   9    10 121   8    32 113   6     0 120   1     5   2   0     9  26   4     4  98  37    16  20  32     0   1  29    28  20   4     4   2   0    24  21   4    16  18   2     0   0   1   128  36  76   128  32   4   145  49  64   145  32   1   129  49  65   128   0   0   128  41  64     0   4  24   132   1   9   128  36   0   114  34   1   128  10  17   140   0  17   132   0  25     4  16  24   134   3  11     3  16  34     3   0  32   134  50   0     3  19   0    17   2  32   112  10   0     6   0  33   101  56  33   102  32   0    50   0   0    32  20   2    24  28   3    24  10   2    14  12   0    22  34   1    96  34   4    69  35  16   127  45  16    96   8  16     0   5  19     4  53   6    40   2   2   100  32   0    28   2  16    37  32   0    49  36   0    19   0  65    64  64   0     2   0  51    36  40  16     3  34   1     9  22  12    18  26  25    11  10  13     7   0   3     4  10   0    11   1   3     8   9   0     2   2   0     0   0   0     3   3   1     0   0   0     9   9   9     7   7   7     1   1   1     0   0   0     0   2   0     8   0   1     8  10   0     8   0   5     9   9   4     8   8   8     0   0   0     9   3   0    16  16  20
  1   9   6    36  36  36    28  28  28     0   0   0     0   0   0     2   2   2     2   2   2     4   4   4     0   0   0     0   0   0     0   0   0    28  28  28     0   0   0    34  34  34    34   2   0    34   0   0     2   0   5     2   0   5     0   3   1     1  29  32     0   1  25     3   5   2     3   1   8     4  11   2    26  10   0    26  52  20    73   2  44    66  68  68    51   0   9    18   0  94    49   1  84    32   0  80    32  24  64    32  74   0    64  26  76     0  18 104     0 126  14    96  44  27    97   4  19     1  39   1     1  39   0    25  41  16     1   1   4    10  26   0    48   2  89    24   0  16    17   5  17    81  39  65   146  33   1    26  27  37     8  16  38    30   8  22    26   0   6     0  16   0    33 113   4     8   0  37     0 129   4     8   5   0     1   5  32    56 112  16    41 113  10    44 112  36     4  96  42     0  96  12     3  97  20     1 113  22    34 114   4    34  96   7    32 112  55    24   8  16    25 128  18     0   0   2    35   0  40    40   1 100    43   6 100     8   4  96    10   4 116     8   4   4    20   8  10     2   4  10     0   2  11     6 138  27    20   2  11    32  11   0    16 118   4    33 130   2    41 134 100    34   7   6    10   3   2    32  15   4    57   4 120    49   8 121    23   4 123     2   0 114    33  12 112    66  21 134    64   1 128     0  17 130    20   3 116    16   0 114     2 138  16    48 130   0    32 132  26    17 128  16     8 139 117    11 137 117    12   0  20     0   0   5     1   1   9    10   0   9     9   4   8     0   2   0    32 130  12    31   2  12    18  10   4     9   2   0    25  20   0    24  12  37     1  24  37     5  26   5     0  64  45     0  56   0    17   0  33    20   1   8    20  16   0    12   0  34    16  20  34    12   0   0     0   5   0   129  37  70   101  19   3    98   0  96    16  52   0     4  48 104     4   0   0     4  32  64   148   0   0     5   1   1   140   2   2   140   2   3     4   2   3   142   0  25   140   1  25    12   0   8   138  33   6    14 112  35     1 114  34   129  96  34   129  48  34   112  41  32   113   8   1    98   0  37     1   8   8     0  10  35    16   2  35     8  36  32    37  38  32    52  38  34   112  38  34    32  42   1     5  11  32    38   0  16     7  37   0   117  96   0   101  69  18    96  81   0    97  20   4     8  53   0    40   3   8    52   7   8     6  13   8    24   5  64    96  98  41     0   0  30    32  32  17    32  35   4    28  18  25    25  10  24     2   2   0    10  10   8    10  10   8    11  11  11    10  10  10     3   3   3     0   0   0     8   8   8     9   9   9     2   2   2     1   1   1     0   0   0     2   2   2     4   2   4     4   0   5     4  10   1     8   2   4     1   1   8     0   0   0     1   1   8     9   3   6    24  24  22
 15   1   0    29  29  29     0   0   0     5   5   5     4   4   4     0   0   0     0   0   0     2   2   2     3   3   3     4   4   4    28  28  28    28  28  28     1   1   1     0   0   0    32   0   0     0   0   0    24  33   0     7   1   0     0  30   0     1   1  33     1   0  24     0   4   2     3   1   8     0   8  10    30   0  20     8  22   0     1  68  68    26   4  12    10   0  84    18   0  95    32   0  88    40   0   4    32   0   0    34  97  64    68  83  68   139   2  49   131  24  33     8  14  48   106   2  16     0   4   7   113   5   4     1  37  14    41  29   0    42  10  93    24   8  73    24   4   1    25   0  49    72   4  19   137  57   2    18  24  32    16  17  32     8   8  17     8   8   4     0  16   6    34 113  21     8 116  37     2   0   0    13 112  35     5   8   2     1   4  26    48  96  16    10  96   2    33  96   6    17 116   6     1 117  10     0 118  10     0  96  15     4  96  22     8 104  82    10  25  64     1   9  74     0 146  64    11   0  76    32   3  96    41   2  96    38   4  96    39 158 108    32 156 108    32   0  96    32   4 112    39   0 114    40 160 104    34 130 110     0 154 100     3 136 103     5 138   1     0  26   0     4  17 128    32   3   4    56   3   0     0   4 112     4   3   0    57  16   5     0  16 132     3  28 128    64  17 132    40   1  24    32   1   0    18   2 115     5   2  16    17   0   3    18   0   0    17   4   9     0   4   0     1   1   9    17   9   1    13   1   4     8   0  12     4 129   1     8   0   9    40   6  20    26   4  45    12   4  53     9 104  40   148  48  32   134  37  44   148   5 106   128  68  72    32   4  98   129   0  67     1  64  65   129  22   1    17  36   1     0   4   8    12   4  36     8   0  36     0   0  32    20   6   0     0   1   7   132  38  94   115  19   3   118   2  90   128  56   0   132  48  80   132   8   0   132  56  64    24   0   0    24  48   8     8  44   4   136   8   0    10  10   2     4   8  16    13  17   0     8   0   1    15  96   2     4   0  32     1 100   6     0  97  34   152   5  42    17 104   0    96   0   0   104   4  18    96  40   6    96   4  17    20   0  32     9   8   0     9  12   1    25   9  34    19  39  34    65  17   2    72   4   0    98  38  16    99  33   0   100  38  16   100  48   4     0  20   4    41  29  13    41   9   9    20   4   3    16  21   0    28   0  66   114  97  44    26   2  32    24  17  12     4   0  29    32  16   2    16  16  29     5   1   4     8   8   8    13  13  13    11  11  11     1   1   1     1   1   1     1   1   1     0   0   0     0   0   0     0   0   0     0   0   0     3   3   3     9   9   9     2   2   2     4   8   4     2   8   0     4   0   3     9   3   4     1   1   8     0   0   0     1   1   8     0   0   8    24  26  21
  3   7  15     0   0   0     0   0   0     4   4   4     4   4   4     0   0   0     0   0   0     0   0   0    28  28  28     0   0   0     0   0   0    32  32  32    32  32  32    33  33  33    32   0   1     0  33   0    28  33  34     0  29  32     0   1  35     1   0  28     0   0  24     0   4   2     3   0   2    10  11   8    13   3   0    17   2   0   105  18   0    13  16  72    11   0  78     2   0  67     0   0  16     0   0   1    40  32   0     3  33   0    11  18  36   131   2   1   137 108   3   129 101  51   107  33  33    96  12   3   103  39  40    22  36  24    35   1  88     0  24   9    16   0  24    16   0  32    16   4  32     8  13  65   138  41  38    26  29  33    24  18  38     0  14  16    16   8   6     0  16   2    40 112   5     0 112  33     2   8  41     0   8   1     3   8   2    37 112   6    34  16  34    17 137   6    21 152  21     1 148  32     0 148  42     0 144  42    32 144  41     0 128  82     4 136  68    68 136 130    73  24   3    65  16   9    65  16   3    66  20 132    71   4 132    76   4 148    64   4 144    68   4 132    64  20 132    66   4 144    64   2 144    64   0 144    68   1 144     2   8   2    51  14 119     3   2 127    49  26 129    57  18 129    34  25   2    16 133 108    23 148 107    50  16 106    53  24 137    64  25 128     2  16 130     0  20 130    33   3 113     4 137  16     4   2   2     3 136   0    18   0   0     2   4   8    16   6   4    21   7  25    37 129  97    33 137 104    57 135   8    56 129  24    40 102  16     8  96  20    33  96  48   134  68   0   154  30  43     4  36 100    18  84 103    85  92  46    65  64  18    68   0  20    69  42   9    64   8   0    65  48  17     0  80   0    23  48  77   133  32 101    25  20  33     8  20   0     8  22   0    24  16   0     0   7  16   131  33  91   101   3   3   118  18  90   132  42   2   130  32   0     6   0   0   148  32   0    18  48  16    97  49   9   122  44   4   139  35  19     8  10   2    13   1  17     9   9   2     0   0  18     8 108   0     0  97  50    16 129   4     0 128  96    16   2  10   144   1  96   101  33  44   104  36  46     8   0  26     8  47  21    24  40   1    17  40   0     9  41   0    26  34   2   115   1   2    96   2  10    97  41  17    18  36  24     2  16  16     6  53   7   100  17   0     0   1   1    96  44  12     1  36  25     0  32  81     0  84  37    80   0  12    25  50  44    45  50  32    14   2   4    32   0  17     0   0   0    16   0   0     8   0   1     0   0   0     3   3   3    10  10  10    10  10  10     6   6   6    10  10  10     4   4   4     0   0   0     7   7   7     3   3   3     3   3   3     8   8   8     2   2   2     4   2   5     6   8   3     8   2   0     8   2   6     0   0   0     0   0   0     1   1   0     0   2   8     0   2   8
  7   3   6     1   1   1     0   0   0     5   5   5     4   4   4     2   2   2     0   0   0     4   4   4     0   0   0    30  30  30     0   0   0    32  32  32    32  32  32    32  32  32    34  34  34    24  30   0    24  28   2     3   0  30     0   0  30     4   0  28     0   0   4     1   4   0     1   0   0    11   3   8    26  11  24    37  26   8    37  12  25    72   2  16     0  65  26     8   0  24    10   0  91    16  33  18    57  17   0    16   0  36   123  97   1     3  97   1   129 102   1     0   2  32     8  32   0   104   4  12    10  20   4    69  13  70     5  17  76     0  16  24     0  88   1     2  88  17     2   4  64    66   0  78   128   9   2    26  16  32     0  21  32     0  22  21     8  16   7    16  16   4    16 113  17    40   5   9    44 116   0    36  12  24     4   8  18     1 124  36     1 136   2     0 134   0    17 128  20     9 145  30    40 132  30    40 136  25    40 132  16    36  20  96     6  17 100    68  28 130    64  30   4    64  21 128    64  18   0    70  30 134    66  25 134     5   4   0     6  12   8     2   8   8    64   2   4    67  16   0    69   2   2    70   1   2    76   3   0     8   8 140     0   8   4    32   8 112    39  16   3    51  10 123     3 128  99     1 136   1     7 144  99    32 144 100    51   0 131     0   0 132    40   0   0    24  14 124     0 131  16    13 115   0    13   1   2     7 113   2     3 129  18    18 129  25    32 128  16     5   5  16    16   2  45    20  96  32     8  98  44     8  66  62   160  67  32   165  19   0    53  21  32     9  32  76    73 108  46    72   8  10    16  52   8     1  48   8    16  48  31     0  36  26     2   4  16     0   4   6     8  32  22     2  68   2    66  68   2     3   0  11   129   4   1    28  32   0    16  22  24     0   7  20     2   0  24   128   4  12     5   9   1   114  32   8   120  24   0   128  32   0   132  42   2     0   8   0   142  56  80   117  11   3    98  26  66   138  36  20     8  10   2     8  14  22     0   2  18     3   2   2     1  96   8     4   0  24    16 128   2    20 128 100     1 138  10     5  23 104   129 115  40     4   7  40    12  18  43    96  53  22    42   0   9    18  45   0    15  40  64    42   2  80     0   0  17     0  16   3    97  17   1    97  39   1   100  16   2   100  21   5    98  32   3    80   4  20   105 104  72    25 104   9    88  80  32     0   0   1    88   8   0    34  32   0    17  10  44    34  18   0    32   3  16    24  16   0    16  16   4     1   2   2     2   2   2     2   2   2     0   0   0     2   2   2    10  10  10     8   8   8     2   2   2     4   4   4     1   1   1     0   0   0     1   1   1     0   0   0     6   6   6     0   6   2     1   9   4     8   2   6     0   0   7     0   0   7     1   1   8     1   3   0     0   2   0     2   6   2
  2   6   3     5   5   5     4   4   4     5   5   5     5   5   5     5   5   5     5   5   5     0   0   0    28  28  28    30  30  30    30  30  30    30  30  30    30  30  30    28  28  28    29  29  29    25  28  28     0   4   0     0   5   3     4   0   2     0   0   0     0   0   0     0   0   0     0   4   0    21   1   8    32  16  24     0  24  20     0   9  24    32  18  25    66   3  16    74   0   2    72  96  34    97   2  82    50  10  32     1  19   4   115 107  33    17  97  33    16  96 113     0  32  44    64  16  12    97  17   0    34   8  78     7   1 102    38  24  72     1  83  12     3  16  66    19   8  18    18   0  82     2  35  18   130   8   2    20  18  32     4   8  32     8  22  39     0  20  18     2   0  24    16 114   8    34   0  24     1 120  28    33   0   8    33   1   2     1   1  34     3 128   0     2   3   4     0   2   2     8 129  22     1   4  21     0  13   5     5   0   9    12   5   2    32   1 100    52   6 112    49   8 113    52   4 100    52   0 112    52   0 117     5   8  21    69   8 152     1  17   0    70  16   1    64  24 141    48   1 128    52   0   0    60   1 128    56  16 128    56  21   4    24   4  28     0   1   0    16   0 112     1   2 113    27 128  99     4 112   0     2 122   2     5 128 105    53   0   1    49   8 117     8   0 112    28 136  48    46 130  33    33 107  42    39 101  32    37 100  32    32 101  37     0  64  48    34  65  35   132  64   1   156  16   1   156  56   9   136  48  12    22  18  99    22   7  65    80   0  98    81  65  32     9  37   7     8  12  12    30  56  46    16  24  36    24   0  32    16  16   7    17  20  25    18  17   4     8   0  18    24  48  22     8  65   0    89  80   3     4   0  76   130  20  10   132  24   0    16  37   4     0   2  16     4   0  20     0   0   4     6  36   4   124  36   4   124   0   0     0  32   0     0  30   6   137  35   3     9  17  65   113  25  81   107  29  85   138  56  16     9   5  21     1   1   1     5  11  17     0   0   2     2 104  16     2  16  68     6   4  22     0   0 112    20   0 120     4 132  18     4 116  10   132   2  14    12  19   9     0  32   2    82  26   1    72  68  64     0  24  17    34  96  84     2  66   1     1  83  69    17  99  82    37  23  69    36  24  11     4  32   7   102  34  18    64  34  18    64  96  16     8   0  32     2   4   0    10  81  48    87  50  36    51  40   0     0   8   8    23  32   8    34   2  12    17   8   8    17  16  18     4   4   2     2   2   6     0   0   0     6   6   4     0   0   0    10  10   8     6   6   0     5   5   5     0   0   4     1   1   7     2   2   4     7   7   5     0   0   0     6   6   4     2   0   7     8  10   1     0   0   6     0   0   7     0   0   0     0   0   1     0   0   8     2   4   0     0   0   2
 10  10  14    15  15  15     5   5   5     4   4   4     5   5   5     5   5   5    25  25  25    25  25  25    25  25  25    30  30  30    30  30  30    30  30  30    30  30  30    28  28  28    28  28  28    26  24  28     2   0   0     0   0   0     0   4   0     4   0   0     0   0   0     0   0   4     0   0   0     4  13   8    12   5   8     4   0   1    36  24  17    34  19  24     0  50   1    88  50  48     8  65  90   122  65  62   114  33  59   122   0   4    17   9  33   131   1   0     5  65  83    33  33  21     0  24   0     2  20   0    34   4  80     0   0  10    36   0  94    38  85  68    34   1   1    32 105  82    32   1  18    96  11  14   150   1   2    20  24  32     0   5   3     0   5  38     8   0  16     8   0  16    18  20  25    25 112   2    16 112  27    25  21  14    17   4  18    36  97   0     4   8   0     2 134   2     0 140   2     8 140   0     8 143   1     8 137   0     8 128   6    16   0  18    16   1  22     0   5   2     4   0   4     0   3  22     4   3  18     5  15   7     8  11  11    56  13 125     0   9   9    58  12  12    54   9 121    14   8 120     4   8 121    10  16 128    12  16   0     8   4   0    24 129  20    16   4   0     8 144   4    16   1  24    16 152   8     4  24 104     2   8   2     1 128  21    24   0   0    18   0   2     6   0  16    40   8  53    41  98  41     1  57  11     6  32  13     0  33   0     4  32   3     0   1   3   128  49  99    16 112 106    10  84  78    68 104  74     8 104  26    68  72  10     0  81  47    20  28   2    13   0   0    13  45  24     5   0  16    10  12   8     0   1  18    19  16  26    24  16  12    18  17  40    10  32  36     2  35   0    88  17   6     0  66  18    11  38  65   140   2   4   133   0   5     4  24   0   140   0  72   128  12  80   133  32  16   138  40   1   113  21   5   122  28   4     0  30   6   120  30   6   120  30   6   136  40   0   104   8  16   100   2  18    97  17  41   136  52  68     3   1  17    10  12  20     0   6   4     2   8  16     4   8  12     0  16 106     4 134   5     0   0 118    28   0 127    29 136 116    28  12 111   129  28  33     0   2   9   128  16  35   136   2   1     8  64  65     0  14  65    76  22 113    74 114 116     4  16  35     0   0  33    64  14   2    44  10  21    20  36  21    20  34  18    35  32  80     0 108  28    66  40  42    98  61   2    67   0   6    51  32  12    32  32  32     7  10   4    18  40  32    19   6   0    16   4   0     1  20  22     4   4   2     2   2   4     0   0   0     2   2   4    14  14   4     8   8   2     4   4   0     7   7   5     0   0   4    12  12   4     0   0   6     4   4   2     7   7   3     5   5   3     9   9   0     0   0   8     0   2   8     0   0   1     0   0   0     0   2   6     0   0   8     3   1   0     1   1   0
  6   4   4     2   2   2     7   7   7     0   0   0     1   1   1    29  29  29    29  29  29     0   0   0     1   1   1     1   1   1     1   1   1    28  28  28     6   6   6     4   4   4     4   4   4     4   4   0     0   0   0     2   3   1     4   4   0     4   4   4     4   4   4     4   4   2     0   0   2     4   9  11    30  20  19    32   4  17     0   1   9    32   3  29    32  50  20    81  49  32    88  32   4     2  57  96    46  33   1     1  34   1     0 100  32     1  45  17    69  65  67    23   1  17     8  16  17     2  20  24     6   4   8     4   2   2     4  16  10     2   4  15    34  13   2    33  20   1    32   9  18     1   8  24   128  17   0    17  16  32     8   0   1     1  12   2     8   0   6     5  17  16    16   0  19    33 112   0    33   0   1     9 113  22    24   1  19    16 114   0    33 123  32     6 130  14     2   0   0     0   4  16     0   3   5     4   0  30     0   3   2    16   6  20     4   4  22     0   1   2     4   1   0    48   4 116     0   1 114    49   5   3    61   4 118     0   8   8    69  20 132     5  16  12    48   8 121    10   9   4     2   1   0     7   8 113     7   0   3    17   0  17    11   0   3     0 117   4    16  16   0    16 149  96     0   5  16     0 149  96    16   6   4     2 134  18     2   5   6     0 128  20     8   8   6    33  96  49     1  35  13     3   3   5    18  36  21    16   4  20   128   4  65     0  73   1    96  32   8    34  24  10    10  52   6    10   8  10     0  36   7    32   0   9    12  36  37    14  40  58    12   9  35    12   2   0     8   0  17     0   0   1    24  24  33    24  12   6    16   3  12     8  40  46    88  18  38     6  64   0     0  34  64   140  32  18   128  38   2     1  32   1   133  32   5   132  16   0   132   0   4     0   0  76     4   0  76   128  36  12     2   0   0   120  24   0   120  30   4     1   1   0   121  25   4   112  16   1    25  17  16   113  17  64   113  17   0    18  16   0   146  32   9     8   8   1   129  32  17     6   8  20     4  10  20     6  25  46    33 138 103    33   5   0    17   0 127    29   1  98   152   8  14   128  96  67    16   1  15   152 104  67   128  98  96   152  66  33   128  18 112   132   0  98   128  34   2   129  71  67     0  70  74     4  48  73   120  32  12    52   4  18    52  70  82     0  18   2     0  56   8    64   9   8     2  25  42    32   0  18    53  45   4    48   5   4    21   0   6    51  16  32    48  32   0    17   0  16     0  20  16     0   0   0    12  12   0     0   2   4     0   2   4     0   0   4     0   2   0     5   6   5     1   2   5     4   9   4     8   8   2     4   4   2     0   2   4     1   2   1     8   8   0     0   1   5     1   1   9     1   3   8     0   2   0     0   2   6     0   0   0     0   0   1     0   6  10     2   6   8
 12  10   2     8   8   8     5   5   5     4   4   4     1   1   1    29  29  29     0   0   0    32  32  32     0   0   0     1   1   1     1   1   1     1   1   1    33  33  33    32  32  32    32  32  32     0   0   0    24  25  29     2   3   5     4   4   4     0   0   0     4   4   4     0   4   0     4   0   2     6  13  11    14  12  11     0   0  18     6   0  23     0   1  33     0  48  20    64  35  36    77  65   0    65   1   0   100  38  49    64  45  17     0   4  51    67  13  16     8   0  19    36  10  18    33  25  17     6  12  16     4  32  16    16   0   0    32   0  72    32  20  66     9   4   0     1  20  18    17  35   3    17   3  18   144   0  20    17  30  33     0   9   6     1   8  38    27  17   2     0   1   4    17  28  19    25  97  19    40 113  34     0   1  34    16  24   0    20 120  32    32   0  33     8   0   2     2   9   2    16   0  20    16  13   6     0   6  14     6   6   2     0   2  12    20 129  22    22 133  24    20  13  23    16  13  14     4   4 126    48  13 120     0   1   0     0   4   4    12  10  10     4   6   6    29 130  28    25 140  28    23   8   9    17   0   3    27   4 115    19 128  99    40  16  32     0   8   0    34 114   6     4 131   0    22   3  10    18   0 126     0   0  20     6 133  18     6 133  18     8   4   0    36 115   2     2  16   6    10  24  32     1  35   4     0   6   1   132   1   1   128   1   1    96  16  40     1  52  10    33  28   5     5   8   9    12   8  47     8   8  25     0   8  24     0  20  38    17  16   6    16  12   8     0   9  41    24   9   8     8  19  33     2   2  33     0  34   1    10  11   8    66 106   8    66  11  74   130  34   2   132  33   4     6  32   2     4   1  14     4   0   4     5   0  29     5   0  13   133  32  84     8   4  84     0   0   1     0  20   5   112  16   0   112  20   0   122  24   0   120  28   0   120  24   0   124  24  74    24  16  64    16  20   0   112  16  64    18  16   0   128  32   4   136  44   2   132  44   2     6   9  16     0   9  16     0  97  48    32 140 109    37   1  10    16  12 118    16   9 112   136  14  48   137  72  18     9  46 119     0  16   9     8  40  32     5 112   0   140  98   1    21  97  16     0 112  97     1  21   2   128  60  33   116   8   0    12  36  28    96 101  68   114  67   8    66  48  32    65  56  40     2  36  38    42  22  10    41  34  26    34  35  41    35  34  28    21  40  34     0  32  34    13  24   0     5   4  16     8  10  16    12  12   4     0   0   2     8   8   0     0  14   0     0   2   0     4   6  18     2   6   4     0   2  20     0   9   4     0   0   0    12   0   2     4   0   0     1   8   7     9   1   5     1   0   2     1   5   8     3   1   0     3   5   0     0   0   8     0   4   9     2   4   3     0  28  10    14  24  14
 10   8   8     4   4   4     0   0   0     1   1   1     1   1   1     3   3   3    30  30  30    28  28  28    32  32  32    32  32  32     0   0   0    33  33  33     4   4   4    28  28  28     0   0   0     4   4   4     4   4   4     4   4   4     4   4   4     4   4   4     0   0   0     4   0   0     2   0   2     2   4   0    18  16   2    36   4  18    32  32   0     0  33  32    35  33  32     1   0   0   117 112  96    81  74  96   118  64  64    86  25   0    33  21   1     0  24  17    34  12   2    32   0  18    12  32  18     0  32   1     4   4  24     0   0  88     4   2  88     0  20  90    35  16  89    32  28  22    40   5  18    84  12  26     0   0   0    20  16  33    16   8  35     0   4   5    20  25  16     4  17   0    12   0  23     0  99  17    33 126   3    33 116   0     4 116  32    23 112  32     5 113   0    34 130   2     2 130  10     0   0  98    19  18   4     0   0   3    18   4 116    20 150 100    36 130   5    50 133   0    32 128  13    36  12  96    32   0 100    32   4 116    43   4 101    33   0 100    33 144  96    36  10 106    57   6  58    32  11  40    57   0  17    21 128  17    11   0  19     0 128   4    35 112  35     1   0   5    40 114  48     0 132  20    16   1   0     2   8  10     0   1  12    16 128  16    49   4  17     2  28  46    17  24  45     2  18  32    14   9  32    18   3  20    20   3  16   148   0  16     4   0  24     0  90  32     0   4  12    33  32   8    37  36  60     5  32   0     8   8  28    12   8   8     9   8   4    15   2  32     9   6  12    12   0  12    88  58   1    82  35  33    86  50  33    64   1   0    96   0   6    96  64  10    67   0  67     2   0  14   128  54   2     0   1  10    16  56  10     0  36   8     4  37  12     5  36   9   130   0  88   113  20  64   112   0  16     0  16  72   117  21   8   118  22   8   127  31   0     6   6   0     8   8   0   104   8  64   120  24   0    26  26  64     0   0   0     3   3   0   129  33   2     8   8   0   132  36   1     1   0  17     1  98  17     2 129  41    34   8 108    34   9  12    18 148 104    24   0 114     8  18  32   176   0   0    24  76  16    64  13  64    48   0   4   125  40   5    85  96  32     4  80  35   128  16  96    20 112   0     0   4 104     8 100  96   140  84   8     0 117  64     9  40   8     0  32   0    64  60  44    66  24  42    34  10   2    17  18   8    54  38  32    32  33   0     4   9   3    33  40  35    61  32  36    20  16  15     1  10  22     8   8  23     9   0   5     5   8   1     1   0   1     0   6   0     4   4  16     5   2   1     2  10  22     8   0   0     8   8   0     0   1   0     4   5   0     4   2   0     0   8   0     8   0   1     0   0   8     1   7   2     1   5   0     3   1   2     2   4  10    18  24  26    24  24  19     0   2  14
  8   8   8     0   0   0     5   5   5     0   0   0     0   0   0     1   1   1     1   1   1    31  31  31     4   4   4     0   0   0    36  36  36     1   1   1    26  26  26    24  24  24    24  24  24    24  24  24     0   0   0     0   0   0     0   0   0     4   4   4     1   1   1     3   0   2     2   2   0     8   8   8    18  16  16    32  32  38     4   4   0     5   1   0     1   5   0    32  33  32    37  36  32    33  32  32     5   6   0     4  18  65     1  17  65    19  29   1    33  29  16     0  20   0     2  18  18     4  32  16    52  22   8    53 102  49     1   6  41    53  98   9    32   0  74    36  15   4    48   5  26    84  45   0   135   4  27   132  16  27    16   0  35    16   2   4     5  25  22     5   2   0     1  15   7    24  96  16    20  24  32    17 123   0     1 112   0    28   0   0     6 130   3    33   2  39     2   1  54    48 144  96    33 128   8    35 130 104    34 144   9     0  98  41     6 116   5    36 124  12    36   9   5    38 136   5    36   8   4    50 133  16    32 140  24    40   4  32    56   0  36    17 110   2     0   4  16    25   4  16    12  97  48    44   2  16     4   0   0     4 112   0     1 112  33    33   2   5    33 114  49     0 135  20    22   3  10     8   0   4    20   1   0     0 129  16    49   4  17    33  16  13     8   2  12     2  18   2     4  10  10    20   1   0   152  33   0     0  17   1     0   1   4     6  80  38     0  10  12    38  12   4    17   0   3     4  12   3    25  24  41    12  24  42     1  16  32    67  56   2    72  32   1    26  16  13    24  24   1    82  48   0    66  48   1    18  49   0    17  48   2    64  21  10    64  19  14    68  69   8    64  23  76   132   1  64   144  45   8     1   0  25     6   1  22     4   0   0     6   0  64     2  24   2    96   0  35    98   9  64   107  11  64   126  30   8   126  30   8   117  21   0   117  21   8     4   4  64    12  12   4     0   0  65     0   0   8   128  32   0   129  33   8   132  36   0   137  40   0     0  34  16     0  99   8     0 138   9    20   8 100     6   8  10    20 148 106     0   0  11     0   0 112     0 146  48    33  90  18    96   0  65   108  24  16    97  41   0   105  56  32    69 113   0   108  80  80   177  85  66   133  69  48   148  72  65   145  73  56    16   0  64     9  16  64    82  16   0    67  34   2    65  80   1    71   2   0    37   4   0    38  47  40    68  13   9     0  41   3     1  40   7    21   0   3    16  18  10     4   3  19     8  11  17    11   0   7     7   2   3     3   0   3     5   4   1     7   0   3     1   8  17     3  10  23     8   0   0     2   0   2    12  12   0     3   8   3     4   0   0     0   8   0     0  13   0     0   5   8     3   1   0     1   1   0     1   1   2    27  25  26     1  25   2    49   5  48    16  60  16
  2   0   0     2   2   2     5   5   5     0   0   0     2   2   2     1   1   1     0   0   0     2   2   2    29  29  29    32  32  32     0   0   0     0   0   0    28  28  28     0   0   0     0   0   0     6   4   2     6   2   2     0   0   0     0   3   9     0   1  13     0   1   1     0   0   0     2   2   2     7   7   7    26  26  26    38  36  38     0   0   0     0   1   0     0   1   2    49  48  48    49  48  48    48  36  50    20  12  32    80  70  36     0   6  83     2  29  17    33  17  16     0  24  16    32  24   4     0  32  16    36   4  88     0  66  88    36  16  57    53  97  72     4   0  91    20   4  14    66   1  64     6  40   8     5  16  10   130  20   2     2   4  33    16   0  39     0  28   5    16  17   6     0   4   6    17  17  18    17  17  10    29   1   0     5 117  40    21   9   2    44   0  40   138  64  12   170  80  78   130  82  52   148  82  41   145  82  40   130  80  32   171  82  65   146  34  32     1  38   4     1  54  36   136  80  32   155  88  33   147  80  32   145  68   4   152  80  36   168  16   4     1  34   6     0   9  16     0   4  19     4   8  16     0   3  32    44 113   0    40 113   0    24  18  32     8  17  36    62   1  18     2 130  18    16   4   0    24  13   8     4 128  16     4 131  16     0   0  16    49  96  45    26   6  30    10   2  25    18   0   0   143  40  17     2   0  80   101   0  18   100  70  32    32   0  10    16   0   0     4  32   0     4  32  48     4  36  53    17  48  33    81  56   2     2   0   0    66  40   0    10   0   1    46  10  20     4   4  17   106   0  20    50  32   5    15   0   6     8   0   9    64  33  10     0  65   8    32   1   0    64  66   4    71  82   1   130  66  68   132  32  20     2  40   2   140  25   4     4   0  24    27  17  51     0  16   8    17  10  48     3   4   0   118  23  64     1   0   0     1   1   0     0   1   8     0   0  64   136  33   9     8   2  69   128  33   8   136  32   4   136  32   0     9   0   0     0   0   0     0  96   0     0   0  48     0   1  18    12   2  17    28 129  16     6  16   0     2   0  10     0 132 120    16 128 120   128  81  64     8  28  16   104  40   1     4  44   1    32  10  17    12   0  16    72  72  69    20  64  84    32  64   2   141   1  66   129  67  32   153  65  32    65  48  96    16  66   2    16  64  48    16  80  32    23  10  40    72  64  54    82   2   8    36  37  19     6   5  21    39  40  23     1   0  13    21   2  12    17   0  26     8   8  18    10  10   5     7   6   0     4   0   1     4  10   0     0   0   2     1   8  16     6   8   0     4   8  17    14   5   4     8   8   3     2   4   1     0   3   0     4   2   0     9  12   1     4   7  12     4   6   4     5   1   4     2   4   2    24  28  16    58  60  49     0   0   0    40  42  40
  1   3   0     0   0   0     4   4   4     1   1   1     0   0   0     2   2   2    31  31  31    28  28  28    31  31  31     0   0   0     2   2   2     4   4   4     3   3   3     0   0   0     4   4   4     4   4   4     4   5   1     2   1   9     0   9  11     0   3   1     1   8   8    10  10  10    25  25  25     3   3   3     3   3   3     6   4   6     2   4   2    39  32   6    33  36  32     1   0   0     0   0   0     0  36  16     1   5  38    80  77  36    80  66  34    32  16  67    80  93  66     1  24  65    50  14   5    46   1  24    20   7   9     8   0  49     4  98   1    32 104  66     4   0  72    68   0  16    68  12  65     0   4  33   131  16  40     6   0  33    22  13   3     6   8   0    20   8  38    16  16   0    21  29  18     0  16  16     1   1  10     1   1  10     0   0  32    16   0   0   172   0  45   140  10  97    66  32  69    70 112  44    69  74  40    66  74  32    65  80  32    81  67   0    19  83  96    19 120  96    27 112 102    25  92  96    75  72  98    75  68  65    64  69 101    72 115  32    16   8  68   129   2  88     5  44   0    16   7  18     4  11   0    16   7  20     8   0   8    16  11   4    12  16  32    16   6  36    40  97   0     8 132  20    18 143  30     8  14  24    38   3  34    36   2  32    48 107  56    34   5  62    10  19  36     3   0   8   128  33  10     7  32  68    54  65   0    36   8  40     8   1  48     4  32  56     8   4  32    22  26  42     7   8  11    16  18  33    82  48   1    67  34   2    34   1   3    41   0   1     0   0   9    40   8   1    44   8   0    44   4  12     4   1  16    17  32   9   148  20  76    17  88  71     0  69  24    68  96  12    64   3  16    37  74  47    64  78   8    70  88   6   129  40  73   129   8  87   108  25  66     8   1  51    12   8   3     8  10   4    17  16  56   114  18   0   122   4   0     0  20   2    96  17  65   104   0   1   128  36  67   136  36   5   136  52   5     0   0   1   125  16   0   137  44   0     1   0   2     0  97   0    16 120   1     0 134  17    13 134  16     4 132   0     4  20   0    16 132 112     0 128   1    11 146  97     2  26  19   138  80  66   129  58   1    97  34   1     0  32  33    74  38  88   104  56  18    80   4  18     5  53  35   147   5   0     3 113   0   131  99   0     2  67  98     0   0 112     8   2  18    84  66  48     2  70  34     0  34  59    34  11  50    34  41   0    36  13  53    33  32  23    35  12   2    20  22  15    17  26   4    10   8  18    10  15   4     6   7   0     4   4   0     8  11   5     0   1   2     0   9  20     0   9   2     4   9  16    12   5   3     4   1   3     8   9   7    12   1   2     4  16   0     8  24   4     0   7   4     4   6  12     4   6   8     6   0   3    24  20  19    34  32  33    16  20  17    34  36  33
 51  59  50    31  31  31     4   4   4     0   0   0     0   0   0    28  28  28    31  31  31     3   3   3    33  33  33     0   0   0     1   1   1    24  24  24     1   1   1     5   5   5     1   1   1     6   6   4     2   5   3     6   0   8     0  11   9     2   3   1     2   0   0    24  24  24    27  27  27    37  37  37    39  37  33    37  36   2    36  34   2     1  12  32     0  16   0    24   0  16    17   2  16    48  26   0    16   1  20     0  41  34    59  39   2    50  38  97    24  17  98    64  72   2    16  65  67    36 107  97     0  66  49    32  98 113    36  24 113    60   2  66     6   0 115     4  33  91    70  40  35     6   0   5   128  28   2     3   0   2    22   0   9     0   4   7     4   4   0     4   8  32     0   0  16     3   1  16     0   0  24     1 113  32    12 120  40    20  96  32   180  74   6    86  48  98    56  66   8     0   2  38     4  34   0     0  42   2     1  34  28     2  50   2    66  34   6    19   4  10    25  32   6    73  56   2    19  16   2    24  48   0    24  48   0    56  16   4    48  73  37    97  17  46     0   2  80   146  34  24    17   0   0     8   6   2     8   4  20     0   4  20    16   9  20     0   5  20    48  15  40     2   8  10     9 134  17    43 100  43     2  10  34    23  10  27    18  98   2     5 100  17     0   0   0     1   0   0    32   1 108   100  65  12    38  67  48     2  34  16     0   3   0     0   1   8     0   6   0    20   8   0    20   0   4     2   2  20    71  32   4    64   3   2    40   0   0    40   0   0    17  57   4    13  76  85    40  77  81   168  68  81   140  37   6   136  32  81   136   9  68     8   9   4    24  16   4    12  34  80     2  97   0    71   2  17    64  40  16    70  56  38     6  64  70   114   8  80   121  17  81    13  25  49     1   8   8    20  12   8     4  16   0     6   2  56   112  19  25   112  19  65   104  21  67    98   4   2     0   1  83   144  49   3     0  20  92   128   0  74   118  24   0     9   0   2   139  40   0    16  16   2    16 112  35     5 131  49     9 123   0     5 112  18    12 101 105     5 132  98     8 133   0    10   6 100     0 124 112    10   4  22   138  24   2    16   1  36    74  56   0     4   8  17    12   2  48     2  48  32    98  40   2    96  48   4     2  54   0     2  54   0    75  32 112    15  34  50    12  66  34    76   2   0    46  50   0    33  34   2    40  33  57    15  34  32     0  32   4    41   6   2    33   6   2     1   6  19    19  22  20     9  12   4    14  13   1     4   1  21     4   5   1     0   9  21     0   1   1     8   8  18     0   0   2     8   9  23     0   3   5     0   4   0     4   5   7     4  13   3    12  15   0     0   2   9     4  26   5     4   6  10     4   2  11     0   4   0     8  24  18    48  34  58     0  18   1    48  50  51
 32  34  38     9   9   9    28  28  28     5   5   5     1   1   1    24  24  24    32  32  32    33  33  33    33  33  33     1   1   1    32  32  32    24  24  24     4   4   4     5   5   5     4   4   4     0   0   0     4   0   0     5   4   2     4   0   8     6  14   8    10  14  10     1   1   1    32  32  32     1   1   1     3   2   0    33  33   3    34  37  35    26  24   2    11  20  50    40  46  34    41  34  16     0  16  20    32  24   0    32  16   0    50  22  34    33  30   2     0  25  18    70  99  50    66  34   5     6  39  33     0   1  49     4  10  64    36   8  96     4  97  98    68  80 112     0 104  98     0  42  33     0   0   4   132  26   0     0 112   0     4 121   8     4  10   1     6   1   0     1   8   1     5  13   0     6   8   0    17  21  18    24 112  38     0  96   2     4  64   0    52   0   0    80  82  32    48  20   5     7  14  10    68   8  28     4  12  28    74  20  34     1  20  40    67  20  35    18   0   2    88  36  18     1  12  26     0   8  19     8   4  17    28   4   1     8  49   0    32  65   4     4   7   8    99   3  48    14   6  64   139   0  16    10  40  24     3   4  12     0  35  20    24  41   0     0  39  12    35   6  56     9   0   4     9   6   0    32  18  40    19  24  36    16   8  16     1   8  24     1  34   4     1  33   0   128  35  96    64  97  44     0   5  28     4  32   8    68   3   4    66   0  16     8  10  20    12  10  24    16  35  26    17  60   9     3   0   1    80   8   4    43   3   8     0  36  32     9 113 104    17  33   0     5  72   1     9   8  87   132  36  84    32   9  16    36   9   0    36   0  32    41  73   0    12 105  64     4 107  72     4 104  80    68  97  10    64  97   0    36  32   1    66  48   5    21  97  34    32   0  66    25   9  34    24   8  50    16  16  10    20  18   8     4   0  60   116   0   4   112   1   1    96  17  69   168  64   0   136  64  18   136   0  82    17  16  86     4   0  74    18  16  76     0  32  14     9  40  22    21  24  36    24  25  36     0 116  68     4 112   0     5   0  98     4  16 112     9 129   0     9 129 128     8 142 128     3 114  64     1 120 116   128   9  34     1   9  34   132  16   1   137   9   8   130  60  17   137 101  74    48  12   0     2 116  96   104  26   0    99  16   0    47   0  81     4  64  17   106  64   0    38  28  14    36   0   2    36   4  24    32  32  19     2   2  17     0  32   7     3   4   0     3  13  14    16  11   4    20  28  16     1   4   5    13  10   0     0   1  19     2   5   1     0   0  21     8   0   3     8   1   6     8   1   0     8   8   0    12   9   0     8   9   6     8  12   7     4  12   6     1  24   1     0   0  12    24   0   9     4   0   5    12  26   9    28  26   3    26   8  11     0  16  42     2  16  13     0  16  44
  6   2   0     0   0   0    33  33  33    25  25  25     0   0   0    24  24  24    24  24  24     2   2   2     3   3   3     0   0   0     0   0   0     1   1   1     0   0   0     0   0   0     0   0   0     4   4   0     4   6   2     0   4   2     4   6   2     6   0   2    26  24  24    32  32  32    32  32  32    33  37  39    34  36  38    24  25  15    12  11  29    25  28   1     1   0   2    24  21   6    21   3   0     0   0   4    17   1   0    50  22  40    58  22  34    50  20  32     8  16  18    81  89 100     0  72  51     0  67  68     0  86  96    18   8   0    34  40  97     4   6  50    72  64  65    10  33  24   131 112   8   140   2   1   144  98   3    19 103   4     0 121   0     2 123   4     0   0   0     2  12  33    16  16   2     1   9   0    18  16   2     6   0  36     0  96   6    12  32  16   130  32  66    66 106   2     5  32   0     1   4  24    65   5  20     5   0   0    64  36   0     3  36   0    66   1  17     2   0  24     0  33   4    64  40  24     0  40   3    14  32   5    26  35  21     4  48  33    16   5   6    32  17   7    59  67  50    10  82   0    74  64  16    15   0  80   128   0  80   128   3  64   128   7   0     0  33  14     3   4  48    32   0   5    44  16   0    38  16  33    49 114  32    17 100   1     0   0  21     8  34   6   129   1   0    13   3  64    77   0   8     0   4  32    80  33   0    16  34   8     6   0   0    66  50  12     4  35  16    34   8   2     0   8   2    86   0   4     0   4   6    16   3  32   130  32 114   128  33  96   128 112  64     1   0  34    52  33   1    33  36   2     9   9   2    32   2   0    36   0   0     2   8   0    38   8   1    12  40   0    67   8  24    73   5  16     1  65  16     4   1   0     6  45   4    64   0  18    94   8  18    20  64   0    58  64  16    32   2  48    96   0  56    96  17   4     4   3  44    49  16   0    29  80  64   171  64   0   128 104   2    32  64  16   112  20  36     4   0  58   130  33  95     6   1   1    16  17  24    16  18   8     0   1   4     4  96  69    20  26  32     5   0  97     5  99   0     1   9  64     1 128 112     5 136 112     8 104  52     1 101  84   152  10  32    29  35  36   100  32  32    40  65  65   138  28   2    10 105  67    26  20   7   104  92  76     8  10  24    37   8  80    65   0  88    32  72  80    13  12   0    34  30   2    48   0   0     4  32  10     4   5  27    10  34  16     0  33  25    32   5  16    34  20  16    10   1  16    26  26  24     9  10  16     6   6   0     4   0   1     6   1   2     8   0   0     8   0   0     0   0   0     8   1   0     0  11   4     0   0   0     0   2   0     3   4   2     0   6   1     2   2   0     2   2   0     0  24   0     0   0   4     4  28   4    25  31  31    32  50  14     0   0   4     0   2   1     0   0   0
  2   2   7     0   0   0     1   1   1    33  33  33    24  24  24    25  25  25    24  24  24    34  34  34     3   3   3     2   2   2    24  24  24    24  24  24     0   0   0     0   0   0     4   4   4     4   4   0     6   6   0     8   8  10    30  28  24     2   0   2    38  36  34     0   0   0     0   0   0    32  33  33    26  26  30    25  25  29    27  25  27    25  25  25    17   6   4    21  20  22    20   3   2     1   4  20    37  16  16    36  34   4    36  16  18    16  19  23    78  73   4     5   2  14    90  80  62    24  18  78    16   2   0    16   6   2     2  81   1    66 117   3    50  25   1     0  96  18     1   2   8   131  13   0   131  96   1     4 130  17    18 128  11     0 113   8     0   8   0    18  25  32     4   4  16    25  25  20    20  16   4     4   8   0     8   0   1     8   0   0     8   0  75    72 104   4    12  32  36    31  28  25    85  32  29    13  36  49    16  17  32     1   5  32    20  49   0     7  32  20     2   8  21     8   2  29    72   0   4    68   0   4    86   1  16     0  33  32     8  48   4     0  39   4    24  38   3    24  50   5    16   8  33    81  25   8    65  72   0    80  90  11     9  18  68   152  18   4     1  68  32     1   4  32    17 140  25    49 154 105    37 132 104    32 134  96    41  17  36     9  82  38   136   2  64    73  65  33    20  17  32    20   2   0    84   9   0    92  36   8     4   5   4   114  23   1    34  64  18    34  64   0    32  64   2    82  17   8     0  72   2     2 113  10   130  36 114    18  85  68    20  86  18    66  52  19    16  36  51    33   0  33    33  36   0     4  10   0     1   3   0    35   0   0     6   8   0    68  34   8     4  32   9    68  49  42    68  67  16    84  17   0    20  52   0     8  48  36    58  21   0    58  17   2    98   0   3     0  32  24   132   2  64   133   2  68    20   0  67    52   1  90   128   0  97     4  65   2   132   3  65    33   2  32     4  35   1    12   0  80   150  48   4    18  48   8     3   4   8     4   1  10     0   4   6     0   8   7     0  96  15    16 104  32     1   8   4    16   9 112    17   8   0     1   0   0    16   2 128   137  25  48    21   1  32    37   8  32    61   0  32   160 105  65    32  49   2   161 101  70    26   4   5   104  76  68    50  16   6    65  40  10    67   1  69    32  88   9     0  28   0     0   0   0    32  20   0     0   0   4     0  24  21     2   8  17     1  41  16     2  12  16    34  19  16     0  18  12     2   3  24     0   0   1     2   6   0     4   0   0     4   0   0     8   8   4     0   8   4     4   3   0     6   9   4     4   2   4     0   8   4    10  11   8    11  10   1     3   0   8     3   0   0     0   2   8     0   0   0     4   4   4     4   6   4    25  29  24    33  39  33     0   0   5     6   0   1     6   6   2
  0   0   0     3   3   3     0   0   0     0   0   0     4   4   4    24  24  24    24  24  24     2   2   2     1   1   1    26  26  26     4   4   4     0   0   0     0   0   0     1   1   1     0   0   0     0   0   0    14  14  14    18  18  18     2   2   2    32  32  32     2   2   2     1   1   1     4   4   4     5   5   5    24  24  24     1   1   1     3   3   3     8   8   8     7   7   6     4   4   7     5   7   2    17  18  16     1   1  16     4   6   2    16  12  20     4  38  28     1   0  62     0   0  13     8   0  14    26  16   2     9   2   4     9   1  34    48  34  41   106  34  27    10   4  32    96 104   0   115   5   1   131 107   1   130  11  99    29 135   2    11 128 106     8 123   0    16   8   8    18  16  44     1   6   4    16  16  16    16  18  16     1   3   1    10   8   1     8   0   1   132  40  69    64 100   6    32  77  57     4   1  48    12   5  16    35   4  49    33   5  33     1  35  32     1   1   0    72   0  12    74   8   0     8   8   4     8   0   4    20   0  20    30   0   4    12   0   4    68  32  38    68  36  33    68  50   7    16   1   7    24   1  21     0  32   0    24  36  50    16   3   6    16  50   6    88 114  67   137 100   0     1  84   1    48 132  96    49  16 137     1   4 136    32  21 100    62   1  32     8  80   2   138  50  70    64  66   2    24  19  32    20  57  32    16  63   8    18  33  40     2  18  32     4   2   0    38  64   2    50  16   2    96  64  16     2   0  18     0  67  80    16  80   0   144  85  64    16  85   2   146  30  12   112   0   2    36  36  18    57  16  32    44  51  32    37  36  32    52   0   8     4  32   0    32  34   1    64  20  40     4  64   1    72  36   2    32  64   4    37  32  32     0  13   4     6  41  10    34   9  20    18  64   2    48  64  18    68   2  24     0   0   1     4  16  72   153  59  18    28  42   2     0  96  48    10  96   0     2  80  19   129  96 114   132 113  65   140  25   1    20  16   8    28  32   4     0   0   9   138  34   2   130  42   3   144  40   4   128   0   1     1  96  36     0 112   4     0 138  21     0   8   0    18  10   0     1 150   4   147 121 100    28  19  36   109  34   2   107   8  66   104  32  98    32  42   2     8  34  36   112   4   0    32  14  68   104   2  68     0  10  90   129  41  16     0  80  74    32  20   0    17   2   0    50  36  16    16  32  16    34   0   1    34  20   3    35   2   1    34  17  16    16  16  24    22   5   8     2   0   0     6   5  16     4   5   4     0   0   6     0   0   0     8   8   0     0   0   0     6   6   0     4   4   4     4   4   4    11   9   5     3   2   1     1   2   9     0   0   0     0   0   0     2   2   0     2   2   0     0   0   4     4   4   4     4   4   4    36  36  36     6   6   6     2   2   2     0   0   0
 33  33  33    35  35  35     1   1   1     0   0   0    32  32  32    29  29  29    29  29  29     0   0   0     0   0   0    24  24  24     0   0   0     6   6   6     0   0   0     1   1   1     0   0   0     0   0   0     2   2   2    24  24  24    34  34  34     2   2   2     2   2   2     3   3   3     2   2   2    32  32  32    24  24  24     0   0   0     2   2   2     0   0   0     0   0   0     4   4   4     1   1   1     0   1   1    20  20  16     1   2  16    28  37   1     6  34   2    48  45  37     0   4   2    67  64  64     8   8  22    64  66   8    96  98  40    49  49   9    48  34  10    50  20  40    16   8  32    96  12   0     6 103   0     6 138   2    12   2  10    15 136 104    29 113   2     4   8   4    18   1  36     7   2   0     4  23  10    20  22   8     0   3   8     4   0   9     1   1  12   140  32  75   128  42  68    80  82  41    48  72  52    28  92  52    39   2   1    23   6   0    80  34   0    64   0   0     1  11   0    10  33   0    64   9   0     0   1   4     0   0   6     5   1   0    11  32   4     7   2   6    18   0   0     0   0   2    33   8   2    64  32   7     0   9  18    25   8  16    24   2  17    24  42  42    60  16   1    20  77  72   144   1  16    32 149  64    48  12 137     8  12 137    37  26   0    56   4   0    13  88  34   130  28  67    68  26  32    17  83  35    20  32   0    20  17   8     0   0   0     0   0  36    34   4  38     0   0  16    32  72  40    64  64   8    64  98   0    72   5   0     9  66  17    21  35   1    85   4   1   130 144   5   152   4   8    20  16   4     5  52  16     0  36  32     4   6  34     5   2   8    68  34  41    64  48   8     4  67  64    96  14   1    41  22  72    32  68   2    24  32   0    64  64  42    32  67  42     0   1  38    18   1   2   122  10   0    12   2  66   128  38  67   136   2   2   188  90  50   136  72   2    30  88  64    23 112  66   138  18  97   143  12  66   134  56   0   140   5   3     8   1   1     9  36   0   138  32   0   139  42   2   120  24   2     8  32  10     0  48   5    25  96  36    17 116   0    17 136   0     2 139  98     1 138 134     0 128   0    19 128  98   146  96  32     5  96   0    65   3  88    60   8  16     8   2  52     4  99  32     0  89   4    34  10  64   104  14   1     2  42  26     0  33  16    35  88  66    41  24   2    35  16   0    50  32  18    10  10  30     0   2  22    33  17   1    10  18   0    21  19   8    14   8   8     0   1   9     2   0  20     2   0   4     0   0   4     8   8   0     0   0   0     0   0   0     3   3   1     2   2   4     3   3   1     6   6   4     0   0   6    10  10   4     2   2   8     2   2   8     2   2   8    10  10   0     0   0   0    12  12  12    24  24  24     0   0   0     6   6   6     0   0   0     2   2   2     3   3   3
 37  37  37     1   1   1    36  36  36     1   1   1    37  37  37    30  30  30    29  29  29    29  29  29     0   0   0     4   4   4     0   0   0     2   2   2     4   4   4     0   0   0     0   0   0     0   0   0    24  24  24    32  32  32    34  34  34     2   2   2    32  32  32     0   0   0    32  32  32     0   0   0     3   3   3    27  27  27     2   2   2    10  10  10     0   0   0     8   8   8     1   1   1    10  10   8    31   8  18     4  20  19    18  24  16    14  37  17    40  35  51    66  64  16    98  97  75     1   0   9     9   9   1    13   0  43    44  34   2    32  32  24    50  32  40   100   0  37    16  16   0   134 108   4     2 140 116    28   0   0    24 128 106    30   0   8    16   0   1    18   0   2     2   7  32     3   3  16    17   0  12     1   1  12     8   4   4     0   0  12     4   0   4   145  49  92    96  10  44    97  10  52    20   4  52    37   3   4   103   3   6    16  11   1     0   2   0    16   8   0     1   0   0     0  32   0     8   8   0     4   1   0     5   4   1    53   0   0    55   4   2    35   4   2    48   2   2    50   5   5     6   3   1    23   6   1    64  34  16    64  34   7    24  42  26    12   0   0    84   4  72   150  69   2    58 145   6    50   8 130    48  10 128    36   1 108    61 144   4     3  84  34   134  52  99    65  74  66    25  90   3    17  80  34    36  72   8    34  82   2    68  88   8    74 122  42    64  40   8    68 104   8    36  72  24    65   1   1    81 109  13    26  66  66   137  53  37    25  25   9     0  16 128    20 145 130    34   0  20    14  16  32    72  64  36    66   6  22    87   4  44    85   0  41    65  20  64    96  16  72    40  72   0    44   0   2     8  12  70    44  13  26   104   8  50    96   1  40   102   2  58    96   2  16   112  10  13   112   0   9   105   1  12   168  66  80   164  74  80    62 152  50    48   8  49    27   0   6     0  44   3     1  28   2     0  18   8     1  24   8     0  37   3     1  32   0   138  32   0   130  34   2   122  26   6   117  34  10    24  48   4     5   0  32     3 116   1   147  64  34   139  64   1   131   8  76   128  19  72   134  22 110   145 113  98   130   6  10     0  17  96     9   2  90     4  66  36     8  64  34    12   0  36     0   3  36    32   2   0     0  10   8    81  41  24     3  41   2    33  41   2    10  26  10    48   2  24     4  34  18    40  34  28    58   2   8    25  16  20    31  26   0     5   0   0    14   9  16    10   8   0    12  13   1    11  11   5     8   8   4     3   3   1     6   6   0     0   0   0     4   4   4     0   0   2     7   7   1     4   4   4     8   8   0     0   0   6     1   1   7     0   0   0    10  10   6     0   0   8    12  12  12     0   0   0    36  36  36     4   4   4     0   0   0     6   6   6    36  36  36
  4   4   4    29  29  29    37  37  37     0   0   0    36  36  36     1   1   1     4   4   4     5   5   5     4   4   4     4   4   4     0   0   0     2   2   2     4   4   4     0   0   0     0   0   0     0   0   0    25  25  25     2   2   2     1   1   1     2   2   2     3   3   3    34  34  34    33  33  33    33  33  33     1   1   1    25  25  25     2   2   2     8   8   8     8   8   8     4   4   4    12  12   8    17  16   1     6   4   0     1   4   3     6  24  18    44  41  33    18  19  19    66  71  35     3   1  75    96  98  18   104  96  88    68  66  80    12   0   0    16  16  14     4   8  40   108  24  14   120  19   4   133 124  21    20 138 116    24   4 121    30   4 120     1  20  14    15 112   4     2   6   7    18   5  35     0   4   3     2   0  10     0  48  11     0   0   9     1  49   4     4   2  12     0  50  13   132  24  85    99  86  38     4   4  37    86   6   4    81   0   0     8   4   1    16   1  16     8  32   0     9  96  68   136   1  84   128  41 126    65  35  84    76  71  85    96  67  86   117  18  16    34   0   8     3   8   9    16  10   0    50   0   0    83  32   1     2   0  25    14   0   9     0   0  16    29  25   8    64  76   0   134  77  42     2   1  70    48  25 130    10  24 134    32   0   1    54   8   1     8 100  32   148   4   2   109  21  66    29  16  65     1   0   0    76   8  72    72   0  80   136  64  64   104  64  48   172   8  40   104  64  48    34  74  26    97  13  13    34  42  42   144 104  72    24  52  68    20 128 128    33   5   1     0   1   3   128 136 128   142   2   8    80  66  48    82  64  36    81  70  36    65   6   2    32   5 104    33  16  72   128   7  42   129  36  64   136  41  92     8   0  38    40   1  36     0  65   0   164  67 112   134   2  80     2  10  69     8   0  10   145  49  68    10 100   0    32 142  81     4  16   0    21  13   6    49  16 102    32  10   5     0  74   0     4  78   4     1   6   0    12   4   6     1   4   8   130   0   1     2  24   0     0  24   0     0  42   8   142   0   4     6   8  24   135   4   1   129  52   0    96  48   0    33  24   2   129   9  64   129   4  12   130 128  65   134 102  28    83  34  80    85  33  25    21   3   1     1  66  22     0  33  33     1  65  32    49   4  17    96   1  81     2  98  81    27  41   0     5  41   0    32  27   2     6   2   2    40  34   0    44  32  27    49  34   8    49  43  16    14  25   0    28   0  18    30  25  16    18  16   4     0   0  13     0   0  10     0   0   4     8   8   4     8   8   2     4   4   0     2   2   4     0   0   0     4   4   4     0   0   4     8   8   2     1   1   1     1   1   1     1   1   3     9   9   3    12  12   0    24  24  24     2   2   2     0   0   0     0   0   0     0   0   0     0   0   0    32  32  32
 33  33  33    33  33  33    37  37  37     3   3   3    38  38  38    32  32  32     0   0   0    32  32  32     1   1   1    24  24  24     0   0   0     6   6   6     0   0   0     1   1   1     0   0   0     0   0   0     0   0   0    32  32  32    35  35  35    31  31  31    31  31  31    28  28  28    24  24  24    16  16  16    14  14  14     7   7   7     5   5   5     4   4   4     4   4   4     5   5   5     4   4   0    20  20   0    18   8  17    14  12   3    37  32  34    56  48  34    34  41  19    35  34  48    99  97  43    97  97  19   105  98   9   104  96  14    92  80  66    48  16  34    16  40   1    96  32   2   134  16  17     4 124   4     2 131   4    12 130 101    12   4   8     8 128  96    12 112  34    12   6   2    17   3   0     0   0  17     6   1  16   132  49   9     7  37   0   135  11   1     4   2  21     4   0  24   148  32  75    69  64   6    52  12  18     7  18   0    17   0   2    24  44   6   136  72  64   136  57   4     0   0   6     0  64  10   129   0  15    64  82  75   109  86  81   120  91  64     4  10  24    64  39   8   115  33  25    98  12   1    76  19   1    90  20   1    70   2   0   108  14   1    32   6   6    48   8   5    96  84  68   149  84  41    54 144  66     4 156 131     6   1   0    34   0   2    35 144 108     0   4  49   158  21   3    26  20   0   126  24   0   117   8   8   132  12  12   128   0   0    12  64  16    13 104  80    34 137  33   168  20   0    12 128  48    24   8  46   129   8  30    41   0  42    16 140  56    48 129  17     1   5  16    32   0 147     8   9 144   187 137 134   136   8   6   147   2   2   176   4  12   162  80  69   160   3  65   161  71   9   161  64   0    36   0  72     2   5  16     2   5  80   170  64  64    10  64  32     0  96   0     5  96  16     0  32  16     0  32   1    16   4  24     0  96  16    56 130  48     2  16   1     0   0  20    35 144  38    34  87  36     1   8   8     6  34   4     5  32   4     4  40   6     2   1  13   130  11   1   131  16   2   126  34   0     4  32   8    14   0   8   130   0  16     1   0   0     3  32   0    98  34   1    97  28   2    10  90   1     0   4   6   146  96  29     8  20  23    10  40   1    73  51  97    49  96  96    65  97  17     0  71  17    72   4   0     0  77  65   104   5   0    48  80  64    57   3   0     2   5   0     0  58   0     6  54   2    44  54   1    15   1  15     6  32  25     0  10  17    10   3   0    32  32   0    32  33   8     6  16  24    28  29   1     0   0   0     1   1  11     0   0   4     9   9   3     8   8   0     2   2   4     2   2   0     2   2   0    10  10   0     0   0   4     1   1   7     1   1   3     8   8   2     0   0   0    14  14   8    28  28  28     2   2   2     0   0   0     2   2   2     2   2   2     2   2   2     1   1   1
 34  34  34    35  35  35    37  37  37    33  33  33     6   6   6     2   2   2     4   4   4     0   0   0    36  36  36    26  26  26     4   4   4     0   0   0     0   0   0     1   1   1     0   0   0     1   1   1    31  31  31    35  35  35     2   2   2    25  25  25     1   1   1    26  26  26    26  26  26     0   0   0     4   4   4     5   5   5     7   7   7     4   4   4     4   4   4     5   5   5     5   5   5     5   4   1    23  20   2     4  16   2    25  40  24    57  56  50    49  56  16    49  48   1     1   0  59    24   5  12    58  43  48    56  49  12   104 120  96    36   0   0    40   1   0    72  80  48   128 106  16     4   6   6     5   0   0     6 146  96     4   0  20     8 152  12    13  99 106     0   3   3     0  18  35    10  10  25     1   6  25   140  40   0     5  33   3   129  35   2     5   3   0     4   0  19   128   7  67     7  84   0    83   9   2    24  16   4     0 104  16     0  49   2    24   9  34     8  32  32   128  41 100     0   0  36   136  73   5    16  40  69     9   3   5     2   9   0    30   4   2    70  32   0    66   6  11    18  50  32    16  51  32    24  20  32    20  40   2    28  33  16    64  14  14    91  30  38   132  60  64   142   8   2    55 150  99     5 160 129     2   4   0    34   0 129    16  24   1    50   0  48     6  76   2    33  17   0    11  29   3    23  17   0     9  44  12     0   4   0     0  73  17     4  32  80    32 128 112     1 132 148    40   8   6    13   4   6     8 132 102    32  20   6    49 112  34    17  32  96    48 134  64     5 171  32    42 142  10    10 164 128     8  22  26     1 112  67    19  84  66   177  84   0   129   1  64   129  69   2     0  35   2   149  34   6   130   0  90   178  67 120    10 129  36    40 133   0    32 133  32    33 129  16    16  23  24     2  96   0     0 112   0     8 128  21    40 146  73    32   8 128    36  18   0     5  19  98    32   0   0    36   2  44     5 104   6     6   0  16     0   0   0   130  17   5    10  25   1   114  10   0     2   2   6   117   0   0    18  32   2     2  44  24     2  37   9    17  53  18     2  56  32    97  12   0   106  44   0    16  37   0     6   4  58    70  17  28    81  10  32    77  32  96     4  10  96    20   4  64     0 103  65     1  34  19    68  90 104    52  39  83    52  22   0    40  41   1    41   8   0    15   9   2     2  32   2    14   2  25    44   0  24    32  11   9     0  37  18     4   7  16     4   6   2     0   3  24    32  34  16     0   0   4     2   2   0     1   1  11     2   2   8     0   0   6     0   0   0     0   0   4     8   8   8     8   8   0     0   0  10     0   0  10     0   0   4     9   9   5     1   1   1     1   1   1    10  10   8     0   0   0    28  28  28    35  35  35     2   2   2     2   2   2     2   2   2     0   0   0
  2   2   2     3   3   3     1   1   1    32  32  32    32  32  32    30  30  30    28  28  28     6   6   6    25  25  25    26  26  26     5   5   5     2   2   2     0   0   0     0   0   0     4   4   4     4   4   4    26  26  26    27  27  27    27  27  27     2   2   2     1   1   1     3   3   3     1   1   1    11  11  11     7   7   7     3   3   3     0   0   0     4   4   4     0   0   0     1   1   1     0   0   0     0   2   0     4  26   0    24   4   5     4   2   8    56  60   0     5   4   9    52  52  49    41  44  32     9  13   1     4  12  18     0  14  32     3   8   1   113  56  34    96 104   3   130  78  33   134   0  28   133 100   7   133   0  56     1 139  21    33   1 132    40 145 137     8  53 106     0 120   8     0  11  36     5 100   0     5   4   0     3  39   9     5   2   1   128  12   0   133  33   3   129  32   5   132   8  73     8  64   8    73  80   2    25   4   6   152  17  66    24  16  32    16   1   2   144  65  76    24   9   0    24   0   9     8   0  36    19  32   5     9  12   0     1   2   0    36  14   2     7  32  34     0  38  32    81 102  33    88 114  67     8  37   3    44  20  36    48  70  36     2  64   0    51  26  66   166  18   2    58  24   6    34 132  98    54  18 129    13   4   0    62  16   1    10  20 136    20 132  73    18  12   8   131  28   8    19  36   0   144  34  16    16  36   8    17  14  16     0  33  41    34 122  32     0 152  96    25 146   4    13   0   4    12   1   5    13   8  20    33   0  18    49  12  18     1 112   0     3 106  56    28  99  32     1 107  64    27  99  96    11  96  80     1  80  65     7  64  82     1  81  64     0  20  25   128   2  16   128  35   9   148   2  12   160  66  13    56   6  68    42 130  99    10   5 114    48 144  51    35 129  48     0   2  11    16 112  21     2   0   1     2 160  96    10  24 104    16  16   0    17  17  96     4  17 106    36   1  32     0  96  42    12   1  19     1   0  26   132  32   4   128  25   5   112  18   6     2   6   2   125   1   2   117   4   0   104   0  10     2   0   8   104  36   0   128  61  34     2  16   0   128  61  34   128  96  98   128  87  70   145 109  70     0   0  76    14  77   4    14 101   3    38  33  25   136  62  25    30 104  85    13  64  65    32   0   2     0 116  83    36  27  10    42  60   9     2   8   2     2  16   2    37  40  35    59  52  34     3  33  43    32  33   7     0  36  10    32  39  16     8   6  10    32   0  25    20   0  16     4  24   2     1   1  11     1   1   1     1   1   1     0   0   0     2   2   8     1   1   1     9   9   1    10  10   0     8   8   8     0   0   0     1   1  11     9   9   5     9   9   1     5   5   1     8   8   8     9   9   9    30  30  30     2   2   2    32  32  32     2   2   2     0   0   0     3   3   3
  0   0   0    32  32  32    32  32  32    32  32  32    32  32  32    24  24  24    30  30  30    30  30  30     5   5   5    24  24  24    10  10  10     2   2   2     2   2   2     2   2   2     6   6   6     6   6   6     2   2   2     3   3   3     1   1   1     1   1   1     1   1   1     0   0   0     0   0   0    10  10  10     8   8   8     4   4   4     5   5   5     0   0   0     1   1   1     8   8   8     9   9   1     1   1   1     4   0   0    11  16   1    29   0   9     1  36  17    17  20  17     1   2   4    60  60  16    44  36  32    10   0   0   112 105  64    48  34   4   117  48  16    65  64  48   132 128   1   128 130  28   131  96  44   148 116 108   168 162   4    57   0  24    45   1 153     1 161 100    16   9  20     0 113   6     0  17  24     5   6   8     1   2  16     1   4   8   131  35  69   139  35  13    14   3  68    68  24  65    26  16   0    18  73   2     8  96  26   144  40 106   152   0  96     8  80  67    16  96  34    68  32  32    44  10   0     4  40   0    48  43   0     8   3   0    32   0   2     4   0   0    65   0  40    17   8   4    80 100   0     0  19   0    16   0  32    84  27  12    24  49   0    36 115   3    32   2   2     2   0   2     8   2   0    58 152   2    18  24 131    13   8   0     0   0   0    11  16 128    19 152  96    33  96  24     0  24   8    17  45   0     1  28   1     8  37   1     0  32   2     0  50  40    16   8   4     9  88   8    29   2 108    36   0 112    12  15 113     8 131   5     8  16   4    19  20  32    10  16  32     3  96  32    19  96   0     3  96  58    10  98  48     0  33  48    10  16  16    11   1  18   131  19   1   128   1   0     0  37  11     0  26   1     3   0   8    32 116  72     3 130  44     2   2   2    22  22 114    39 135   0    34 134   2     9  99  18    14  96  18    24  16  11    10 128 105     1   5 104    45   3   4     1  11   0     5   0  10    32   0  33     0  97   3     6   1  23     1   0  18   142  41   1    16   8  12   120   1   4   118  18   7     3  35   0   116  38   0    96   0  11   118   4   2    10   5  41   130  62  40    11 100  32   129  36   8   145 130  72   128   7  78     5 143 134     0 134   6   130 157   5   132  29   1   166  14  65     0 106  66   125  33   0    33  26  22   101  23   2    68  78  78    12   7   3    32  58   9    13  35   3    34  32  22    57   6  33    60   4  32    49  36  39    48   9  21    19   4  18    17   9   0    17  20  18     0  16   5    20   2  28    17  16   7     0   0   2     8   8   2     8   8   0    10  10   0     8   8   0     8   8   8     3   3   1     0   0   8     0   0   0     2   2   0     2   2   8     0   0   4     9   9   5     4   4   0    28  28  24    20  20  20     1   1   1    28  28  28     3   3   3    35  35  35     0   0   0     0   0   0
  0   0   0     0   0   0     0   0   0     0   0   0     0   0   0    33  33  33     2   2   2    15  15  15    10  10  10    16  16  16    24  24  24     9   9   9    24  24  24    28  28  28     6   6   6     5   5   5     2   2   2     0   0   0     0   0   0     0   0   0     1   1   1     0   0   0     0   0   0     2   2   2     0   0   0     8   8   8    11  11  11     5   5   5     0   0   0     4   4   4     5   5   7     2   2   0     9   9   5     2   8   8     1   4   1     4   4   0     1   0  24    37  36  16    40  40  24    32  41  50   122 111  98    49  46   1    16   2  32     1   4  53     3  96  32   130   0   2   133   1  24   105  98  44   125  66  76   141 164 153    49   1  28    60   3 137    18   1 108     8  13  24     6  97  56     1  17  38     1   0   8     7   7   3     5   5   6   130  36  64   126   0   4     7  24  69    60  72   5    82   0   4    86  16   4    16  52   2    24 105  78    16  66  76    72  98  12    16  24   6     1  32   6    40  46   2     8  19  32     0  35  45     0  49  33     4  22   8     0  24  48    81   0  32    17  50  48   130  67 113     5 107 117   128  64  66   164  21  70   168  51   4   140  23  39    60  18 100    18  16  38    34 129 102    36 128   8    10   8   1     0   4   0     2   1   4     9  16 128    11 128  96    48   8  20     0  16   4     1   0   4     1  30  10     0  41   8     9   0  16    25  10   0    21  16  32    17  22   8    52 120  12    44 129   0     2 141  27     0   0  16     0  96  12     1   2   0     0  20   0     0  24   1     2  10  40     3 136  96     3   0  64     2   0  66     8  80   1     6  88  50     5  49  32     3  16  42     1   1  24     2 107   8    32   2  41    41   2  96     1  16   0    59  17 130    37 135  82    23  23  34     5   5   2    28  26  17    20  16  16     8   0  48    37 141  48     9  15  98     3  13 112     9   9  96     5 129   0    32  25   0     0   5  33     4  16  22     4   0  28    12  32   4     9  24   0   124  11   4     8  10   2     1   5   1   116  34   5    22  32   1   116   3   1     4  50  33   130  22  36     0 112   5   128 100  33    16 140   0    16   6   9     8   2   0     0   1 128    28   8 135    16  13 135    32 129 128     2 139   5   140   8  64    32  82   2    13   6   0    74  68  74    10  18  10     8   6   0    16  34   0    10  32  10    29  32   0    13   4  31    16  12   3    52  45  20    17  25   4     5   0   0    10  10   2     0   0   0     2   0   0    12   0   2     4   4   4     0   0   4    10  10   4     2   2   0     2   2   0     1   1   1     9   9   3     9   9   9     8   8   8     4   4   0     2   2  12     0   0   0     0   0   2    24  24  16     8   8   8    16  16  16    28  28  28    24  24  24     6   6   6    10  10  10    34  34  34    32  32  32
 32  32  32    32  32  32     1   1   1     0   0   0     1   1   1     1   1   1    35  35  35    32  32  32     0   0   0    40  40  40    24  24  24    24  24  24    28  28  28     4   4   4    26  26  26     3   3   3     0   0   0     0   0   0     0   0   0     0   0   0     3   3   3     2   2   2     2   2   2     0   0   0     0   0   0     0   0   0     1   1   1     5   5   5     9   9   9     8   8   8     8   8   8     1   1   1     8   9   0     1   9   9     2  24   8    30  27   0    13  15  25    61  56   8    44  42  36    32   1  48    34  69  64    50   4  56     0   4  16     1   6  24   100  96  37   128  28   3   130  81  51     0 116  41    33  16   8   160 132 145     8  33  25    37   2 144     0   9  28     8 136   4     0 104  46    18   0   2     6   1  26    15   1   0     2   4  12   129  34   4   122  18   0    14  24  68    35  72   1    10  28  32    24  32   2    92  40   0    76  65  18    92  56  33    72   8  32   128 120  71   129 126  66     0  50  33    64  49  34    64  35  32     4  49  46    64  50  37    64   8  44     0  16  33    16  20  40   141  85  16    21 112 104    38  98  40     4  15  34     0  14  96    12 133   5    56 149  32     8   1  36    18  25  70    28  25 128    12   8   0     0   1   0     1   0   0     0  21 130    19 136 102    51  96  38     1  34   4     0  18   4     0   0   4     0  24   1     4  42  17    21   5  24    21  20   0     8  28  36    24  12   2    32   6   1     2 132   0     8   0   1    33 102   8     0  27   0     0 113  34    33 120   6    35 132  62    18   4   6     0   0   6    17 128  18    32 128  98     7   0 100     1   0 101     1 105 102    33   1  67    36   0 104     1 152  48     1 128 104     9 153   0    27 144  34    52 149   8    23  21   2     7  67   0     1  51  16     0  96  16    24  16   0    32   6  96    41  13 100    32   8  96     1   1   8     3 133   8    40   1   0     2  20  40     5   0  22    12   0   6     6   3   5   142  11   7   116  19   6    18  16  67    98  18  65   100   0  65   112  18   1    20  16   0   156  80  33   146  99  32     3  96   4   130  97  44    16 128  97     4 128   5     4 130 135     0 130  14     4 128 128     1 136 130    33 138 130     3 141   1     0   1  80    32  72   2   101  28   0    65  83  72    10  21  12     1   2  28    16   8  16    10  38  17     9  32  19     4   2  27     0   5  21    33   0  20    43   8  16    19  16  16     5  10  16     9  12   4     0   4   4     4   4   4     0   0   4     5   5   3     4   4   0    12  12   0     8   8   0    14  14   0     0   0   0     0   0   8     2   2  12     0   0   0     0   0  12     8   8   4    11  11   1    24  24  18     2   2   0    24  24  24    24  24  24    21  21  21     2   2   2    10  10  10    10  10  10    42  42  42
 14  14  14    32  32  32    33  33  33     0   0   0     0   0   0     1   1   1     1   1   1     0   0   0     1   1   1     0   0   0    28  28  28    24  24  24    32  32  32    32  32  32    25  25  25     0   0   0     0   0   0     0   0   0     0   0   0     3   3   3     1   1   1     5   5   5     5   5   5     0   0   0     8   8   8    16  16  16    19  19  19    21  21  21     9   9   9     1   1   1     1   1   1     8   8   8    10  10   8     8   8   8    27  27  25    26  27  26    36  39  32    32  34  50    36  32  36     0  32   4     2   0  14     3  38  27    34  32   8    56  44  16    99  32  32     0  24  18     0  33  54   128 100 115     0   4  16    32  30  17     4  24   4     4   4   0    34   5  12     8 145 104     2 105  62    16   0   0     2  20  16    17   4   8     6   2   4   140  32   4   120  16   0    14  28  68    37  89   4    49  13   0    15  64  38   108  81   5    26  72  52    24  99   9   132 107  68     4 102  72    16 124  71   144  82 105    84  97  64     4  33  44     4  33  11     4  48   9    76  26   6     4  18  32   132   7   1    16   7  42     7  15 106    36  96   0     6 137   0    22   5 112    14   0   0    36 129  64    62 145  98     2   1  74     6   4   2     8   0 128    10   4   1    56   0   0    48  24   1     3 136 102    48  97  38     0  32   2     0  18   1   128   0   5   129   9   0     9   3   2     4  38  28    21   3  16    20  28  32     4   2   1     8 116   3    42   4   1     1   3   0     0 114   0    33   3   2    32   0  34    32 122   2    32  18  60    36 148 104    33 148 100    18   4  97    18   4   1    16   0  16     2 137   5    34 153   5    44 152  35    32 130   9    10 130  36    36 128  40    12  32  64    14  40  65    30  20  27     6  10  51     1  97   2     0  26   0     0  80   1    52 144  49    21  21   0     0  30 112     1  13   4    33   5 100     0 133   8    10 114   0     3  96  32    11   0   2    10   0  18     7   0  10   140  35   3   112  19   6    18  16   1     6   2  64    12  18   0     4  18   2   105  66   0   129  66  35    25   6  16   131  96  34   130 100  43   130  64   3     2  81  33     0   0  98   128 100  87   172  80  66   173  64  82   129   9  64     3  37  66     2 108   0   129  97  34     3  21   1   112   4  80    26   1  20     0   3  28     2   2  13     0   2   1     2   8  17     0  36  15     0  37  13     8  32  22    41  40  20    20  16  16    18  24   2    10  10   0     2   2  20     0   1   0     6   6   4     4   4   0     6   6   0     2   2   8     0   0  10     1   1   3     0   0   4    10  10   0     8   8   8     2   2   8     3   3  13     0   0   4     2   2   4    26  26  24    18  18  16    18  18  18    24  24  24    32  32  32    32  32  32    32  32  32    26  26  26     4   4   4
 14  14  14     0   0   0    33  33  33     0   0   0     0   0   0     3   3   3     5   5   5     1   1   1    33  33  33    24  24  24     0   0   0    24  24  24    32  32  32    32  32  32     2   2   2     0   0   0     1   1   1     0   0   0     3   3   3     1   1   1     0   0   0     0   0   0     0   0   0     8   8   8    28  28  28    16  16  16    36  36  36    17  17  17    24  24  24     0   0   0     4   4   4     0   0   0     0   0   0    21  21  17     0   0   0    38  39  32    33  35  33     0  32  22    32  40  22     9  18  18    33  16  16    99  34  11    85  66  65    65   8  34    96   8  49     0  17   6    80  50  36    16  20   1   144 144 136     4  20  17     4  22  17     4  26  20    32   8 152     9 153 104     8 113   9     5  12  32    10  16  25     2   2  24     0   0  24   141   3   4   123  25   0     2   9   0    45  17  68   125   0  68    25   8  20   115   0   0    32  73  36   132  11   0    20  32 106    20  99   7    20 127  30    16  88  49   148  16 120    32   1 120    33   1  16    36   1  12     0   0   5   132  16 105     0  82   6     0  68  96    28  98  40    14 108   8    40   9   9     6 129 104     2   1 113    35 145  80    12   2  32    55 144  27    17  18 129     1   0   0    50   0   3     0   4   1    50   8 131    32 130 102    34 101  43     0  35   1   144  16   0   128  10   5     0   0   4   129  23   4     5  37   4    16   6   0    17  31  32     0   6   0    40 116   1    40   4   1     2 112   0     0 118   8     9   9   2    24   2  32    26   1   6    16   4  40     1   4   0     0   5   0    14   0   2    10   4  96    39 148  68     0 156  64     0 128  65     0   8  69     6 128  65    14  80  16     6   0   1     2  96  17    28 102  40    10 100  41     8  66  33     0  72  33     8  48  32    16  18  48    21 145  48    20  20 104    33  31   0    33   3   2    33 157 102     2   3   0    26 116  41     4  99  13     9   0   0   132  34   4   128  33   3    12  24   4   118  19   6    20  16  65     6   2  64    26  24  72     0   2   2   104  64   2   129   2  35    16 128  18   144  96  38   128  80   0     2   1  32   128  49  41   136   0   2   136  44   3   110  28  17     4  29  19     5  36   3   131  99  34     3  99  32   133  21  32     5  49   4   101   1  76     0  25   3    32   2   5    32  22   0    40  16   1    33  24  16     0  27   3    32   5   4    34  40  16    44  44  16    22  21  16    20  26   1     4   3   0     0   6  16     0   0   0     0   0   0     3   3   1     0   0   8     0   0   8     0   0   2     0   0   2     0   0   2     0   0   4     0   0   6     0   0   8     2   2   8     8   8   0    14  14   4    24  24  24    26  26  24     8   8   8    32  32  32    32  32  32     0   0   0    32  32  32     2   2   2    14  14  14
  8   8   8    32  32  32     0   0   0     1   1   1     0   0   0     4   4   4     0   0   0    37  37  37     4   4   4    24  24  24    24  24  24     0   0   0     2   2   2    24  24  24    26  26  26     1   1   1     0   0   0     1   1   1     3   3   3     5   5   5     0   0   0     1   1   1     2   2   2    10  10  10     4   4   4    38  38  38     1   1   1    43  43  43    26  26  26     4   4   4     4   4   4     9   9  13    23  23  21    32  32  32    39  39  33    38  38  32    32  32  32     0  32  34     0   4  10     9  40  26    40  32  10    48  48  19   113 112  83    21 104  83     4  32  45    96  16  12   115 114 108   129   2   8    21  16   0     3  30  16    39  22  16     5  19   0    40   1 128    27 161 120    24 120   9    15  28  32    15  20   3     8  12   0     0   0  19   142   1   6   141   9   6   115  25   2    13  29   4     8   0  72   131   4  76   129   5  72   130   1  80     0  14  72     4   5  20    32   2  85     0 122 110    52 137  96    48 129  32   140 133  82   140  69   9   172  21   8   164  20   5     0  81  65     4  69  65     0  15  32    16  30  34    24  98  35     8  24  97     0   8 105     2 137  25     6  18  32     3 130  75     5 128   9    21  16 129    48   0 129     2  16   1     0  24   8    64  13 154    32 145 102    32 102  33     0  43  13   144  27  13     9   0   0   121   0   0   136  16   0     0  32   4    24   0   4     0   0  24     4  20  32    16   8  40     0  30  40    32 124   9     0 124   0    40 115   2    40 112  41    20 113   2    32  20  40    41 118   1     0   5   1     3   8   0     0   0   1    50  10   0    48  96  20    18 104  25    12  96   4    10  82   6     2   2   1     6  32   4     4   0  16     4  96  16    16  44  10   184  64 104    28 114  17    32  74  34    36 128  17     1  23  16    18  20  16     8   0   8     1   5   8    50 128  34     0 128  13     6   4  40     4  96  12   149  50   0   134  35   1     0  17   1     2  24   0   120   9   5     8   8   5    26  10  64    20  23  72     6   4   4    96  68   7   129  64  16    25   4 102     0  97  54     3  68  64    98   0   0     3  33  34     1   5   2   140  37  34   110  44  19     8   0  18   134  34  53   132  34  44     7  23   2   136  20  34    16  60  50     1  65   6    48  16  18    48   0  20     1   3   0     1  10   0    33  10  16    34   8   1    32  20   1    28  21  17    23  28  16    23  16  16    18   8  17     9   8   5     0   0  19     1   1   3     0   0   2     0   0   0    16  16   8    27  27  13     0   0  10     0   0  14     0   0   4    10  10   4    10  10   8     6   6   8     5   5   3     6   6   0    26  26  24    18  18  16     8   8   8     1   1   1    33  33  33     0   0   0     0   0   0     4   4   4    36  36  36    18  18  18
  2   2   0     0   0   0     2   2   2     3   3   3     2   2   2     1   1   1     0   0   0    36  36  36     0   0   0    25  25  25     4   4   4     1   1   1     0   0   0    26  26  26     2   2   2     0   0   0     0   0   0     1   1   1     3   3   3     4   4   4     0   0   0     2   2   2    30  30  30    16  16  16     4   4   4    36  36  36     1   1   1     9   9   9    25  25  25     4   4   4     7   7   7     9   9  11     8   8  12    38  38  32    39  39  35     2   2   0     1   1  35     0  38  32     5  37   9    45  28   8    45  44   0    41  40  32    68  64  96    33  64  69     0   0  32    64  49   4     2  97  76   135 128   9    22  20   5     5   2   1     7   4   4     3   3   8    18  11 136    24 171 120    18   0   0    12  12  32     4  12  20     8  11  12     2   6  27     8  36   0   130  17   2   162  17   0   139  41   2   128   8  12   129  34  84   128   6  76     2  75   8    32   5  64    48   3  64    32   0   0    24   0  70     0  88  20     0   8   1    37  13  66     3   1  19     4  85  88    52  93  68     6  45  32    32  23   1     4  60  33     8  14   0     8 120  32    34 113   1    13 128   0    14 144  96    52  18  34     5  40  32    17 128  73    37  28 137     4  21   9    64   1   0     4  32   0    66   1 128    36 168 108    48 101  50     0  18  13     0  58  12   136  16   0   132   1   4   129  18   0     1  32   4    17   0  16     1   8  16     1   1  16    25   4  16     1   4   8    34  24  40     6   0   1     6 117   0    37 110  42    12   1  33    32 102   1    28 122  32     0 112  34     0  96  44    32 105  34     9  56   4   150  44   6   129  52   0   150  54   1    30  18  89    14  48  17   131  33  68    16   4   5    16  96  24    12  74   8    40   8   2   144  18  83    37 145 112     0   0   8     0   0  28     2   2   0     1   3  10    13   5   0    37 129   2    40   0   0     2   0  12     7   2   4   130  33  13   126  17   1     0   1   1     0   5   1     9   8   2    12  10   1    28   8  68    14  19   1    28  16  68    52  83   4   144  37   5    32   0   1     1 117  68   163 129   4    18 100  32     9  45  50    51 109  32   137  41  48   152   0  44   152   5  51   136   1  59   140  98  37   132  20  38   117  36   4    17  56  98    21  40   6    21   9   2    16  11  20    32   1  10     1  16  16    32   8  16     0   0   2    25   2   2     3   2   0    14   0   0     6   0   1     4   0   0     5   8   4     4   6   4     5   5   3     8   8   0     8   8  10     0   0   2     0   0   0     1   1   3     1   1   1     1   1   9     1   1  13     0   0  10     2   2   8     0   0   0     4   4  12    24  24  16     4   4   0    10  10   8     0   0   0     3   3   1    36  36  36     7   7   7     0   0   0    38  38  38    36  36  36
 22  32  18    33   1  32    34   0   0     3   3   2     0   0   2     0   2   0     4   0   0    32  32  32    32   0   0     0  32   0    32  32  33    25   5  31    26  28  26     0   2   3     3   1   0     3   3   0     3   1   0     3   1   2     3   5   1     2   4   5     4   0   5    28  30  30    34  40  32    32  44  32    34  40  34    32  44  32    34  32  35     0   2   0     2   0   0    10   8  13    28  30  29     0   2   0    46  46  46     2   2   0    32  32  42    32  32  32     0   0  24    36  36  32    33  32  40    24  28  10    12  12  10     9  12   0    77  64  72    68  64  32     5   0   0    68  32  34    97  96  78   131 130  74     1   2   9     6   2 155    22   3  10     0  34   0    16  17 152     2 138  16    16 115   0     4 109  40     2  24   5     5   2  15     8   2  22     4  96   1     1   0  32     0 105  20     5  16  12     0   3  20    11   0  18     2  66  16     0  65   1    32   3  73     0  66  17     2 106  80    17 106  64     1 102  81     0 104  81     0  97  18     2  33   0     0  22   3    34  89  34    36  64  34    40  68  32     0  98  44    13 106  36    13 136  49     1 128  97    25   6 116    40 136  54     5 100   2    24 106  96    16 129 128    38  25   0     0   8   8    76  34  28     0   1  17    68  32 150     5 141   6    32 100  32     0  15   1     0  34   0     8   0   0     0  16   2     1  16   0     1   0   4     0   0  16    20   8   0    17  12   3    22   0  10     4   8  18     4   8  40    33 116   0     0   4  16     5 128   2     4 130  10    32  27  96    40  12  49     0 114   0     0  26  36     2  17   7    10   8   1    11  25   0    13  25  18    12   9  17   129   0  40    22  80  37   179  81 124     5 113   6    21   1   8    37   1  32    44 144 122    14 128   2     8   0  46     6   0   4    16   8  30     0   0  24     0   2  16     8   6   8    32 130   0    32 118   8    16  10  40     4  48   4     4   1  12   120  19   5     2   8   5     3   8   4    11   8   4     0   8   0    26  18  68    18  12  64    98  21 100     0  86  64   134  97   4    33  19 128     2   8   6     1  31  96   158 111  96     9 103  18   130 132  84     0 153  98     6 149 121    17 133  41   152  69  57    16  69  30     7  36  12   117  36  24    99  32  90    34  65   4    49  24  18    16  57  20    10  16   0     1  11   0    33  18  18     1   2   0    11  10   1    11   8   1     5  10   0     7   8   0     0   0   5     0   0   5     1   3   5     1   1   4    11   1   0     8   0   8    16  24  10     1   1  24    25  29  27     0   2   1     3   5   0     2   2   0     3   1   1     4   2   0     1   7   0     3   5   2     1   5   2    24  28  12    25  24   4     0   0  24    35  35  25     2   2   4     2   2  32     0   0  32    36  32  22    36   0   6
 28   0  27     2   2  34     2   0  32     1   1   0     1   1   2     1   1   2     0   2   0     0   2   0    32   2   0    32  32  34    33  37  36    31  25  30     2   4   2     1   3   0     1   3   0     0   0   0     0   6   3     0   6   0     3   5   0     2   4   1    24  28  29     2  36   3     0   0   2    36  32  38     6   8   6    36  44  38    36  40  36    17  17  16     0  10   6    18  20  20    30   6  26    34  32  32    40  42  40    40  40  42    40  40  12    32  32  12     1   1  37     6   6   4    51  49  49    51  48   4    13  13   1    79  76  74    12   8   0     0   4   0     4   6   4    70  84  80   132   4   0   133 128  99     4   6   9   144   2 136    13  17   0     8   9  16    30   1 164    16  11  16     1  10  24    16  96  41    18  20  42     0  18  23    17   6  29    16   2  16    32 112   8     0  11  32     2  96  40     3   3  16     5  98  16    36   1  81     6 131  16    32  14  88    16 105  60    16  14  32    24   0  16    18  16  17    17   8  17    18   5   0    19  35  19     3  70  35    34  13   1     3 131   1    16  10   8     0 128  14    36   2   0     9 129   0    12   2  24     9   3   0    48 134  42    16 102   4    22 104  74     0 128   0    14   8   2     3  41  25     0   9  20     9   3  16    69  37  22     1 132   8    16 100 100     8  12  33     8   3   4     8  34  16     0  25   8     0  24   0     0  10  18     2  32   0     2   0   0     6   9  11     7  10  26     5   0   0    33  21  40    32 112   8     6   8   0     0   0   1    18   7  18    48   7  99    48 141  49    49   3   4    10   0  69    10  84  68    26  84  64   169  67   4   129  67   0   128  80  66   132  16 122   160  18  76    36 128  37    35 145  39    36 128  32    21   9   8    23   1  10     1  24  10    10  24  14     0   0  12     6   8  28    10   2  14     0   2  12     8   2  14    40   0   0     4 112   0     8  34   0   132  33 108   112   1   4     8   0  64     3   0   4     1   0   4    10   2   2    24  20   2     1  16   0     0   9  68   104  25   4   136  89   8    13  21   0    33 144 132    26  16   7     0 130  64   136 130  79   128  98  52   162 149  90     1  16 146    32  16 146    18   4  77    16 131  51   128 104  40    32   4   4    33  77  72    64  65  72    98   8   0    19   1   0     8  10  20    50  11   0    32  16   0     1  16  18    16   0   3     3   2   3    11   2   1     8   0   5     8   4   8     4   0   1     0   8   1     4  10   0     2   8   1     2   0   4     2   0   0    14  24   9     0   4   0     1   1  11     1   1   8     1   5  11     6  24   4     4   0   5     4  26   0     1   7   0     0   4  10     0   4  14    29  29  14    24   7  24    36  38   0    32  33  16    34  32  32     0   2  20     0   0  14     0  36  24    20   6  30
  3  32   7    30   0   2     2   0  34     0   2   2     0   2   3     0   2   3     0   2   1     0   2   1    32   2   0     0  34  34    27   1  28     2   0   4     2   4   2     1   3   0     1   3   0     0   0   0     0   0   3     0   2   6     3   1   4     2  28   1     2   0   0    32   0  39     0   0   2    34  36  35     4   8   2    38  36  39    34  32  34    18  16  16     0  28   2     2   0   7    38   4  36     4   6   7     0   0   1    34  34  34    40  40  40    12  12  12     0   0   0    48  48  48    32  32  34     5   5   5    21  21  29    74  73  75    68  68  64    70  68  66    68  68  64    29  28  26     0   0   2    68  48  66   132   0 128   129 129 130    25  24   2     2  24  16    18  10 132    16   1  16    17   4  96     0 100  32    20  22  43    16  22   3     0   0  29     4  98  29     0   1  56    49   3  56     5   1  44     6 101  16     3 103   3    33   6  65     0   2   2    16 144  72    34 139  58    16 104  48    16  96  17    18 108  40    18 100  11    18  97   0    32   5   2    34 147  16     0   0  15    18   4   5     0   6   8    56 128  44    36 128  32     0   0  16     5   0  26    16   0   6    32   4  36     0  96  56     0  98  88    24  40  16    35  16  16    74  40   0    12  10   4     9   1   6    65  12   4     0 166  23    12  97 101     8   5  33     0  41  16    14   3   0   138  17   2   134   8   0     4  24   0     0  40  16    18   0  16     4  24   2    17  24   2    16  17  34     8   3   0    33 112   1     0 112   0     4 128   1    24   9  30    20   1 116     0   6   0    16  18   0     0 148   0    56 150 131    48 144  64    56 130  83    32 130   3    32 138   4    34 144  58     6   0  25    16   0  14    18   0  15    19   1  16    17   1  16    23   1  12    25   1   8    23   4   8     6   5  28    12   4   9     8   2   0    12 134   8     4   6   0     0  98  32    16  24   2   146  56   0    48   0  98    10   0   7     8   1  64     2   0   0     3   8   1    10   7   0    24  19   4     2  16  66     2   3  20   100   8  92    10  88   8     1 144   0     3  18   6     8  18   4     8 130  50     8   2  99     8 138  98     0 151 114     1 148   2     4 137  17     4 130  34   148   1  89   148   0  31   148  73  94    32   9  24    99   1   5    96   1   0    40  17   0    33  26   4    40   8   0     8  18  16    16   2   4     8   3   6    11   4   0     4   2   4     4   0   0     4   0   8     0   1   1     0   9   0     5   1   0     9   9   2     1   1   6     2   4  10     8  28  10    27   1  24    27  25  18     8   0   0     5   7  12     0  30   5     0   0   4     4  30   0     0   6   0     1   5   2     2  28   0    28   5  24    33   2  28     0   2  32     2   0  32     0   1  32     2   3  32     2   0  24    32   0   4    30  32   0
 23  32   1     0   0  35    32   0   3     0   2   0     2   4   1     0   2   0     0   2   3     0   0   2    32   2  32    28   0  30     1  29  28     2   0   6     3   5   2     0   0   0     1   3   0     1   3   2     0   4   0     0   6   2     3   1   2    24  24  24     1  33   0    34   4   3    34   4   0     6  32  34     0  34  32    36  34  34     0   8   2    24  28  24    24  22  24     0  38   3    36   0   5    32   4   0    32   0   4    36  36  36    38  38  38    38  38  38    32  32  32     0   0   0    17  17  17    23  23  23    36  36  36    10  10  10     0   0   0     0   0   0     4   4   4    17  17  17    12   0   8    16  16  16   129 131 128   149 151 144    17   0   0     2   9   1    16   9   4     0   1 117    17 130 108    20  96   8    18  22   0    20  20  40    20   0  10     5   2   6     4 112   4    52 148  37    23  16   8    59 145  40    38   2  10    11   2  32    55 154  98    22 155   8    20 152  96    48 130   0    32  25  22    56 128   3    48   0  39    16 138  55     1 137  58     0   8   2    17  11  21     0   2  25     0   2  12    49 128  32     1   1   8    33 129  36     1   3  16    17 128  20    32   2  36    16   0  24    16   0  16     4  32  16    37 136 147    65  40  16    76  32   0     8  33   0     4   5 166    32 145  19    32 109   0    12   1  36     9   8   0    14  34  16     0  25   0     0   2   8     0   8  26    22  40  18     6   8  26    18  16  34    10   0  32     1   0   0    35   0   1    38   0   4     8 113   8     8   0   9    12 137  10     8   4   4    20   7 123     0   2   4     3   5   0     8   0 128     8  18 123     0   4 123     0   0  14     0  10  15     0   0   6     4   2  12    23   1  14     0   2  16     4 136  24     0 140   0     6   0  16     5   1  24     5   5  24     4   0   8     2   0  11     4 130   8     0   6   1    32 126   8     0  30  36    18  16   0   152  51   6   100  17  66     6   0   0     8   0  68     2   1   4     2   7   0     0   5   2    18   0  70     1   0  18     4   8  78   112   8   8   164  81   0    23 137   8     3   0 130     9   3 118     8 130  87   140 130  48   130 128 118    14   4  16     8   5 106     0  20 122     1   2 106    18  26 120    19 102   0     2   0 104   160  75  78     0  10   2    33   6   0    11   3   0     1   0   0     3   3   0    24   0   4     0   0   4     8   0   5     2   4   2     1   4   4     2   0   4     2   0   0     0   0   1     5   8   0     2   0   0    18   0  17     1  25   6     8  24  11     3  29   4     7  29   0     1  27   8     4   0   3     0   4   9     0   2   1     4   6   4     4   2  13     9   1  10    13   5  10     4  24   6    30   1  24    26  32  24    36  38  32    37  38  33     3   2  33     2   2  32     0   0   6    40  43   4    20   0  28
 30   0  37    31   1  32    34   0   1     2   4   1     0   0   0     2   4   1     0   2   3    32   0  33     0  32  33     0  30  28     4   0   0     2   0   4     1   1   0     1   1   0     1   3   0     1   3   2     0   2   0     2   0   2     3   5   2    27   1   0    34  36  36    34   4   0    34  32  33    24  34  32    24   2   1    28   6   0    24  26  27     0  28   0    26   4  27    32  36  37    32   4   1    36  40  36    12  36  36    12  12  12    36  36  36    32  32  32    40  40  40    32  32  32    57  57  57    35  35  35     4   4   4     0   0   0    32  32  32    33  33  33    12  12  12    45  45  45    12   8  12    32  40  32     0   2   0     4   3 100     0   7 160    16   0 144    50   5   6     2   5  28     3 134  76    29 102   5     2   2  37     6  12  11     2   5   9     2   5  16     2 112  40    54 129  56    23  17   2    25  17 108    49   7   8    33 112  32    38 120  32    46 128  96    22   2   0     8   1  16     0   8  17     8   2   2     1   2  16     8   2   0     1 136  18    32 152  16    20  10  18    16   2   0    32 134  56    32  86  12    32  16  56    32 145  60    20   0  18    20 128   4    32  98  36    16   0  16    16   2   3    34  98  82    17 136 145    52   0  27    72  41   0    72  32  12     8   4 129     8 132 120    34  97  24    12  23   0    16   1  34     1  44   8   138   1   2   129   0   9     7  33  23    22   8  28     4   8  28     8  16  32    10  16  34    30   0   0    10   1   2    36   0   0     0 112   0     0   0   0     8   0   4    20  10  12    17  10  12     1   8   4     8  17 126     4   3   2     4   2   0    12  22   3     4   4 113     2  10 124     5   8  12     3  13   6     5   8  10     0   0  16     8   0  16    10   0  11     0   0   0    15 128   8     6   4   8     1   0   8     4   4  13     4 124   1     2   0   8    32   8  10     0  20   7    16   9   0   152   8   0   112  19   0     0   1   2     8   6   6     8   6   2    11   0   1     0   6  66     3   2   2     2  16   6    18  17  66    70   1  18    24   1  16    53 144 128    23   0  16   140 144  98   144   0  96     1 132  26     9 128 104   139   0  24   128   1  18   136   0  17   136  19  16   128  98  56     6  66 124    18  98 105    66   0  52     0  72  64    48   4   4    26   2   0    10   8   1    26  11  20    26  10   0     1   1   2     8   0   2     8   0   0     0   4   4     1  14   4     0   0   0     0  11   1     4   8   1     0   0  12    20  16  20     4   4   0    24   4   0     5   7   0     5  29   2     0   4   4     2  24   2     0   6   0     1   1   4     5   5   0     9   1   0     0   2   8     1   3   0    13  27   6    24  26   2    30  32  26     0   0   0     0   0   0     1   1   1     1   1   1     0   0   0     1   1  45    30   0   2
 28   0   4    28   0  32    34   0   1     0   0   3     2   4   2     0   2   3     0   2   1     0  34  34    24   0  24     4   0   1     2   0   0     3   1   0     0   0   0     3   5   2     0   2   0     1   3   2     1   1   2     1   3   0    24  26  26    34  32  34    32   4   2     3  37  32    24   4   1     0  24  27    24  26  24    24  24  26     0   0   2     1  27   2    24   2   2    36   2  33    36  36  37     4  36  37    24  28  28     4   4   4    36  36  36     0   0   0    32  32  32    32  32  32    33  33  33     1   1   1    32  32  32    32  32  32     0   0   0    32  32  32     0   0   0    44  44  44    20  20  20    73  65  72    12  10   8    65  78 113   148 146 130     3   4 128    33  22  10     5   0 152     0 147 100     1  99   9     1   4  33    13  12  23     5   0   8    12   8  19     2   4  43     6 148  32    20  20  26    21  17 106    48 146   0     1  50 106    22 114   2    22 114  32     5   1   4    57 145   4    16 128  18     9 137   4     8 129  12     8  12   0     4 152   6     0 138   4     4 138  48    32   0   0    16  68   8     4  84  16    24  20   8    16 147 112     2   4   4    21 146  96    37  97  36    21   3   8    16   2   4    36   2  75    16 150 132    49   0  12    64  36   4    68  40  13    32   0 132     0 128 121    32  99  30    28  24   0    12   1   0     8   4  10     1  35   0    12  32  16     0  32  28     6  40  26    23  56  13    24  40   8    24  32   5    24  17  13     0  20  37    34  16   0     0   0   0     0  12   4    13 132  29    28  10  16    28   3  12     5   1  12     1  16   2     4  16 126     8  16 122     8  18   0     1   6 112     5   4   4     5   0  10     0   0   2    16   0  10     0  12   2     1 128  16     5 128   0     2 130  10     3 113  10     1 118   0     5 120   2     4 120   0    32   0   1    38   4   5    18  12  40    13  17   5    13  49   5     5   3   1   112   1   0   112   1   0     8   7   0   112   4   0     9   0   3     3   4  64     1   4   2    17   0  12    18  16  64    86  75  64   174  41  88    30  17 140   176 129  68     0  18 102     4  18  64     1  26  22   129 128  82   143   0  40     0  80  32    90  80  40     0  80  14   108  14   4    84   8  16    72  50  18     0   0  80     0  20  16     2  15   8    16   1   8    24   2   0     9   0   0    11   8   1     1   3   0     8   0   2     0   1   0     2   4   4     3   0   4     4   0   0     0  10   1     2   0   0     0   0   8    16  26   2     4   6  11    24  26  11     0   6   9     4  24   4     0   2   2     0  30   6     0  30   1     4  30   1     0  26   4     8   0  15     4   0   8    11   1  12    27   1   8     5   5  24    10  32  28    10  10   8    38  38  40    10  10   8     3   3   1    12  12   8    12  12   8    34   0  40
 30   0   8     6  32  28    30   0  32     0   0   0    32   0   1    34   0   2     2   0  33    24  34  26     0  24  25     0   0   5     3   1   0     0   0   0     1   1   4     2   4   2     0   2   3     0   0   0     0   2   1    24  24  24    30  32  32    32   4   0    34   4   0     0   2   4     4  30  25     4   4   6     1   1   2     0   2   2     0   2   0     0   0  27     0  32   3    34   0   1     0  32  33     6   0  33     4   4   4    21  21  21    25  25  25    32  32  32    32  32  32    32  32  32     0   0   0     4   4   4    32  32  32     0   0   0     0   0   0     1   1   1    40  40  40    32  32  32    52  52  52     4   8   4    72  74  72   100 106  24    93  80 112   191 148  48     0  19   0    18   0 136     6 148   0     1  96  43   130   1  10   129  13   8    11   0  22     0  96  32    36 119   9     2 129   8     2   0  26    33   2 104    16   5  98    16 130   3    50  16  35    26 114   7    19 113   0     1 115  48    17   2  50    40 114  48    41   6  48    34 114  34     0 122   6     0  14  32    32  64  34     0 100   8     0  84  24    32  84  24    44 128  56    24  18  96    14   4   0     0 144  96    49  96  32    17   0  42     4  97  12    44   9   6     0  16 134    49   1  10    65  33  14    64  32   4     0   4 137     0 152  16    40 114  28    38  10  10    20  19   2    24   4  32     8   2  16     0   2   9   137  32  20   144   8  66   129   0  81   130   9  13   128  17   4   144   4   5     2  37   7     0  55   4    32  68  39    16 132  20    16   0   4    21   4   0     4   2   1     4  14   0     1  18 120     3   2 128     5   0 128     5   0 130     7  16 128    10   4 126     5   6  12     7   4   2     3   0  10    21  12   0     3   0  18    13 134   0    35   2   8    35 112   8     0   8   0     5   2   4    36  12  35     0  10  33    26   8  36    17   1  24     1   9  19   153  57   1     0  27   2   124   1   4     5  16   3     0   2   2   116  16   0     9   2   3     4   4   0     0   2   0     0  17   2   119  33   4    30  66  68   190 128   4    50  17   0   152 128  84    28 128  68   148  20  70   136 126   2    41  92  80    98  48  33    64  32   8    64   0  34     8   1  32   104  18  22    84  32  30   100  18  14     2  16  68    66  19  16     2   4   0    34  13   1    14   2   3     0  30  19    20  16   4     9   0   6     1   0   5     0   0   2     9   3   4     9   9   4     7  11   0     8   2   1     8   0   4     0   2   8     8   2  10     0   6   2     9   3   2     0   2   2     1  25   4     3  25   4     0  24   0     9  27   0     0   0   0     4   2   4     0  24   0     4   2   0     1   7   2    28  28   0    17  37   2    34  44   0    40  40  32    10   8  10     8   8   8    14   4   0    15   7   0     0  14  12    44  38  40
 16  26  16     5  29   6     6  32  28    30   0   2    30   0  33    28   0   3    28  32   0     0  26  26     2  24   2     3   5   0     1   1   4     0   0   0     1   1   4     2   4   2     0   2   2     0   0   0     0  24  24     8   8   8    32   2   1     0   0   0     4  36  35    28   4   1     4  30  25     0   6   0     0   2   2     0   2   2     1  25   0    24   0   3    32   0  35    32   2   1     0   0  32    32  32   0    16   4  16     0   0   0     1   1   1    32  32  32    32  32  32    32  32  32    32  32  32    33  33  33    32  32  32     0   0   0    16  16  16     4   4   4    48  48  48    40  40  40    36  36  36    28   8   0     0  64  64    45  88  82    12   8   2    48  12  16   154 152 129    19  16   8     1 132   0   135 100  65   135   4  24     5   4   2   145   4  18     9 100  19     8 103   9     4   0   9     6   0   4    38   0 103    20   0 104    52  25   2    42 145  98    14  17   2    29 116   2    29   3   6    24  18  38    11  19   4     8   6  13     8  25   7    44  56  36    32  24   4    36  24   4     0   0  10    21  64   0    20 130  18    60  22 114    30  22   0    26  22 116     4  18   0    32  96  56    16   0   1     4 101  78    44 141   6     8   1   4     0   5  10    68  40  18     4   0  24    64   1   1    36 147  35    32 137 112    36 114  12    20 113   4     0   0  40     0   0  16   132  38  18   137   1  73   115   9  65   114  25  76     0  24  73   128  17   5     8   5   1   152   4  68   128   6 115   165   7  67    33  70  36     4 132  16    20   4   0    16  11   8     4  10   8     1   8   0     9   4 120     3  18 128     3   2 128     0  22 128     5   0 126     0   2   0     1   4   0     4   4   0    22  12  10     2   8  22    15 132   2     1 116  10     1   4   2    32   5  33     1   0  34    16   8   2     2  24  17     8  16  21     3   1  20    12   0  24   153  32   7    13  24   1     9  24   5   130   4   2   137   4   3   117  16   1     1   6   3     3   0   0   114  25   0     4   3   0    20  50   0     2  82  72    36 149   8     8  25  12     5 129 121    17 129  56     0   8   2   128  96 100    36   0   5    34  28  17    32   0  16     8  17   0     4  54  18     0  51  18    32  36   6   100   2  17    34  22  16    34  85  81   102   0   0    38  20  16     4   2   0     4   3   1    12  18   0     0   8   1     1   0   5     0   0   0     9   1   5     9   3   0    10   1   8     8   2   1     0   0   0     0   6   4     4   4   2     5   5   0     9   7  10    25  27  16    28  28  24     8  20  12     1  29   0    12  16  15     3   1   4     2   0   4     4   4   0     4   6   3     4   0   2     0  24  11    10  44   9    32   8  39     0   0   7    10   0   0    10  12  10     6   8   8    14   4   8    42  14  36    22   2  18
  0  30  24     2  28   6     0   0  29     2  32  28     0  32  28     2   0  28     2   0   2     4  26   6     1   1   0     2   4   1     3   1   4     3   1   4     1   5   0     0   0   0     0   2   1     1   1   2    24   0   0     9  33  32    36  34  38     9  39  36    26  16  29     0  30  25     8   6   1     5   1   0     8   0   2     0   4   2     0  26   3     4  26   6    32  32  33    32   2   1    32   2   0    32   2  34    36   2  39    25  25  25    13  13  13     2   2   2     0   0   0     4   4   4     0   0   0     4   4   4    28  28  28     0   0   0     5   5   5    28  28  28     0   0   0    24  24  24    20  20  20    32   8   8    88  72  72    20  66  64    21   4   8    73  92  84    20   9  24    16   5   8    18 148 137   182 100  64   116   4  26     6   1   2    27   0   0   153   0  17     0  96  36    38   3  12     4 129   9     0   0   2     6   8  98    22  16   0     0  16  96    22   0  98    35  16  10    18 112  42    16   4  34     6   0  11    11   4  11    13   0   5    11   0  17     0   8   0    37  56  37     0  72   2     0 152  49     0   8  81     4  20 115    52   0 118    24   4  20     4 132  21    36  96  57    30   0   2    12 100  79    41 128   3     8   0   4    48   8  15    64  40  20     4   0   7    64  32   4    33   1 137    18 147   0     0 131  16    32 114  98    24 114   1     8   0  21   136  50   8   105   7  67     8   1   2     3   3  28   112   1  84    24  16   0   133   0  20     7  19   4   128   2  80   137   2  80   128   0  81    32  70  48    48 128  54    20   8   8     4   2   0     4   6 112     8  22 132    15   4   0     8  20   6     9  16 122     6   0   1     7  10 120     0   2   8     1   0  24    16 128  25     4 140  11     7 120   8    37 112  36     5   0  32     0  16   7     5  20   0    28   0  23    20   2   9    16   0   1     8   0   2     0   0   2   132  40   0     0   0   8   138   8   2     2  33  16   129  36  19     1  16   3     1   4   1    11   0   1   122  24   7     0  17   7   144  33   1   144  16  70     8 148  96     0   0 104    11   4 120     1   0 124     0 128 116    10  68  32    72  40  49    34  40   3    96  50  17    96  32   2    64  33   0     0  35   0     4   0  40    99  66  16    97  32  24    38  16   0    52   6   0    68  84  80    36   6   9    10  60  23    16   0   0    20   0  16    12  24   0     1   0   4     8  11   4     9   8   5    11   2   1     2   2   0     0   0  10     0   0   4     1   5   0     0   6   0     0   2   0     1   3   0     2   0   0    20   0  20     4   0   8    14  16  12     2  24   4     0   0   1     7   1   0     6  24   1     1   7   0     0   0   3    28  16  16    34  36  35     2   4   9    10   8   9    40   0  40    41   1  32    13   1   2     5  33  38    28  36  31
 24  32   0    24   0   4    30  36  27    28  32   5    28   0  31    24  34  28    29   5  30    24  26  25     0   6   1     0   2   1     0   0   3     0   4   0     0   4   0     0   2   1     0   2   1    25  27  26     1   1   0    32  32  32    32  42  32    18  20  28     0  20  27     2   4   2    10   0   1     1   1   0     8   2   0     1   7   2     0   6   4    29  27  30     0  34   0     0  32   7    32   2  34    34   0  34     0  38   2     4   4   4    29  29  29    16  16  16    24  24  24    28  28  28     6   6   6    25  25  25    24  24  24    16  16  16    11  11  11    17  17  17    20  20  20    12  12  12    60  60  60    40  44  44    40  16  17    29  66  64    17   1   2    32  12   9    64  80  65   144 148 131     0 128  13   165  38  68   133   4  25   113   0   8   137   1   9   152   2  21     0   1  44    32   0   4     4 128   9     4   0   0     8   0  10    28  16  96     2  16  10     3  16 120    24 144  16    32 130  24    36 107  56    18 107  21     1 109  23     1  72   3    20  72  20    49  64  53    37   0  33    32 128  21     0   0  20     0  18 114    48  22 113    52   7 118     4 133  19     0  99   5    49  32  33    16   6   0     9  68  24    38 132   2    25   0 137     1   0  15    65  32  15     0   0  10    64   0   1    50  16   3    20   0 134     4   0 116    32   2  96     0 114   4     5  17  46   139  35  15   106   2  81     0   0  13   112   1  92   152   2   0    23  42   9    21  44  22   140  11  88   121   9   1   105   3  33    96   3  50     4   3 114   128  67  32    36   0  32    32 133  18     0   4  19     0   1   4     8   0   1    16   0 112    10   0 114     4   0 112     5  14 120     4   3   2    17  12  26    16   0  10     9 140  10     5   0  10    32 108  33    33   4   2     0   4   0    25  20   8    20   5   2    12   4  22    11   1   0     2   0  19     0  36  10   133  16   3   132   0   0   129   0   5     0   8  18     8  40  18   129   0   3   121   6   1     9   4   1     9  14   4     1  16   4    16  25   2   176   1   0    16 146 108     0 129  96    11   5 100     0 128   0     8  20 116   136  88  32   100  17  16     6  16   1    96  56   1    36   0   0    20   1   0    16 101  24    21   4  16   103  64   0     3   6  16   100  80   9    72  66   8   122  81  65     4   0   9    48  40  32    36   0  34     5  16   3     8  25   6    12  10   0     3   0   6     4   2   8    25   3   0     0   1   4    24   5  12     0   8  12     0   0   0     4   4   4     0   6   0    25  27  24    25   3  24    24   0  24     6   0   1     8   8   1    10   0   8     8   4   8     8   0   2     0  24   4     0   0   4     2  24   9    16  56  24    32  44  33     2   8   0    33   3   4    39   1   4    24  34   4    28   0  31     6  32   3     4  34  25
  0   0  33    24   0  32    28   0  32    24  34  33     2   4  28    28   0   1     0  24   0     4   2   1     8  24   1     2   4   1     0   0   0     0   0   1     0   2   0     0   2   1     5   1   0    24   4   1     4  34  32     1  33  36    26  28  24     2   0   4     0   0   3     2   4   3     8   0   0     8   2   0     3   1   0     1   7   4     4   0   4     4   2   0     4  30   0    25  31  28    19  33  28     1  33   0    10  28   2    28  28  28     0   0   0     4   4   4    24  24  24    28  28  28    30  30  30     0   0   0     2   2   2     1   1   1     3   3   3    11  11  11    13  13  13    24  24  24     4   4   4    61  37  60     9  13   9    81  70  90     8   5   0     8  22  31    24  27   5    32  25  19   128 131   1     0 129  10   128  97  16    19   0  16   139   3   0   144   2   5     0  17  29    16 112  32    32 120   1     6 136   0     0 136   0     5   0   8     8  16  24     2  16   9    50  24  24    34 130  96    34 135  96     4 153  64     4 129  70    16 128  20    42 136  34    46 128  46     1 128   5    24   1   9    61   8   9     0  24 125     2   1   1    48   1 115     5 133  17    16   0  16    25  48   5    17   6   8    25  68   8    41   0  72    25  16 134    56  16   7     4  32   8    64  32   0     0  16  16    10   0   1     0  16   9    18   0 131    42 136 103     1 114   4    29  18  43   133  49   7    12   0  12   100  16   8     4  18   0     1  34   2    21  13   1    21   0   1     5  11  13   146   3  88    97   1  33     0  10   0   104  16   2   129   8  73   136  86   0    50   0  34    62   6  34    48 128 112    12 144  96     0 132  20    17 132  25     0  14   8     0   7   4     2  11   2    16   3  20     0   7   0     0 120  12     1   8  13    32  24  36     0   1  32    16   2  17     0   4  11    12   4   0     4   4   0     2   0  16    12  32   1   133  33   1   133  25   9     0  25  10     0   0   0     4  12  18    12   9   4    12  32  16     0  18   4   112  16   1     1  24  12   113  24   4   137  16   6   129  80  33     0 138   7    17 138  20    16   4   0     9 128   0     8  24  96     8   8  49    68  41  49    68   0  16    96  41  32    68  74  98    28   2   0     4  73  80    32   1  16   103  64   0    11  65  40     3  27  56    10   3  27    66 100  65    42  32  32    34  33  32    24  16   8     8  24   8    20  10  18     9   2  24     8  11  24    13   1   9    24   9  12     0   0   6    24   0   8     0  24   0     6   0   4     2  24   1     0   2   0     0   4   0     0   4   0     2  24   0     0  24   0    14  24  13    11   1   8    14   0  12    15   1  10     1  33   0    26  32   4    26  36  24    52  48  10     4  22  18     3  19  18    42   2   0     8  32  28     5   1  28     0  32  30     4   0  35    28   2  35
 26  32   1     0  38   5    24  32  36     0   0   0    24   0   1    24  26  26    26   0  25    24   0  25     2  28   5     2   0   0     2   4   2     0   2   1     1   3   2     0   2   0     0  24  24     0  36   0     1  35  32     0   0   1     0  28  24     2   4   2     2   4   0     0   2   3    11   1   0     9   3   0    11   1   0     1   5   2     2   0   0     2   0   4     0   4   4     4  24   0     8  24   6    14  24  11    12  24  10     4   4   4     0   0   0    28  28  28     0   0   0    32  32  32     2   2   2    24  24  24     2   2   2     0   0   0     0   0   0     0   0   0     1   1   1     5   5   5    29  29  29    61  41  63     9  11   2    65  67  85    16  14   3     8  26  27    16  45  32    18  79  74   130  13  96     0 131 119     1 107  32   128  96   8     1   3  29   152   0  20     8   0   0     0  16  33    32 116   8     2 112  12     3 130   8     2 138   0    16   2  26     2  16   8     2  18   8     8  16   0     0  15   9     0   9   0     2   4   2     0   0   0     2   0   0     6   8   4     3   0  12    14   1   1     6   4   5     6  14   6    12   4   1     2   0   0    17 137  23    33  98  49     8  36  13     1   0  20     0  17  21    44   5  68    26 144 140     8  20   8     0   5  18    56  33   2     0  36   2    54  16  25    54   0   9     2   0 139     2 128  99    21 120   9    17  26   3    24  24  11   144  40   2     0  32   4   144  54   2     5  15  32     0  11  33    16   1  16    20   3  20    20  43  84   105  99  49    16  11  17   104  82   2   104  11  90    17  20   2   128   8 108   178  76  90    36 133  32     6  12  26     4 129  16     6 132  18     1 132  17    19   0   7    18   0   2     6   3   2    12 129  16    14 113   2    40   9   4     8   0   2     0  17   0     8   1   0     0  33   4     0  33   4     7  33   0     6  36   6   136   8   5   130  24   6     7   3   1   128  25   2     1   0   9     1   0   1     0   0  22     5   2  13   136   2   0   112  16   1   121   8   1   113   8   4   141  35  32     1   0  36     0 122  96    21 128   2    16   3   5    24 139   3   140  97  97   100  51  48    97   8  16   100  24  21     4 104  32     8   8  68    88  64   0    40  18  64    41   0  16     0  22   0    97  20   9   130 118  48     0  96  42    26  98  98     8 113  50    24  17  48    16  17  48    28   8  18     2  10   6     0   0   1    10   0  28     0   0   1     0   0   0    24   8   5    26   0   4     0  24   8     6   0   4     3   5   0     0   4   0     2   4   2     2   4   0     2  24   0     3   1   0     8  24   9    13   1  10     8   0  13     9  25  10     4   2   0    25  33   6    26  32  25    32   0  10     0   6  18     5  17  18     3   7   4    27  55  52    25   1  36    24  36   2     0   0   3     2   0  32
 24   0   3     6  32  26     2   0   1     4   0  24     0  30   0     4   2   1     5   7   0     0   2   6     1   1   0     2   0   5     2   4   0     0   4   3     0   2   2     4  26   1    24  32   0    30   0  33    28  32  32    26   0   0     1   3   0     0   0   3     0   2   3     0   2   0     9   1   0     8   0   0     1   1   0     3   1   0     1   5   4     0   4   1     0   0   0     0   2   0     1   3   2     0   2   2    11   1   3     4   4   4     6   6   6    28  28  28    34  34  34     0   0   0    34  34  34    24  24  24     0   0   0     0   0   0     0   0   0     0   0   0    24  24  24    28  28  28    10  10  10     3  21   6     1  23   2    16   6   4    16   6  18     8  24  17    24  59  48    62  89  80    33  10  16   144   9  16     1   1  97   137   0  48     1   1   0     1   0   4     0   2  21     0  18  20     2  28  32    38  12   5     2 124   0     6 134   0    18   2  17     0   8   0    48   2  26    32  16 104    32   0  96    48   3  96    48   0 112     8   1   8     0   9   0     2   0   0     0   2   4     3   0   0     4   7   0     4   2   6     5   6  14     8  10  11    17 128  27    40  96  40     4  36   0    12   0  13    12  42  17    36 108  69    16 133 128     0   0   8    50  33   0    62  32   1     0  41  17     0  41  24    50   0   9    48   4  10     1   0   2    49   8  97    21  98   5    21   0  33     4   8  32    12   8  28    12   2   8    13   1   0    21   1   0   133  41  17     0  41  85    64  67  12    32  41   4    32   8  28    96 126   6    17  20  69   128  28  78   145  12  89     3   6   3   160  73 122    38  28  40    12 120   8     0 120  10     8 126  12     8 128   2     8 132  22     8 128  20     0   4   4     8 112   0     8   4   0     0   0   0    20  16  32     4  50   3     0  33   2     2  24   6     2   0   1     2  24   1   130   0   8   134  24   3   132   1  14   130   1  10     2  32  10     5   0  19     4   0  22     5  34   7     8  18   0   117  16   1   124  25   9   132  41  16     4  26   0     0  16  32     4 113  96    22  11  16    20 130  96   148  64  48   142  89  48   108  51   2   111  48  18     5  36  52   129  80  82   140  88  64    11   1   0    40   3  68    57   2   0    32  27  18     1  38  35     1  10  52     0  40 126    10  98 122    64  64  24    88  33  48    94  93  48    20  28  24    30  25  10    16   0  20    12   9  16     5   0   8     5   0   0    24   8   9    14   0   8    24   8  13     0  24   8     2  24   1     0   0   1     0   0   2     0   0   1     2   0   2     6   0   0    28   0  13    13   1  14     9   1  10     0  24   4     3   1   4    13  25   6    16  34  14    13  33  26    32   0  53    13  17  17     0   6   6    40  36  36    25   1   2    25  33  34     0   0   2     0  38  37
 24   0  24     5   3   4     0   0   0     4   2   5     0   4   3     0   4   0     2   4   2     2   0   5     0   0   0     2   0   0     2   0   3     0   4   3     1  25  26    25  33   0     0   0  33    28   0  32    24   0   1     9  25  26     8   0   0     9   3   0     1   1   0     0   0   1     1   1   0     0  24   9     6   0  10     0  24   3     3   5   0     2   4   0     1   3   2     1   3   0     9   3   0    11   1   1     1   3   3     4   4   4     6   6   6    28  28  28    34  34  34     0   0   0    34  34  34    24  24  24     0   0   0     0   0   0     1   1   1    24  24  24    26  26  26     3   3   3    19  19  19    22  16  17    16   6  18     0   2   3    80  66  67     0  10   8    66  48  56    64 107  56    98  19   9   152   5 100   128  96  25     1 105  37   143   1  40   132   0   7     5   0  18    15   0   0     0   8  16     4  28  32     5 104   1     4 133   2    21  13  17     5  13  18    28   0  18    24   0   2    16   3  24     8   0  18     0   1   0    10  13   8    10   9   8     8   8   8     8   2   0     2   2   4     0   0   6     3   6   1     4   2   1     9  12  10    24 136  19    44  96  33     5  48  12    20   4  23     4  32   3    50 104  64    16 137 128     0   1   8     2   8   8    66   3   0     6   4  24     0   0   2    66  37   2    48   0  10    20   0 130    32 128  98     6  96   0    16   0  46     0  12   4     0  34   0   132  34  18   128  32  84     1  97  80     0  65   0    65  32  23     0  32  16     6  62   8    32  24   8    88  74  72   128  36   4    16  42  28   161  40 106   146   8  90    40   0  32   160   3 118    36  43  42    34  21   0    12 112   0     2 112   8     1 120   9     0   2  10     0   0   2     8 112   2     4   0   0    22   4   0    28   1   0     0  33   0     0   1   6     1   4   2     4  26   0     5  29  12     2  32   8   128  12   4   132  33   8     2  37  14     6   1   2     3   0  29     0   0   0   134   0   8     0  16   4    15  18   1   125  26   4   114   0   0   136  21  34   136  16   4     4  96   0   144  17  48     0  16  18   130  80  34    90   9  36    12   3   6   104  34  18     1  26  32     0 116 112     0  40  80   128  32  96    96  89  81     0  34  18     0  34  17    65  44   3    97   8  33   128  68  84    64 100  32    66   0  44     2 118  72    66  65  24    32  35  32    18  25  22    26  27  22    25  10   4    24   8   8    27   8   8    12   8   9     2  10  12    24   0   2     0   6   0     0   6   2     3   1   0     2   0   0     3   5   0     2  24   0    26  32   1     2  32   1     2  32   5     2  32   6     0   0   7     4  24   4     1   5   0    24  26  14    25  35  10     0   2  47    36   0   3     0   8  10    41  33  32    24   0   0    24  36  36     0   0   2     0  34  38
 24   0  25     7  29   4     6  28   1     4  28   4     0   2   4     0   6   1     1   7   0     0   0   3     2   0   2     2   0   0     2   4   3     0  28  27    26  36  30     2   0  32     3   1  32    28  34  32     4   0  25     9   3   8     8   0  11     0   0   9     8   2   1     8   2   0     0   0   9     6  24   1    10   0   3     0   0   0     1   5   6     2   4   0     0   2   1     0   0   0     0   2   1     1   1   2     0   2   2     4   4   4     0   0   0    28  28  28     0   0   0    32  32  32     2   2   2    28  28  28     0   0   0     2   2   2     2   2   2     0   0   0    32  32  32    32  32  32    24  24  24    18  16  22    18   1  17     2   1   2    66  96  64     2   1   0    21  20   6    96 112  40   113  96  77   136 129  68   138   1  96     0   0   0     8  17   2    12   2   3    12   6  16     8   4   1     9   0   0     6  24   1    33 109  33     5 141   3    21   5   1    20   4   8     4   4   9    12   3   2    16   1   0     2   1  16     0   4   0     8   8  10     8  11  11     8  10  10     2   2   2     2   0   4     2   2   4     0   4   6     4   4   3    12  14  11    16   5  24     0 101  12    24  36  21    20  37   6    33  16  48     6 105 102     6 136   0    16   0   9     2  36   8     4   0   1    65  37  16    74  40   3    38   4   3    52   8   0     6   0 128    36 132 106     6 100  10     5   4  33   128  38  32     5  74  69     8 102  14     8  32  16    42   0   0    34   0   0    64   0   0    65   0   9     6   0  28    16  16  12    20  70  76   144  44   6     0  28  14     1  38   4   168  26 106    16  12  28     1   3   3     0   6   6     0  52   4     8  14  46    42   4   4     8  10  10     8  26  10    32  26  10    42  20   4     0   0   0     2  20  32    16  48   0    14  29  10     2   0   0     2  29   2     2  24   4     0   0   0     0  32   8     0   0   0     0   4  10     0   0   8     3   0  25    15   4   1     2  32  24   137  24   1   120   2  10     5  18   0   120  41   4     4   0   4     0   0   4    16   4   4     2 101   0   130   9  36     0 121   0   146  51  33    64  25   1    10  13   4    98  20   6     1  48  50     1 101  48     5 144  49     1 141  18   160  10   0     0  83  68     1  80  18    17   8  69   128   8  71    17   0   8    40  48 125     0  96  81    34  98  89    66  64  20    33  40   0     1   2   0    25  18  16     0   0   0     6  12   8    27   0   0    22  16  18    20  14  10     0  30  28     8  26  12    24  26   6    26  28   1     0  28   0     2   0   2     0   0   3     2  28   1     2  24   0     5  33   4     2  32   2     0   0   7     6  24   2    12   6   8    25   9  24    21  33  42     0   9   0    44   9   8     4   8  10    45   8  13     8  40   0    24  36  36    16  32   6     8   0   4
 26  37  32    24  28  24    25  31  28    24  30  26     0  24  24     3  25  24     2  24  25     3  25  24     1   1   2     1   1   2     0  24   3    26   0   1    36   2  36     1   1   2    33   3  32    25   1   0     1  25   2    14   0  14     7   1  10     3   1   8     0   2   9     7   1   0     6   0   8     6   0   9     4  24   6     0  24   4     0   4   4     0   4   4     0   6   1     0   4   0     1   5   0    24  24  24     2   0   4    28  28  28     0   0   0     4   4   4    24  24  24    28  28  28    30  30  30     6   6   6     6   6   6     0   0   0    25  25  25    34  34  34    33  33  33    32  32  32    19  19  19    16  18  20    18   5  16     2   0   2     2  32   2    66  64  80    76  72  42    80  88  17    32  56  33    19   0  33   143   9  98    10   1   7    10  17   0    10   9  10    13   4  16     8   0  10     9   8   0     2  12  16    32 109  35     0   9   2     4   4   3     8   1   8    13   7   3     9   2   1    17   6  19     0   0   2     0  12   0     8   0   0     0   2   8     0   0   2     0   1   5     0   0   0     2   0   4     0   4   3    10  12   3     4 140  18    44   1  51     4  18  12     4   0  15     8  54   2    38  24  40     0 117  11     0   0   2     3   4 149    51   4  10    33  12  17    32   4   9    36  20  17    48  13   1     4  28   0     6 132   1    22 116  96     6 100  42   132  36  40     0 103  66    68  67  19     0  18   5   100   0   4    37   3   0    64   8  16    73   0  16     1   8  21    12  35  28    64   0   0    16  72  88    24  34  10    20  14  46     0  28  46    33  37  37   169  13  77   128   6 102   146   7 103   144  37  85     1  50  34     8   0   0    33  16  32     0   0   2     9  26  42     9   8  10     9   0   0    18  32   4     2  44  16   128  13   2   128  29   4   129  29   0     7  25  12     0  32   0     2   0  12     2   1   5     0   0  16    16  13   0    16  16  10     4   2   8     1  34  31    10   7   0   122  18   0   120   2   4     0  42  10   126  12  26   103  96  23   112   8   2   144  98  32    24   4  19     0  96  96   156   4   0    30  76  65    40  17   2    78  21   7     4  91  20   128  43  32     0   8  64     0 158  80    33 146   0   167  26   2   131  72   2   135   0   2   133   8  65     4  65   4    97  84  12    96  97 100    67  66  80    32  32   0     2   2   0     2  17  20    16  11   2    18   8   3    28   1   1    28   0   0    28   0   0    20  16  16    12   8  16    24   0   0    28   6   5     0  34  28     1   1  24    24   2  24    24  24  24    26  28  24     2  24   1     1  29   4     5   1   4     1  29   4     3  25   0    25  25  24     1   7   0    32   2   0     0   8   8     0   8   8     0   8  14     1   0  11    26  33   4    18  40  32    12  36   0    14   4   2
 11  17  16     6  24   6     1   1   2     6   0   6     0  26   6     1   3  24     0   2   2     2   0   0     0   2   0     1   1   2     1  25   2    24   4  28    32   2  34     1   3   2     1  35   6    25  27  26     0   2   0     8   0   8     0   8   2     0   0   7     7   1   6     0   8   8     6   8   6     6   0  13    12   6   9     0   2   1     0   0   4     1   1   4     0   0   5     0   4   2     0  28   2    24   0  24     6   4  14    16  20  20     6   6   6     4   4   4     2   2   2    14  14  14    14  14  14    14  14  14     2   2   2     0   0   0     0   0   0    32  32  32    32  32  32    32  32  32    24  24  24    28  24  18    18  16  18     2   1   4    64   1  67     1   0   1    64  64  73    81  72  65    81  72  68   150   1  64   142  10   4    10 112 103     0 112  34     8   2  34     0   0  16     8   0   8    10   1   0     3   8  17     2  27   0     2   3   9     2 129   8     0 132   1     5 132   0    12   7   1     0   0  17    18 129  18    16 128  19    20   0  16     4   5   0     0   6   0     8  13   8     0   0   0     0   0   0     2   4   0    18  14   0    42  10  43     8  70  33     2  36   6     0  40  20    14  48   6    36  24  32     0 112  14     1 137  96    11   5 100    11   5 144     4   1 128    29   5   0     1  20  17     5  10 133     0 140   1    32 140  97    36  72  32   133   8   1    66   4  69    96   5  13    65   0   1    47   1   5    56   1   4    17  24   0    32  29   0     3  25   1    81  21   9     8  21  20    68  66  24   148  34  80     4  11  16    12   8  40     0  16   4    36 108  48     0  12  36     2  64  17     2  16   3     2  68  23   132  36  80     0   2  20     4   0  18     8   2  20     4  42   8     9  32   4     1  32   4   128   3  86     8  30  12   114  27  76   129   5   0     4  16   1     6  32   4     8  32  13   142   0   4   136  40  21     4   4   2     8  12   8    16   8   5    20  10  16   144  59   3    16  21   1    97   6   2   120  17  16    98   0  16     9  13   8   145  99  53    25   0  16     0 101   0   137   8  40   136 107  66    30   8   3    28  66  66     6   2  10    40  33   0    66  65  18     0  40  48     1   8  99     0 128  20     4 130  20   165 128 144    39  24 144   135 138 128   136 128   2     0   2   0    72   2   8    96  96  97    36   0   0     2   1  30     5   2   0    18  16   2     6  14  24    10  14   8     4   9   8     8   0   4    12   4   0    14  24  16    16   8  24     0  32   7     0  38   5     0  32   1    28  32   0     5  33   0     1  31   0     1   7   0     3   5   0     1   1   2     2  28   6     5   1   0     1  24   6    25  24  24     1  32  32     1   0   0     0   0   0     4   0   0     1   8   8    41  32  38     9  11  48    29   2  48    12  32   4    14  28   0
 25   7   4    29   5  30    29   5  28    28   6  28     5   1  30     5  29  26     0  24  24     0  24  26     0   0   0     0   2   2     1  27   0     0  34   0    36   2  33    37  33  34    25   3   2     0   4   0     0   0   0     0   0   0     8   8   8     4   8   0     7   7   7     1   9   7     2   8   7     4   0   6     0   2   9     8   2   0    10   0   0    12   4   4    12   0   5     8   4   4     9   5   4     2   8  12     6  24  15    10   0   8     2   2   2     0   0   0     0   0   0     6   6   6     6   6   6     0   0   0     8   8   8     0   0   0    24  24  24    33  33  33    32  32  32     0   0   0    24  24  24    12  12   8     8   8   0    50  49  50     2  16  17    16  35  34    89  64  64    81  81  82    12   8  16    84  88  64   132 128   0    20 128  67     0 128 102     0  96  33     0   1  27     8   2  24     8   9  26    16  17  26     5  25   4     0 112  32    32   3   8     0   6   9     4   6   8     0   3   8     0   4   0     2   3   3    16 129   1     1 136   0     0   0   2     0   5   2     8  13   2     5  12   2     5   0  12    12  12  12     2 128  50    25   4  34   136  64  65     2  56  10   132  40  86   158  34   2    32  26 102   128 122  76    35  65  78    40  19 116    32 145 118    32 137   0    48 154   6    53 149   4    48  21   5    32  22 121     0  20  49   128  48  49    12  43   0   108  81  14    68   0   5    34   1  13    12   1   1     1   1   0    33  24  17     0  16   0     2  12   5     0   1  26     2  79  16     4  34  82   148  34  16     0   5  32    21 106   6     1  17   0     5   1  28    32  96   9    28  96   9   146   0 106   130  68 122     2  42   0   128  78  83   133  32   0     5  32  16     5   0   0   129  32   4   147   8  93    27   0   0    16  12  68   112  10  50   112  16   4   121  28  64   129  16   1     0  24   8     2   4  64   132  13   0     0   4  93     4   0  95   148  35   4   148  49   9     0  18   6   116   0   4   122  21   0   113  45   4    10   1  34    91   3   0   137  11  49    65  34  40     1  62   1     9  32  18     1  53  34   130 104  34    11  10  34   110  34  58   108  50  11   100  34  20   128  72  48   132 137  16     1 138 100     5   0   6   161 138   0   164 128 146     2   0  16   137  48   0     9  72  68   113  32  24    20  48   0    49  50  16    34  33  32     4  17  10    18   2   2    14  19  26    20  31  27    12  13   1    10   2   0    16  16  16     2   2  16     0   0   0     1  32   4     0  38   5    25  33  28    24   4  24    25   3  24    25   3  24    24  26  24     1   5   2     1   0   2     0   5   0     2   1   0     1   2   4    24  25  28    40  32  33     8   1   2     0   1   3     0   8  10    32  42  43     1  14  20    19  50  52    13   6   8    21   3   2    21   1   8
 25  27  28     3   1   4     4  28   3     0  30   2     4   2   0     0   0   7     1   5   2     2   0   0     1   3   0     3   1   2     0  24   0    24  32  24     0  32   0    28   0  30     4  30  24     0   2   0     0   0   0     0   0   0     0   0   0     8   8   8     0   0   0     6   8   7     3   9   6     6   0  11     4   2  10    10   6   0     6   2   0     6   4   0     7   5   1     8   0   4     8  28   4     8  28   9     2   8   5     8  12  14     4   4   4     0   0   0     2   2   2     0   0   0     8   8   8     2   2   2    10  10  10     2   2   2     0   0   0     1   1   1    32  32  32    32  32  32    24  24  24     8  12  12    24  24  24     0   2  48    11   2   4     3   0   4     7   0   2    68  64  64     9   0   0    69  80  52    25  81  36   144 128  59   140 128 103    16   0  17    12  96  53     0  19   8     8   1  31     8   3  12     0   0  17     4   2  16     1  18  32    32  24   9     0  15   8     0 120   8    40 112   0     9 112  15    34   0   5     0 132   4     1   0   2     5   0   2     4   0   0     0   0   2     4  12   2    17 128  24    48 106  56    40  78  41     0  78  32   172  32  97   160  96 102   132   2   0   128 115  10    18  83  96    34  53  99   163  27   9    19  81  12     1 101  44     1  68  64     8  68  72    32 100  48     0  97  56   160  45  33    65   0   3    96  78  66    72   2   0    36  10   0    44   0   8     5   0   1    41   1  17    25  24  29    42  18   4    98  12  12    34  66   0    34  13  64   112  19   8   132  32  20     5  11  32     9  97  20     1  11   0     0 104  17     1 120  26     0 112  10     4  20  40     4  96   5   132  86  81    32  18   3     8  10  65   140  10  81   130   3   0     2   1  85    13   9  73    67  76  45    26  64   0     8   4  53   104   4   4   128   0  77   129   8   5   128  16   2    99   0  81    96   4  20   100   5  20   104  12  86   106  18   8    12   0   9    98  18  15   113  16  12   112  24   0    99  60  16   146   9  50    26  13   0     8  15   3     8  24   4   137   5   0   107  16  36     1  16  48     2   1  54     0   3  34   102  38   2   105  16  34    20   2  42    96 105  32     0   2  84   129 130  95     8   2  17     0   9 153     0   1 155     0  24 138    57  48 102    65  72  84    60  50   0     5   0  69    64  16   0    32  16  52     2   1  24     0   2  10     4  10  10     8  14  16     7   0   5    10   6   8    10   6  12    19  25   0    16   0   8     3  32   4    28   4   5     5  27   4     5  27   4     4  26   0     1  27  12     0   6   5     0   6   1     2   0   6     0   1  26     4   0   0     0   5  28    24  25  25     0  33  37     0   1   1     8   0   1     0   8  11    40  32  37    48  62  61    24  54  52    37   2   8    37   7   0    10   9  24
 17  21  18     3   1   4     4   2   5     5   3   0     5   3   0     2   0   5     2   4   2    10   0   0     1   3   0    11  25   8    26   0  24    24  32  28    28  32   1     4  28  28     4   0   5     0   4   0     0   0   0     0   0   0     0   0   0     0   0   0     8   8   8     0   8   9     0   0   8     8   0   8     0   2   1    10   6   0     6   2   0     6   4   0     6   4   1     8   0   4    10  28   4     0  28   1     4   4   0     6   4   6     5   5   5     2   2   2     0   0   0     2   2   2     0   0   0     0   0   0     2   2   2     2   2   2    24  24  24    32  32  32     0   0   0    32  32  32    24  24  24     8  13   1    16  17  17    16  17  27     2   1  33     0   1   1    67  64  64    65  65  64    17  13   1    64  80  96    32   4  72   128 128  92   128   6  63    28   0  22    28  97  38    14   7  10     8  11  17     8  13   8    13   4   0     0   2   0     1   0  16     0  31  40     0  14  12     2   4   0    24   1   0     8   0   0    56   6   1     0 132   1    19   4  18    17   6  22     4   4  16     0   0  16     1 128  19    21 129   6    32  96  10   191   0  75    18 100   1    41  12  33   176  44 120    32   3  58     0   7 110    64  29  46    82  60  14    22  72  69    21  33  36   153  49  16     1  41   4   144  49   4    32   1   8    48   1   0    32  52   2   100   0  10   102  20  10    32  16   0     4   0   0    40   1   0    33  24   0    17   8  16   112  17  12    33  16   0    32  70  14    42  30  73    96   7   8     4  65  36    12   3  80    13  16  96    13 129  96     1 138  96    32   0  16     0 120   8     4 112  14    13  16  34     1  20   8   136  60   4    32  28  65   116  94  65    68   3  64     0  34  68     6   1  80    74   1  17    97   0  33    17  64  49    32  16  35    96  64  32    96  18  71     0   8   4     0   8  10     4   0  70     0   1  86    22  20  84     3   6  88    99  18   8   128  35  16    96   3   0    96  25   4     2   8   4    16   1   6     4   1  34   128   9   0   112   2  49   112   0  53   104   6   4    99  12   0    96  16  32     3  16  49   134   2   8     0  54  10    96  22   9     4  40  32    96  45  32    36   1  68   130 129  82     8   2   8     0 144  25     0   0   0     0   1  11   156 144 120    93  80  58    36  40  20   100  96 100    77  42  53     3  16  26    16  10  22     0   1  26     7  14  24    31   1  17    14  28   0     3   3   1    12  12   8    16  18   8    24  18   8    25   3   6     5  29   0     1  27   2     0   6   0     1   7   0    24  24  25     0   0   1    24  28  25     0   0   0     1   0   0     1   0   2     6   6   0    24  25   1    32  35  33     0   0   4     0   0   5    32  40  41     4  14   8    48  36  33    16  60  57     4  14   9     8  12  12     1   3   2
 16  24  19     2   0   0     0   0   4     4   2   1     4   2   1     2   0   4     2   4   2     8   0   2     0   0   0    22  24  24    24  32   1    28  34   1    24   0  24     4   0   3     4   2   4     0   4   5     0   0   0     0   0   0     0   0   0     0   0   0     0   0   0     0   0   0     9   1   0     8   2   0    10   2   1    10   6   5    10   6   4     8   4   4     9   1   4     8  28   4     0  28   0     0  28   0     4  28   0     0   0   1     0   0   0     2   2   2     0   0   0     2   2   2     0   0   0     2   2   2     0   0   0    26  26  26     4   4   4     0   0   0     0   0   0    37  37  37    24  24  24    13   9  13    24  24  48     0   0  16     3   0  52     0   2   0     2   3   5    65   1   0    64   5   1    64  97  64    66   4  24    82  96  10    16  96  58   132   8  25     5   8  46     0 113  10     2  16   8     4   6  25     1   0  17     0   2  16     0   0  16     2   5   0     2   9   0    24  25  32    24  16  32    25  16  38    16 116  37    38   0   7     2   4   0     4 128   0    20 132   0     2   2  10     0 130  11    19  99  42    49  24   0   141  33  86     2  69   0     1 104  11   136   9  72     0   7   4   160   3  48    16   0  68     2  64   4    16  80   1    64  80   4    83  97 100    90 112  64    80   0  76    84   2  90    98   4  72    37   5  72    32  64  64    38   6   0    18   2   0    34  14   0    18   0  18   114   8  26     8  56  19    25  90  70    49   8  68    36   2   0   100  16   5   100  66   1   132  80  64     4   0  64     4  17   8     5 120  40    17 120  96     4   8  17     4 104  32     4 104  35     0   0   8     0  16  34     0  32   8    33  28   8   100   0  36     5   9  56    66   0  23     0   1  80     2  32  81    64  64  17     0  48   1    41  50  37    64  97  37    32  92   4    96   9  66     0   8  10     4   1  92     5  33  86   112  16  66   112   8   0   113   8   0   137  36  17    97   3   1   100  14  18     4   8   0   112  24  18     0  32   0    18  25  35   112  10   3     2   0   2    16   3   4     0  16  51     6   2   8     2  18  40     0   0  33    96  52  41     0  20  13    96  60  33    16   9  32   120  97 104    32  83   0     0   3 128   128   1  80     4   0   8     0   1 127   132  73  33    96  99  60     9  56   0    37   6  85    66  84  50    81  20   4    19  48  12    18  32   4    29  16  16    25  24  17    15  26   1    25  25   5     5   5   5    11  13   8     1   1   0     8  24  10    11  25  14     9   3   8     0   2   8     1   5   4    24  24  29     0   0   1    24  30  29     0   0  28     6  29   0     0   2  32     6  28   2    24  26  36    34  33  33     0   0   6    10   9   8    16  24  25    62  24   9     8  50  40     8   6   4     4   2   1    44   0  40    24  32   8
 19   9  18     2  28   5     4  28   1     0  30   1     4   0   0     2   0   5     3   5   0    10   0   3     0   0   0    16  24  16     0  34  33     0  34  33    24   0  24     2   0   6     2   0   1    10  12  11     0   2   0     8   8   8     0   0   0     0   0   0     0   0   0     0   0   0     0   2   3     0   6   0     2   6   1    10   6   5    10   6   4     8   4   4     9   1   4     8  28   4     0  28   0     0  30   0     0  28   0     0   0   0     1   1   1     0   0   0     4   4   4     0   0   0     0   0   0     2   2   2     0   0   0    24  24  24    36  36  36     0   0   0     0   0   0     3   3   3    31  31  31    28  29  27     0   0   8     0   0   0    16  16  20    64  65  65    17  16  16     0  16  16     0  22  16    65   6   8    64  64  66    32  32   2   112  15  28    61  76  72   136  98   9    29   0  65     0  13  32     0   5   1     4   4   0     2   3  16     2   2   0     4  35   0     0   1   0    24   1   4    16  18  32     9   0   0    17   4   0     6   8  12    39 112  32     0 112  10     1   0   8     6   3  11    19 125   3     3 107  38    32  57  12   128  65   5   142   5  22     8 101   2    56  15  47     9 131  17    50 132  20   177   6  36    86 116 100    18  32   0    34  17   4    96   0   4    76  16  17    66  24  20    98  64  13    68  88  10   104   2   2     4  18   2    32  16   1    34   0   1     2  36   0    64  36  18    51  49  18    33   9  80    20  16   2     0  16   4     1  17   2    96  18   0     4   0   7   128  16  67   165   1  69   128  20   1   129  17  65    25 129 104     0   8  13     4   0  32   128  40  40   137  40   8     8  16  44     9   6  32   136  36   8     0  54  65    32  10  12    40   2  54    96   1   0     8  32  80     8  32  84     8  65   1    80  48   4    80 117   1    52  83   5   112   1   0    22   4   0   132  37  85   130  34  16   113   6   0    99  26  12   144  23  16   128  46  24    32  15   1   116  30  18     6  16   0   118   8   8    74  18  36    82  32  48   112   1   0   112   4  52     4   1   4   104  16   2     4  32  24    99   2  17    15  48  16     0  56   1     0  58  33   116  38  33   112  38  32    20  12  68     0  65  64    16 135   2     5   2   0     4  18  78   128   3  53   128   1  53     4  98  21     5  42  36    32  20   0    20  29  20     2  16  84    22  16   1     0  16   4     1  48  21    24   0   6     0   9   8    24  24  20    10  10   0     9  25   2     1  27   2     9   9   0     8   0   4    13   5  10    12   0  10     5  27   2     4  26   4     4  30   1     4  30   1     1  30  28    28   0  32     2   2   0    28   0  34    26   6   0    33  32  38     0   0  10    15   4   4     9   8   8     7   9   8    40   0   0    40  34  33    36  34  33     4   0  32    13  33  42
 11   1  10    25   3  26    24  34  29    28   0  29     4  28   0     0   4   7     0   2   0     0   2   2     4   0   0    12  26  24    28   0  28     0  32   0    24   0  24     2  28   1     2   4   2     4   8  10     7   7   7     0   0   0     8   8   8     0   0   0     0   0   0     2   2   2     3   3   2     0   4   2     8   6   2    10   6   0     6   2   0     6   4   0     6   4   1     8   0   4    10  28   4     0  30   1     4  28   0     0   0   0     1   1   1     5   5   5     0   0   0     0   0   0     9   9   9     0   0   0    14  14  14    25  25  25    32  32  32     0   0   0    36  36  36    29  29  29    28  28  28    13  13  13     1   1   1     0   0   0    17  17  17     3   3   3     1   1   1     0   0   0     0   0   0    81  68  64    72  68  64     3  38   0    84  36  33    56  88  67   160  16  66     8 136   2   145  74   2   128  33  37    16  19   0    16   1   1     2   3  16     2  38  20     2   1  20     0  32  24     2   0  16     8   6   5    29   0   1    28   0  16    18   4   0    42  16   0     0  22  33     6 114  10     2 113  10     3   7  45    32  34 108     0 101  21   129   1  55   140  16  67    34   5  53     1   0   2    49 128  16    23   0   0    19  17  36    65 112   1    32  17  40     0  24   8    80   0   3    52   0  18    63   0  19    51   0   2     2   0   0    33   3   0    56   0   0    54  32   5     2  10  16    81  41  21     1  41  18    40   2  24    46   0   0    33   3   0    54   0   0   100   0   3    96  48  21   132  80   4    68  88  65   100  65  65    16   1  68     1  65  57   144  32  44    16  64   6    16  24  10     4   0   8   130  17  36    10  42  14     6   2  16     0  46  29    98   2  68    16   4  69    16   1   4     0  33   0     8  33  16   136  39   0    64  96  65    16  80   0    88   0  80     0   1  68   146  40 100   128  33   5     3  39   4   112  22   0    17  54   8   136  92  68   152  12   1    64  91  64   108  22   1     8   4   0   102   4   8    66  16  16    84  56  51     1  22  48   136   2   0     4  50   0   116   0   5    27  40   1    13   0  19     8   2  17     4  58  16   136  42   0   128 122  18     1 114  97   148 106   4   128  96  16     0 110 113   132 101  64     2   4  68     0   3  73   132  81  37   128   2 117    98  64  52   104 111  48   100  92  36     1  16  64    16  16  48     0   0   4    17  18  45    17  16   1     0   0   8     8   8   4    16  16  20     0   0  14     1   3   0    11  13   8     9   1   4    10   0   8    12   4  10     5   3   0     0   0   2     1  31   0     1   3   0     0  32   2    28  34  37    28  33   3     0   2   0     6  36   0    32  33   1     1   4   0     1  12  20    16   1   0     8  10   1     8   2   1    32  34  32    36  34  32    39   1  40    15  41  40
 34   4  32    35   1  38    34   0  35    30   0   0    28   2  28     1  25   2     0   2   1     0   2   2     4   2   1     4  30   4     4  30  29    29  33   0    28  32  28     0   0  25    10  12  10     3   3   0     2   4   5     7   7   7     8   8   8     0   0   0     3   3   3     0   2   2     0   4   3     2   0   0     8   6   1    10   6   0     6   2   0     6   4   0     6   4   1     8   0   4    10  28   4     0   0   1     6   2   1     1  29   0     0   0   0     4   4   4     1   1   1     0   0   0     8   8   8     0   0   0    10  10  10    24  24  24     2   2   2    32  32  32    28  28  28     3   3   3    31  31  31     6   6   6    32  32  32    16  16  16    17  17  17    16  16  16     0   0   0    32  32  34     8   2   0    32  32  10    64  68  64    65  68  72    70  67   1    42   6  64     8 130 101    23   4 111    16  12  32     4  69  55    12  27   2     2  17  24     2   0   0     1  50   4     0   2  21     2  34   1     2   2  16     8   4  16    20   4   0    22   4  10     2  12   9    19  12  24     8  24   8    45  28   0    39  26  32    10  15   9   162   3 112   128   0  22   164  64  58   165   1 115     2   0  16     1 129  18    35 128  16     0   3  32   134 105   8     3  41  72   104 120  66    96   9  21    48  21   6    52  32  19    46   0  19    18   4  16     8  16   0     5  25   0     4   0   1     1  35   1     9  49  52   114  32  22     1 101  66     0  32   2    57   1   2     1  17   0     1  19   0   101  33   0    24   0   4    96  48   6     0  36  10    37   3  19    80  48   9   115   0  16    96  24  13    96   0  64    34  16  32    67  84  64     4  76  35     0 100  99   134  39  81    74   4   1    96  21   0    18  20  66    16   6  72   120  41  16   112   8  20     4   9   0   132  33   5   132  33  16   144  51  20   144  50   6     0  33   4   128  34   2   128  49   0     0  22   0    19  10   8   128  80  76    18   8   0   104  71  81    64   0   0    96  48   1     6  52  43   114   0  10     4  50  50     0   6  50   136  22   6     0 113 104   116   0  11   122 108  64    96  60   0    96  60  21   100  58  18     9  90  64   129 114  98     2  14   2   130   9  82   130 132   2   132  89  84   128 128   5   128  17  81     2   3 129   144 129 137     6   0   4   135 130   4    76  74 100    69  64 101    64  68  65    82  69  32    68  65   0    49  34   5     5   0   1     8  10   0     9   9   5    25  25  19    27   9  24     1  25  10     5  29  10    12  12  12    12  12   8     4   2  10     4  26   6     4  26  15     6  32  28     6  32   2     3   0  34     2   0  35    32   0   0     2  33   1    36   5   1    32  34   0     4   4   8    12  10   0     8   0   8     8   2   1    32  42  40     8  34  33    32  40  32    34  44  34     3   1   0
  0   2   0     1   1   0     0   0   0     0  32  32    24  26   0     0  26  26     8   2   1    16  24  25    12   0   0     4  30   1     0  28   0     5  31  30     0  30   2     0   0   3    11  13   8     4   4   3     3   5   4    12  12  12     9   9   9     0   0   0     2   2   2     1   1   0     3   5   4     1   1   4    28  22  16    16  16  16     4  24   1     4  28   0    16  20  17    22  20  18    20  20  21    26  32  29    28  32  26    30   0  29    14  14  14     8   8   8    11  11  11    11  11  11     9   9   9    27  27  27    16  16  16    32  32  32    36  36  36     0   0   0    28  28  28     0   0   0    28  28  28    16  16  20     0   0   0    24  24  24     9   8   8    16  16  16    16  16  16     8   8   8     8   0   8     1  16  10    24  16   1    82  97  88    12 115  67   146  25  74    28 133 124     2   6   8     1  26 100     2  70  20    25   0  34    18  17  11     0  19  34     2  53  12     4  32   8     8   5  20    12  36   2     0   4  17     4  33  10    14   1  16    10   2  10     8   4   0    25   4   9    29  20  24    20   0  16     5  50   3   136   6  66   149   4  87     7  65   2    35   3  49    11 130   2     1   0 122    53   1  97    14 128  17   136  64   1   106  32   0    42   0  66    40  65  22    44  61   4    69   4  22    54   0   0    18   0   0    16   8   0    33  33   0    12  32   0     8   0  17    50  32   3    74   2   2    25 107  82    49   3  16   105  17   4    36   2   0    44   2   1    39  33   0    53   9  36    96   8  28    98   8   9    70  34  27     0  50  38   116  42   5    34   8  66     2   0   0    35  24  10     2  20  10     6  12   3     2  38  17     2 110  17    84   5   2    48   5  64    34  20  64    48  22  69    49  14  86    96  37  80   112  10  12   148  55   8   148  52   5     0   7  22     8  35   4     2   3  16   144  83   5   150  22   4   100   0   5   128  42   4     0  64  76    32   2  72    72  82  17    72  36   1     0  52   1     0  32   1   100  52  11    96  20   9   116  32  32     0  16   6   154 106  65   140   8  37   157 104  65   104  24  36    11  52  36   111  32  36    21  84 101   129 124   4     6 140   6   166  97  86     4  32  84   132  48  36   128   0  81   128   1  69     2   1  75   138   0  64   130 129  64   138   4  71    74  34   2    69  46 101    68  66  33     5   4  80    33  36  16    48  38   1     0   4  12    17  16   7     0   0   6     0   0  16    18  24  28     1   5   0     1  29   0     2   0   0     1   5   0     0   0   0     0   2   4     4  24  15     1   7   0     4   0   3    30  32  34    20  32   1    32   1   1    34  32   0     4   4   0    32  32   0     0   4   0     8  10  16     1   6   0     1   5   0     0  34  32     0  32  33    32  34  33    35  45  40     1   1   0
  1   1   0    32  36  32    34  36  33    34   4   1    26  24  26    16  26  10     0   0   3     0  32   3    10  32   4    28   2  29     4  28   0     5   3   0     5  31  28     0  28  24    14   8   8    11  13   8     4  10  10    12  12  12     0   0   0     0   0   0     0   0   0     1   5   4     0   0   0     1  21  20     2   2   1    10  10  12    17  29   0    16   8   8    20   8   8     4  10   0    12  34  24    12  32   9     0   0   4    18   4   5    14  14  14    22  22  22    18  18  18     2   2   2     3   3   3     8   8   8     0   0   0    32  32  32    34  34  34    32  32  32    28  28  28    28  28  28     0   0   0    28  28  24     0   0  24     4   5  17    18  16  16     0   0   0    40  40  40     8   8   8    32  32  40    32   8   8     0   0   8    16   8   0     0   8  68   129 129  74    21   8   7     2  10 126     6   2  17     2 106  16    10  22  36     2  10   2     1 112  47    21   0  40     9  96  39     8   4   1     8  45   2     8   5  16     1  38  10     3   0  24    19  14  24     2   4   9    15   8   0    15   0   9    15  10   8     9  48  17    16  72  16   136  65  68   168   2  80    35   0  58     2  30  14     2 138   2    42 128 106    32   2   0   128  67  64     2  32   2    98  54   4   106  22   4    32  34  68    32  64  64   112  98  18   113   0  16    41  11  16    36  38   0    42  28  17    38  34  17    78   4  18   114  36  33    32   0  34    48   2  33    57  41  36     1  19   2     4  20   2    35  37  96    20  34   0    50   8  88     4   8  27    96   8  15   108  56   2     0   9   4    33   0  82     3   8  24     1   0   0    11  64  26    66   1  35    16  34  19    64   3   0   112   2  16    86  85   4     0  76   8     0  68   3    16   2  24     0  19  16    68  66   9     4  66  65    68 116  81   149  20  66     0 112   4   152  65  20    40   1   8   134  65   4    23  17   8   136   0  10   161  64  72   144  64  16   136  18  80    16  32  48   132  32  33     0  33   7   100  48  14    96   0   0    96  32  34     0  96   0   148  97 104   134   0  40   142  98  72     6  37   0    82  37  44    83  33  40    76  80 108    57  21 108     9   0 137    52  12  68    36   5  68   136 128  72    41   0  72   129 128  24    85  64   0   128  68  16     2  68  64   138  64  64    73  70  65     9   6  65    68  66  89    84  64  16    20   6  27     1   4  24     9  12   5    25  24  19    17  17  19     8   8  22    11  17   0     0   2   0     4  28   0     0   2   0     5  29   0     0  26   6     4  24  12    24   2  29    24   6   1    28  32   0    34   0   0     0  33   2     0   1   1     6  11  33    36  36   0    32  40   0     3   4   4     1  14   4     0   8   5     1   1   4    32   4   0    32  38  32    32  36  33     0   0   0     1   1   0
 41  33  36     0   4   0     6  12   0    34  32  32     2   8  10     0   0  10    17   3   2     0  34  32     2  32   1    28   2  25     4  28   4     4   0   4     1   1   6     0   6   2     8   0   1     0   0   0    14   0   0     4   4   4     4   4   4     4   4   4     4   4   4     2   0   4     0   0   4     2  20  16    24  20  16    16   0   8     0   0  22     4   0  26     0   2   0    16  10   8     0   2   0    20  32  40    32  40  33     8  10   8     0   0   0     0   0   0     2   2   2    23  23  23    21  21  21    34  34  34     1   1   1     1   1   1     3   3   3     0   0   0    33  33  33    28  28  28     1   1   1    24  24  28     4   4   4    16  16  16    19  16   6    25  24   0    12  12  24    16  16  16     0   0   8     0   8   0    32   0   0   104 105  97    16 109  96   129  16 100     3 140   2     1  24 142     0   0 102     2  98  68   128   0   4   130   3   4    19  96  34     0 113  40    28   1   8    28  24  40    20   1   0     0   1   0     8  35   0     3   2   4     2  41   0     1   4   1     0  11   2     4   0   6     5  32  16   149  80  64    84  26   2     0  40  54   130  34 113     0   4   6     8   0 102     3   1   6    40 128  66   162   2  66   114  17   2   106  16   2    16  33   0     0  38   4   103  60  12   108  56   8     0   0  66     0  98  32    82   1  17    18  37   8    54   6   1    64  36   0   110   8  65    68  70  64    24  44   9   112   2  17   120   6   1    24  48   0    24  50   0    53  25  96     1   1   8    32  16  64   112  56  26    65  21   8    76  32   8   110  18   5    18   0  94    19   0  16    27  64  56     9   4  40    10   4  40    71   2  32    65  18  34     4   2   0    34  16   2    52   4   0    67  36   2    80  34   1    66  48  24     0  48  21     0  32  12    20   1   9    80 124   0    64  64  24   152  72 100    22   9  24   148  96   3   119  24   8     0  42   1   160  88  64     0  10  52   172  34  64   112  40  16     0  49  40    32   1  12    64  17  64    64   1  96    65  64  42   131   1   6     1  65  20     5  72  64   134  38  64   128 102  12     3  16  37    86   2   4   148  80 104   134  22  12   153 128   9   152  37   8    72   5   8     8 138  88     9  96  88   129   2  76    64  32   0    75   4 124     0   5  18    75   4 114    72   8  64    64 100  64     5  32  22     4   4  18    33  34  23    17  24  16    17  16  21     1   0  31     8   8  20     8   8   4     4  24  12    10   8   8     0  28   1     0   0   0     3  29   0    24   6   5    28  32  28     0  32  25     0  34  33     0   2   3    32  32  34    20   0   3     6   5  39     0   8   0     4   8   0    33  40  32     1   4   0     5   4   2    34   0   6    35   5   6    35   5   0     0   2   1     0   2   1     0   6   0     3   1   0
 33  37  32    26  36  32    40  12   8    32  44  40     2  12   1    32  32  41     4   0  18     6  32  35    30  32  29     2   0  25     1   1   4     0   4   1     0   0   0     0   2   1     3   1   8     1  11   0     0  10   8     0   0   0     0   0   0     0   0   0     0   0   0     6   0   4     1   5   4     2  24  25    17  27  24     8   0  16    10   2   0     9   1  32    10   2   0     8   2   0    12   2   0    12  10   0    14  26  27    30  22  26    34  34  34    12  12  12     0   0   0     0   0   0     0   0   0    34  34  34     0   0   0     0   0   0     0   0   0     0   0   0    34  34  34    28  28  28     0   0   0    16  17  21    12  12   2     0   4   0     1   1  27     1   5   5    37  36   8     4   4   4    36  36  36    40  32  32    32  40  33     0  69  72     0  66  64   130  30   6     0 146 130    10  18 135     8  16  50   130 100   0   136   0   2     0   0   4   151  96  12    17  96  44     8 104   8     8 120   1    12  17  36     0   0   2    12  33   8     0   2  10     0  34  16     5   2  16    18   7  16    21   2  13   152  33   6     7  88   2    44  16  32    64  48  16   168   0  88     0 128  16     2   4  16    38 136  18   142   4  70    40  71  68     0  43  20   104  27   2     0  16   0     0   2   0     2  18   0    37  32   0     1   2  67    25   1  56     3  66  48     1   2  16     2  14  49    16   0   0    36  76   9    32  72  74    96   8 105     0   4   0    24   4   1    11  43   0    24   0   0    25   1   0    48  16  81    32   0  66    16   8  83    56   8  86    25   1  24    17   3   8     6   2  32    25   0  40    20   0  16    16   0  10    13  32  50    69  32  51    57  42  11    36  48   6     3  20   0    38  18   6    38   1   6    52  33  18    70   0  28    66  16   5     2  48  24     6   4   0    20  82   5    32   4  32    64  64 101    18  64 100   132  64  35    16  33  16   137   1  32   128  45  40     3 124   0   130 115  32     2  50  28   118   2  24    32   0  95    16   0   0     0   1   0    81  65  40   147  33   0     7  72  34     3   0  58     4   0   0   151   2  17   135  82  33    18  80  32   135  20 114    13 132  98   138 129  90     0   5  96   140 101 108     1 130   0   141   6   0   140 128 112     4   2  60     0  70  16    72  28  20    72   0 112    64  66   0    65  64   1    17   2   4    11   0   2     8   8  22    40  34  25     9  14  21    16  16   4     9   9   5     0   0   2     4  12   2     8   4   8     2   0   0     0   0   0     2  28   1     0  32   7    31   1  30    31   1  32    16  34  32    37  39  34    36  39  34    33   4   4    12   8   0    13   4   8     3   8   8    33  36  42    32  32   0    32   0   5    33  46  40    31  33  36     1   1   0     1  35  32    32  34  36     0  14   8     0   4   0
 10  12   9     2  36  32    32  40  36    36  32  33    34  40  35     6   0   2    20  32  32    31   1   2    14   0  24     2  24   1    10   0   0     0   0   3     0   0   0     0   0   0     4   8   8     4   8   0     4   0   6    10  10  10     4   4   4     6   6   6     1   1   1     4   0   5     1   5   1     0   0   1     0   0   1     0   4  12    10   2  10    17  33   3    11   1   3     0  16   0     4   0  10     6   8   4    34  40  42    42  36  42    32  32  32    10  10  10     0   0   0     4   4   4     4   4   4    32  32  32    32  32  32     0   0   0     1   1   1     0   0   0    32  32  32    28  28  28     0   0   0    16  17  23    25  28   2     1   8  24     1   0   2    21  24  24     0   1   9    53  53  53     0   0   0    48  48  32    32  44  44    65   8   0    64  44   4     0  80  68   162 132 130    25   0 138    30 156   4     0 100  20   100  36   6   137   0  12   138  49   8     8   0   0    16 115  44    26 112   0    10   1  35    24  20   0     8   2  12     9   2  16    10   2  17     8   4  16    10   0  18     8  36   8   152   1  10    65 115  64    40  83  32    97   7   3   133   7  72    34 128  20    36 130  20    14   1  34   172  96   6    96   3   0     8   1   4    96  48   6     1  10   8     5  26   8    71  52   1    77  26  72     5   4  64     1  68   8     8  66  35    11   2  24    17  68  52     0   8  68    35   6  68     0  12   0     0   4  10    16   4   8    48   6  19     8   5  88    56   0  80    16   9  64    40  92   1     0  24  10    16  10   2     0  89   4    18  90  48    26  82  48    26  69  48     2  64   4    31  48  25     3  20   0    65  16   8     4   2  38    24  50   2    32  16   0     2  26   2     6   2   4     5   4   2    22  38  20    58   0  24     2  36  12    64  18  28    68 105   0    64  66  17     0  68  25   112  66 121   160  78 120     0  96  33   133  66  16   128 106  33    13  77  48    12 109   0    20  34  48    97  44  36    16   1  18     0   1  94    20  34  74    20  65  20     4 106 106    20   0 110   103   4   3   146  12  69    49   6   5    17 102  29   113   4  13   132  44  42     2  28 116     6  20   8   130 103  82   136 115 120   128 106 112   129  16 112   148 121 100    12  16 114    72  20   0    64  68  76     0   8   6    65  76   0    36  40  60    36   4   4    45   2   3    42   8   6    34  32  33     8   0  40     5  24  25    17  16   9     4   4  10     0   0  10     4   0   8    10   8   8     3   1   0     3   1   0     3  29   2    26  24   2    26  32  24    27  33   0    17   3   0    33   1   0    20  21  23    36   5   4     8  20  20     3   4   4    16  28  10    10   4  34    32  33  33    36   5   1     9  34  42     3   5  28     0   2  30    30   0  29    32   0  36    40   4  44     0   0   0
  0   4   0    81  67  64    16  20  16    54   0   2    34  32  35    32  36  35    34  32  32     8   0  32    14   0  24     0  24   1    10   0  12     0   0   1     6   0   9     7   1   0     3   9   8     3   1   4     1   7   0     1   1   1    13  13  13     6   6   6     0   0   0     7   1   5     1   5   1    18   8  16     0  18   9     3   7   8    10   2   0     0  42  34     6   0  11    30  16   2    20  16  26    18   8   2     0   8  11    18  16  19    33  33  33    10  10  10     2   2   2     2   2   2     0   0   0    32  32  32     0   0   0    35  35  35     3   3   3     1   1   1    33  33  33    28  28  28     1   1   3    18  16  23    10   9  26     4  12  22     0   0   0    31  24  16    16  16  20    20  20  20    16  16  16    48  48  52    50  34  36    18 112  97     3  78  72   140  24   1   134 132 129    10  20 149     0 152  92     3 104  13    16  44   9     8   2   0   154  48   4     0  98  16     1   0  16     8  98   1     1   2   2     0  19  19     1   2  20     0   2   1     3   2   0     8  38  16     4   4  10     0   2   0   138   0  78    64  91  35     8  19  51     0  10   1   128  10  61     0  98  49     0   8  36   140 106  56    32  42  10   100  16   6     1   8   6    96   0   6     8  32   2     1  32   8   101  10 104     5  14  56     4   2  36     1  69   0     0  17  36    16  52   5    87  44   4    80 104  68    98   2  68     1  12  76     0  10  28    32  71   0    28  98   8    48  99   4     1  42  33    33  64  33    16  10  35    16  36  20     0  34  35     0   9  56    27   9  49     2  56   0     9   6   8     8  22   2    80  21  32    67  24  16    40  56  16    48  42  16     0  43  16    28   4  16    16  14  25     0  32   0    36  38   2    34  39   4    46   5   0    10   3  16    41  98  16    68   5  18    72  38  64   112   4  71   112  66 113   129   0  96    21 130  16    20 132  48     1   4  11    12 100  41   143   3   0    22  64  16    81  32  12     0   4   4    65  68  84    32  36  24     8  64  17    12  36   1    76  16 101    48   4  23   128   4  51    97   8   3    96  74  26   103  66   9   130  72  43   130  12  48   138 113  30     0 117 112   137  48 121   128  65  16     1  34  96   132 100   0     0  64  42    72  64  36    64  65   3     0 108 110    96  13   0    32   4   8     0   0   8    32  51  14     4  45   7     6  35  33     6   0  33     8   0   2     4   4  16    24  24  30     1   1  25     0   4   3    11   9   8     3   1   0     0   0   2     0   4   2     2  24   2     3  25   8     2  24  24    11  21  16    19   5   0     4   3   1    32  33  36     8  17  23     3  12  10     8  16  30    32  36  52    34  33  33     2   2   0     8   3   0    24  28  29     4   2   0     0   2   1    28   0  29    32  44  32    32  32  32
 32  42  41     0  18  16    22   0   0    16   0   7    18  28  22    20  32  35    19  33  32    18   0  34    29   1  22     0  26  24    12   0   9     6   0   9     0   0   8     7   1   0     4   0   8     4   0   1     1   7   3     5   5   5    14  14  14     0   0   0     4   4   4     4   0   5     4   0   4    16  14  17     0  16  29    26  22  15    10   6   2     0  20   2   128 128 140    10  16  14     2  16   2     0  16   0    33  41  36     0   0   1    36  36  36     5   5   5     6   6   6     0   0   0     0   0   0     0   0   0     0   0   0    33  33  33     2   2   2     2   2   2    33  33  33    31  31  31     1   1   1    19  22  20    13  24   6     7  26  24    31  16  12     9  10   2    26  26  18     2   2   0    48  50  53     0   0  20    54  34  32    18  48  37     2  12   0    10  12   0    11 132  10     1 148 128    19 132  48     0 100  89   130  44  21     2   4  12   136  10  25     0   1  20    16  16   5     8   0  36     8   3  34     0   7   3    24   3  17    16   1   0     0   3   0     8  39   0     0   4   8     0  22   0     0   2  72    76  66  32    81   1  33    64  74  98   128  78  18    40  98  17     0   1  47     0   9  12     5  36   0    45  29  14     6  24   8    33  50   6     8  21   6    32  37  72    40  80   4    16  70  20    13  64   4    12   6   6    73  22  32    65  52  32     9  96  84    80  20   0     2   2   6    97   6  68    58  82  70     4   2   8     5  34  47     4  32  44     1  42   0     9  38   0     0   2   2     0  16   8    24  24   0     0  11   6    16  27  23    16  30  20    20  60  20    67  20  37    19  16   0    16  16   0    34  24   0    50  42  24    48  38  17    56   8   0    56   5  16    61   4  20     0  36   4     8   4   4    16  42  24   108  14  24     0  64   4   129  54 108   128   2   2   113   2   2    96   0   9   160  75   8     0   2  40   152   2  32     9   2  26   141 132  40   154  96  40    19  64   0     2  65   0    81   4   4     0   4 100    16  96  28     0  77  84    48   4   8   108  92  66    26  10   5    10  70  37     0   7   4   100  17   2    55  16  16    99  24   4    88  85   2   152 117 110    16  48  32   176 176 128   160  35  32    50 104  98     0  15   2    48   0   6    80   0   2    46  16   2     8  92  65    64   8   0     0  45  16     0   5   0     4  13   0     8   9   2    38   7   8     4   5   0    12   1   2     0   1   6     1   1   7     9   9   3     9   9   5     0   4   8     0   0   8     2   0   0     0   2   2     2   0   2     3   5   0     3   1   4     0   0   0    24  30  26    13   6  10    13   2   0     8   5   3     8  12  18    24  16   4     8   8   4    32  41  33    32  32  34     3   4   2    28  26  24     4  24   4     4  24   5    24  36  31    34  44  34    32  36  35
 32  32  40     0  17  16     4  18  16    19  16  18     8  22  22    49  52  50    17   0   4    33   0   0     1  27  20    25  25  24     8   2   9     6   0   9     6   0   0     7   1   0     8   2   0     5   9   0     6   4   4     5   5   5     6   6   6     0   0   0     4   4   4     4   4   5     4   0   0    20  12  17     0  12   5    32  36  36     0   1   6     0  16   4     0   0  12     0  18   0   128 132 144     0   4   0    16  16  24     0   0   1     8   8   8    20  20  20    26  26  26    24  24  24    16  16  16    24  24  24    33  33  33    33  33  33     2   2   2     2   2   2    32  32  32    30  30  30    31  31   1     3   0  30     4  32  22     0   2   0    16  16  20     1   0   4    27  26   0     0   0   2    18  18  16    66  64  68    70  64  64    66  80  64     2   0   0     0   8   0     4   4 133     7   0 128    15 129  45     2   9  76   138   9  28     3   4  28     0   0  20     0   0   0     0  16  36    25   0  32     8   2  41     4   0  17    18  17  17     1  42  16    10  34  16     9  38  15     8   4   2   128   8  70     0  96   4    36   0  53    72  66  34    33  16  64   137  12  11     8  48   7   129  24   8    36  32  11    69  28   0    41  29  77    13  12  12    41  80  75    33  20  68    32  69  50    32  87  50     9  67   0     4  52   8    13  52  22     5  16   4     9   0  33     0  66  48    17 112 121    25 114  64    68  31  17     7  34  44     0   0   5     5  30   8     0   1   8     9   0   0     9   4   0    24   6   1    89  52  32    96  49  34   104  10  16    97  16   0    81  50  33     4   2   0     6   9   2     2   2   0    48  24  16    34  16  16    32  46   0    48  40  17    36   0   8    80   9  36   114  36  36    12   1   6    28  66  28    80  40  48    80  66  12    13  82  14   144  32  66   149  18  36     1  18  14     0   0  12   129  42  46    24   2  24   153  65  34    17   6   8   152   5  51     2 100  27    17  64  30   130  84  10    17  68  52     5  76 116    97  64  16    36  20   1     8  36   0   100   8   5    38   8   5    72  10   4     2  17   0   103  32  17    37  10   0   109  50   1    64  64  72    42 113  72   146 129 130    18 136 130   145   8  33     1 104  96     1 100  96   105  20  32     9  32   6     8   1   1    34  96  72     0   0   0     8  36   0    40   9   0    44   1   2     8  46  32    10   9   0     2   1   0     4   5  16    16  17  18    25  16  18     0   1   5     8  13   5     3   1   2     0   4   0     1   1   0     0   2   0     0   6   2     2   0   0     0  26   8    24  24  26    25  27  24    16  26  18    24  10   4    14  24  22    10  24  12    32  32  58     0   3   1     0   0   0    32  34  40     1  32   8     0  28   4     2   4   4     0  30   1     8  34  10    41  41  42    32  34  35
 49  59  40     6  17  24     2   0   0    20   0   4     4   2   0     0   8  18     4  13   2    16  25  33     4   1   5    24  27  26    12   0  11     7   1   0     6   0   8     6   0   0     8   2   0     4  10   8     4   2   0     4   6   4    24  26  26    26  24  24     0  16   0     0   0   0     4   6   5    24  22  28    16  16  19     0  22   3     0   4   2    16  16  18    16  16   4     0   0   0   128 130 132     0   2   4     0  16   4    16  16  16     0   0   0     4   2   6    29   3  30    24   6  24    16   0  16     6   0   6    32   0  33    32  34  32     2   0   2    33  35  34    25   3  24    31   1  30    30   0   1    11   2  26    33  32  10    37   4   0    37  20  10    29  28  26     8   8   8    42  43  47    34  34  38    66  64  64    84  82  82    16   4  19    64  64  89    64  64  80   131  88 117     0 128  84   137  42  98   129 101  20   130  17  33     2   1   1     2  17  36     0   0   9    24 104  48     4   2  40    16 122   0    24  19  19     8   5  17     0   5  11     0   7  16     9   7   0     0   0   0   152  32 100    84  70  16    52   5  56    64  69  17    96   4  10     8   0   8    51  36   2    67  32   0    67   0  78    96  13   0    44  13  75    68 110  13     5  86  39    32  84  35     0  65  48     8   5   0     8  36  16    22   8   8     0  36   0     0  23  10    72   3  22    72  33  54    64  34  53    50  32  50    16  17   0     0  19  32     6   2  41    68  51  28    92  35  13    73  32  32     4   0   4    76  36  32    45   0   0    33   0   0    41  25   0    33  18   4    32   0   0    37   8   0    37  12   1    32   4   0     2   2  16    68   2  20    82  26  12     0  24  54   112  32  36    48  28  33    36  68  38    16   8  32    24   8   0    25   2   8    17  26   4    71   8  36    92  48 100    96   4   2    28  34   2   104   0   4   128  75  12     0  64  36   138  16   8   144  67  42    10   0  25   136   6  49   128  80  49   138  16  32   130  65  35     6   8  16    96  64  20    12  43  16     9  37   4    60  36   5     8  10   7    40  20   0    34  10  16    69  32  21    30  48   0    64  16  51     8  84  82   138   1  72     2  49  34    17 136 131     2  36  32   132  25   2    16 108  96    96  12   4     6  43  24    14  48  32    32   1  16     0   5   1    72  64  64     8   1   0     8  10   4     5  12   0    14  14   2    20  20  16    24  21   0     0   1   1    16   8   5    16   0   7    16   9   0     0   4   9     0   4   0     0   0   0     1   7   0     1   7   0     3   5   0     2   0   2     0   0   6     0   2   2    25  19  24     0  30   8    12   0   2     1   0  14    40  57  56     2   1   0    33  33   0    24   4  36    29   2  32     2   6  25     6   3  24    25   0   0    10  34  41     1   2   0    40  43  32
  1  10   9    19  20  16    17  20  17     4  18  24     5  16  22    16  16  48    28   0   2    16  24  28     0   1   2     1   0   0     8   2   0     0   0   0     7   1   0     7   1   0     7   1   8     4  10   0     6  10   2    19   7   6    27   1   0     0   0   2     8   0   8     0   8   1     8   8   9    16  12  19     8   0  10     8  16   8    16  20  18    17  21  26     0  16   6     0   0   1    38  32  34     0   0   7    26  16  29    16  26  20     2  12   4     0   2   1     6   0   4     0  32   6    28  32   0     0  32   4     0   0   1    34   0  33    32  32  32    32  34  34    24   0  24     6   0   4     4   0   6    16  32  25     4   4  16    16  16  16    16  16  24    29  28  10     8   8   8    32  33  35     0   2   0     0   0   4     2   0   0    83  82  64     9  10   8    17  24  24    13  10   0   152 132   4     7 128  46     0   5  58   138  16  42   128  16   8     0  16  36     0 112  32     0 112   9    16  96  17    16  98  49   138  46  16   128  34  24     1  42  25    12  36   0     9   2   2     0   0   2   144  40  64    80  64  17    64   0  48    91  70  81   105  37   8    10  36   0     9  40  74    73  45   8     8  74  46    74  11   0    34  26  46    64 116   3     0  18  14    17   2   5     0  64  18     2  14  18     2  37   8    18   8   0     5  32   2     0  33   0     0   3  14     2  17  44    84  16  51   104  56  49    84  34  33    64  61   2   114  23   8     2  56  10     0  54   1     0   4  28    76  34  12    76  34   0    13   0   0     0   6   0    37   3  16    33  17   0    44   2   4    32   2   0     2  10   0    96   6   0   104  66   8     6  86  28    73  78  28    82  98  12    17  66   8    66 104   9    68   4   6   107   5  46    10   2  34    26  66  49    23  50  32    19  48   6    93 112   0    97  32  19    20  34   5   101   0  17     1 110  12   130  50   0    40  96  16   112 101  25    24  97  27     0 101  40    10  40   1    10  42  33     0 113  52    96  66   4    96  16  22     1   1  20    56  32  16    32   0   4    32  13  16    32  18   0     1  14   1    67  14  37   115  32  36     2  70  45   130  80  48   130 136 113     0   9  98     6  24   4     2   1  16     0 153 129   147  17  12    12   1   6   103  96   4    39   0  52     4  35   4     0  36   1   112  64  72    19   6  43    34  32  43    54  42  25    14   8  17    18  12   9    18   5   8    18  24   8    10  19   2    16  29   9     0   8   0    16  12   4    14   4   0     0   4  13     0   2   0     0   0   0     1   5   0     1  29   2    28  28  28    25  31  24    24   8  24    14   0  27    12   8  70    12   0   3    11   0   8    34  32  37    32  37   0     4  36  32     0  26  32     5   2  32     6   2  33    25   2  32    38  33   0     0   1   0     2   3   0
 11   8   5     5   4  17    17  20  24    21  20  26    21   0   2    11  16  48    14   0  18     4  13  27     0   0   4     0   0   0     0   2   1     2   0   0     7   1   0     1   1   8     1   1   0     4   8   0     4   0   1     8   0   1    24  16  16    20   0  27     0   0  17     2  16  25     8  16  17     0  20  16     0   4   0     8  12   8    10  12   8     3   5  10    20   0   3    99   1 114     4  32  19    22   0  11     8  16  11     8  30  13    26  28  28    26  32  30    30  32  31    30   0  31    32   0  32     0   0  33     0   0   0    32   0   0    34  32  34    24  26  25     2  24   7     4  32   5     4  32   6    10   0   8    28  27  24    16  16  16    24  24  24    28  28  26    28  28  26    33  33  33     2   2  36    33  33  19     1   1   1    18  18  16     2   2   0     1   2   5    65  66  65   136 140  20    13 143  32   129  52 104   128  97   8     2  96  65   137  25   0   138 120 105   128   8  40   138 100  32   154   0  48     8  45   0     8   1  16     1   0   1     1   0  28     9   2  17     0   2  13   132  32  64     1  96  64     1   0  68   131 105  98   138  40  28     1  33   8    75 104  18    72  72  12     8  62  14     8 117  36     9  64   3     0  32   2     0  48   6    13  54   4     0  34   1     3  37   0     0  33  56     2   5  40     0  33  56    16  16  42     8   1  14    72  16   0   104  19   4   116  26   2    16  43  32    26  40   8    66  15   8     2  22  19     8   1  26     8   0  31     9   8   6     0   6   2    36   0   0    67   5   8    72   2  25    64   3   0    64   0  13    80  24   5    41  64  13    47   4   1   106   0  88   102   1  76   130   0  66     3  18  73   128  36  74   130  37  88   136  48  10    24  18  67    64   6   0     3  50  36     9  57   4    28  48  16    11  64  48    26   5  16    88  64  84     2   7   0    32  76  16     0   2   0    97  42  17    24   3  18   122   0   3   120   2  16     8   8   1   134 102  33   130  20  41    96  68   0    34  33   4     1  33  22    32   4  23     1   9   4    24  12   4     2  10  14    16   1   0     3  66 117   129   3   5     0 132  26     2 112  16   130 104  21   129 112  26   128   2 103    13 144   9     5  16   0   147  56  40   151   1  68    38   4  64    98  68   1    32  19  24    66  65  64    16   1   8    16   0   8    20   2  13    16   8  27    20  18   4    14   2   2    10   7   0     2  22   1     2  10   8    34  16   0     8  10   9    26   1   1     2   0   1     2   0   1     0   4   1     0   6   1     0   4   0     8   4   8    15   5  12    10  28   8    25  23  24     0   0  25     1   1   8     2   0   9     0   0   0    32  36  36    34  37  36    27  24   0     4   2   0     0   2  32     0   2  32    28  30   0    32  33   1     0   0  12     2   2   1
 35  32  13    21  28  41     1   4  11    21  16  24     0   0   0     1  48  52     8   0  36    30  24   0     0   2  20     0   4   4     0   0   1     8   0   0     0   0   9     2   0   0     2   8   3     4   2   7     0   2   2    16  10   0    28  16   1    30   0   1    10  16   1    10   0   1     8   4   0    10   0   4    10   8   9    10   8  13     8   8  11    26  28  26     0   4   2    50  36  48    36   0  55    34  32  48    28  12  20     1  29   6     1   7   6     5  25   4    24  32  30    28   0   0    32   2   1    32   2   1     2   0   0     0   0   0    34  36  34    24   0  25     2   0   4     4  32   1     0  32   4     0   0   7    12  24   8     4   0   8    28  24  18    20  20  20     4   4   0    21  21  21    17  17  17    21  21   3     0   0  32    36  36  36    79  77  69   108 106 100    69  68  68     4  12   0     0 128   5     1   0 112     8   0  16   170 145  74    42  99  40    10 144 106   154 100  10     0 118   3   129   6  32   152  50  48   152   6  32     3  16   4     0   2   6     0   0  29     1   0  14     0  33  20   146   8  69    17  97 119   139   8  32    51  43  22    98 104  64    64  12   6     0  42   5    73  48  32     9  48   0     0  24  10    80   4  41    84  18  33    84   0  32    76   0  32    75   0   0    64   2   0    82  33   1    72   1  25    16   5   8     8   4  12    88   0  28    24   8  16    12   0   2    16   8   0     0  14   9    10  14   8     0  78  84   136  69  88   130  96  82   128  64  89     0  84  73     0  97  50    67  96   2    68 101  16    64  69   8    72  64   4    64   1  65    64   8  64     0   0  16   144  26   8   136  58  28     4  32  16    23   2  22    16   4  26    18  15  26    24  14   8     8   6  10     0   4  35    69  96  21    15  72  16    22  16  20    28  76  19    58   1  64     1  76  51    64  37  68    64  32   2   104  33   6    18   0   2     3   0   0    98  36  25    97   5   1   134  22   1     0 112  96   130   0  12    71  65  72     5   1  12    10  20   6     1  21   5    33   1  85     8   8  64     0  16   0    69   8   1    34  64  64     7  30   2     0 132 118     3   4  16     3 116   3     1 114   2     4  96 112     8   8 112   129  17   6    88  80  73    80  82  79    40  32  35    96  64   0    96  66  12    32   3  12    70  82  70    64  88  71    81  16   1     7   8  17     7  23  18     4  20  17     1  26  24    26  28  25     2  13   1    16  16  24     0   0   0     2   8   6     4   8   0     8   0   9     0   4   0    24  26   3    16  28  24    20  24  20    20  24  20    20   0  16    16   0   1     0   0  17     2   0  13     2  16  20     8   4   8    32  32   1    34  40  13    24  28  29     4   7  29     4   0  28     0   2  32    28  29  33    32  32   0     0   2   8     4  10   0
 11   0   0    32  44   0     0   1  10    34  36  32     2   1  12    19  32  44    18  36   0    12  28   6    28  29  15     2   1   4     0   5   2     2   0   1     2   0   9     6   0   1     2   8   3     4  10   4     0   0   0     8  26   9    24  16  25    28   2  29    12  22  28     5  29  24    13  21  16     4   2   0    12  10  15     8  12  13     2  24   0     0  16   5     2  52   6    51  49  54    13   1   6    14  36  18     0   6   0    24   0  24     0   2   0     0   2   6    25   3  26    33  33  34     0   0   1     0   0   1     0   2   0     0   2   0    34   0  32    24  34  32     0   0  29     0  32   3     2   0   4    26  32  31     4  36   1    24  28  18     4   0   2     0   0   0     4   4   4    20  20  20    20  20  18    20  20   0     5   5  33    44  44  36    32  33  32    96 104  97    72  72  64     1   0  72   129  44  85     1   4  27   128  66 112    11   0 112   154   8   0   144   8  64   147  97  32   155   1  32     8 103   2     1  18   2     1  97   0    17  20  36    17   0   4     0   4  21     1   2  12     1   2  20     2  41   2   150  41   0    29  32  19    78   8 106    82  72  30    97   8  18     0  48  14    65   8   4     0  16  32    72  58   6    80  18   0    48  25   0    56  17   0     8  27   1    64   8   0     0  44   4     0   0   0     0  50  16    80  49   9    24   0   8    24   9   5    48  64  36   128 113  70   128 108  64   160 108  65   169  72  80    24  69  65     8  68  89     0  68   8     8  48  59     0  32   0   128  33  26   136  32  82     2  37  64   128  32  76    10  44  16   128  40   0   144  49   2   128  47  21    16   9  11    13   2   8     6  18   8     4  16   2     2  18   8     2  22  11     8  16   9    16  18  17   128  44  74    66  78   0    34   9   9     0 100  12    16   5   1    16  68  50    16  64  34    10   1  64    16   8  64     8   0   0     0   8   2     0  16   0    36   4  16     1  33   1   129  21  32     0  96 104   131  17  40    34  80  73     2  48   7     2  36   2    53  13   4    49   1   1     8  24   4    40   2   0    72  18   4   128   0  84     0 100  23     2  20  97   129   0   6   129   0  20   141 114  30    11   6  28     0   0  26   140 118  41    88  52  11    60  34   1     8   2  67     0   5  64    99  66 106     2   2  64    86  66  73     0  16   1    80  80  65    16   2  17    16  24   0     5   8   5    11   1   0     8  22  29    24  11   9    24  24  27     4  13   0     8   0  27     1   5   0     8   6  10    12   2   8     2   4   1     2   0   1     4   0   4     7   9   6    16  24  17    16  18  17     0   2   5     2   4  17     2   4  19     2   4  35    32  32  18     0   2  13    26  26   4     0   1   1     4   4   2     0   1  31    28  29  35    32  36   0     1   0   8    38  44   8
  9  12   8     1  12   1     1   0   9     7   0  12     4   4   8     2   1  41     4   4  32     0  16  32    24  24  16     4   0   0     0   1   5     1   1   0     8   0   3     0   2   9     0   8   4     4  10   1     0   0   1    16  18  17     8   6  12     4   4  12    24  20  19    27  21  16     0  20  16     8  20  20     1   7   0    18  20  29     8   0   0    18  20  17    18  36  25    16  20  19     4   4   3     0   4   7     0   6   0     0   4   0     1  27  24     0   4   6    24  26  26     0  32  34     1   1   0     0   2   3     2   0   0     0   0   0    34   0   3    32   0  33    30   0  29     2   0  31    30   0  28     2  32   9     0  32   1    24  24  22     0   0   0    32  32  32    36  36  36    20  20  20     4   4   2     0   0  12    12  12  24    13  13   5    13   8   5     1   0   0    68  68  64    69  64   0     0  68  65     1 134  16   136  42 114   141 128  96   148 112  96   130  64  50    16   0  10   136  19  33     9  19   1     8   0   2     1  16   2    20  22   2     9  98  48     8   4  16     9   0  24     8   0   0     2  44  16   142  34   4     7 100  96    20 102  64   116   0  16    80  46  18     8  38   6     1  10  17    81   0   2    80  56   0   113  24   8    10  24   0     8  25   0    12  24   0     0   0   0     4   0   1    34  41   1    16  33  32    36  48  34   148   0  48   188   0   2    32  72   0    40  69  69    33  68  61    32   5  17    43  74   4    33  76  17    13   6   9     0  20  40     2  18  32    10   6  18     0   1  26    28   4  12   158   1  14   147   4  12     3   1  14   128  12  16     0   1  10     0   2  16     6   0  10    17  22  17     1   4   0     6  18  26     0  18   8     0  18   9     0   2   9    25  26   1   137  43  90    64  97  19     2   3   8    32  79  40     0  65  16     0  39   4    20  65   0     0  32  38     0 116  38     8  81  64    42   8  64     2  16   8    33   7   0    96  18   9     1  37  42   130 112  34    37   1  38    39 113  38     0  16  10     2  52  34   109  25   5    31   1   1     1   1   9    32   0   0     4  72   0   128  20  64     0 128  98   146  16  98     5   4  16     1   4   2     0 116   0     6  12   2     4   6  10     8  21  24    72  22  34    28  53   2    64  36  65    40  41   2    64  64  64    24   8   0    84  82 115    85  80  80    66  64   8     5  32  32     5  48  32     9   8   0     9   0   4    25  18  20     8  14   1     0   4  17     0   5   0     0   4  18     0   4   0     0   8   1     0   2   1    18  16   2    19  21  20    23  21  20    21  23   4     5   5  22     0   2   1     2   8  13     2   8  35     8   0   1    40  12   2    10  36   3     8  10  29     2   2   4     0   1   1     4   5   3     0   0   2    29   4  34    37  32   0     1   2   4    46  46   8
 34   0   4    35  36   5     5  36  37     6   5  12     4   1   8     4   0   4    17  18  38    13  28  38     5   0   4     3   0   6     2   0   0     2   4   2     0   0   3     8   2   2     0   2  10    16  24  25     0   8   8    16  17  25    16  20  17    21  16  20    18  16  19     3  28   8     1   0  16    29   4  32     0   1   0    16  32   1     6  17   0    18  32  19    21  32  20     0   5   6     4   1   8     0   2   0     0  32  36    33  34  36    25   2  32     4   4  24     5  30   0    29   1  32    32   3   0     0   2   1     2   2   1     0   0   0     2   0   3    32   0   1    28   1  32    28  32  32    30  32  33    20  32   0     2   0   0    34  34  32    35  35  33    33  33  33     0   0  52    16  20  52    16  16  26    22  18   8    10   9   0    28  28   0    13   8   7    18  22   6    20  20   8     2  17   8    64  64  72   160 128  88   129   8  68     1 138  96   133   0  48   140   0  32     6 129  25    16  34  35    20   0  23     1   1   2    16   0  34     5   1  22    24 128  16     3  98  36     0  34   0     9   6   0     6  64   4   134  33  16    88   4   0    25  69  48    84  39  48     4  43  16    32  35   6     2  40  29    88  32  15    66   0   4     9   4  10    42  74   0    42  72   9    24  74  64    17 122  69     8  40  76   128  35  68   165  57  80    37   9  86    36   1  98    48 138   3    16   4 104     0 112   4    33  12  40    49  96  32    51 109  97    32   1  97    16 102 100     0  98   4   144  32   9   153  35   8   138  32  94   128  36  76     4  40  66    15   0  88   105  32   0     7  36   8   130  17   8    16  18  20     2   0  30    26   0  33    12  24  20    16   0  24     4  18   0     4   0   3     0  18   9     0   8  26   136  43  72     0  43  70    35  13  49    33  77  48    32  73   8     0  41   2     5  16  33     9  32   2     1  80   0     0  80   2     0  94   0    32  28  74    33   1  66    33  19   0    65  21  32   120  34  34   114   0  41   114   2  37     6  18  33     2  97   0     1   1   8   100  76  33    12  36   3    96  44  32     8  64  49     1 135   0     0   2  31   145 147 103     0  16   8   156   0  10     1 112  16     0   8  16     5 122  16     4  22  11     8  20  24    32  36  32    73  96  44     8   0  14    32  36  48     8   8   0    89  80   1     1   0   8    16  16   8     1   0   2     9   0   0     9   8   4    24  21  20    16  26  23     1   7   2     0  16  18     0  21   2    20  20  17    29  23  24    21  27  16     5  25   4     1  25   0    18  24  16    21  17  20     5  11   6    16  30   2    32  32  34     2   8   9    32  44  34     0   8  18    34  32  18     2  32   4    18  10  25     2   0   5     0   2   0     4   4  30     0  28  32     5  36   2    33   0   0     3   0   6    11   8  14
 41  32   2    33  32  37     0   0   6     0   0   0     0   0   4     0   0   4    17  10   6     1  24   2     4   4  30     2   5   6     0   0   3     2   4   1     2   4   0     0   0   2    10   0   2    18  24  25     0   2   0    16  22  17     2   4  20    27  26  16     1   0  20    21  36  32    21  22  32    17  33  32     3   9   0     2   1  32    18  10   1    19  20  34     2   1   8     2   0   0     6   0   0     3   0   2     1  34  36    33   0   4    32  34  36    24  29  25     5  29   0     5   0   0     3  34   0    34   0   0     2   2   4     0   0   0     2   0   3     0   0   3    34  36   2    28  34  32    28  37  33    23   7  38     3   3   4    39  39  33    32  32  32    33  33   1     1  25   1    16  22   4    26   0  24     0   4   4    16  25  14    16  20  16     0   0  16    20  20  16    76  84  66    16  19   2     1   0   0     1   8  80    64  72  64     0 139  86   128  72  66   128  74  97    18 136  98   114  44  33    28   4 101   132  10  96    16   0  67     2 128  20     2   0   0    16   0  16     2  92  12   129  46   8   132  71   0    68  10  81    69  22  36     0  55   0    76  18  32    14   5   0    40  35  11    72   2  21    64  96   0     1 100  32    38  64  82   129  68  80   142  78  51   130  72  34   169  74  40    32   2  51    33   9  57    35  18  96    33  26  22    50 138  96    16   3  18    16 133   3    48 132  83    32  64  32   189  68  17   186 103  33     9   1  53     9   5   1   139  54   0   128  33   0    97   4  86   109  12  88   100   7  36   109   0  86   110   0  86   100  32   0   112  32   0    28  48   8   156  16   8    16   4   0    18  14  32    19  28  16     0   0  16     4  18  25     4  16  16    20  18  24     0   1  28   129   1   0    97   1  76    35   9  49     3  75  32    65   8  33     2   8   0   111  56   8     2  16   2     2   6  34    12  88  43    22  76  80    16   2  75    34  18   0     1  11  82    48   0   0    56  40   0    25   0  35    18   0  33    97   0  32     8  96  13     8   0  33   108 100   1    26   0  33     2   0   1   128  12  98     1 143 112     4   2   8   144 128  17   129   4   8   137  96   0     0  16   0   132 105  51   135   8  16     8  17  14   109   0   0    49  36   0    97  69   8     1   0   0    96  97  32    48  57   0    48  56  32    49  48   2     2  16  11     1   2  10     1   4   0     8   3   0     8   0  16    24  17  18     1   2   2     0  16  16    16   6  16     2   0   0     2   1   0     0   6  17    16   0  16    19  17  18     2  64   0    85  69  84    81  71  84     1   5   2    37  37  38     8   4   3    14   8   1    10  12   8    18  32  27    24  32  26    24   8  29     3  20  30     2   6  28     1  28  34    29   0   0     2   0   2     0   0   4     4   4   2     8  11   4
 37   0  32    36   2   2     0   0  34     0   1   6     0   0   0     1   2   6     0  18  38     9   0  30     2  12  30     0   0   6     0   0   3     2   4   3     2   0   3     0   2   2     0   2   1    24  24  25    24  16  24    16  16  32     0  16   2     2   4   0    20   0  22     5   2   0     4  32  36    40   0   8     0   2   0     4   0   0     3  16   0    11  16  32    16  20 152    16  16  32    16  21   1     1   0   0    32  32  32     1   0   2     0   1   3    36  33  35     4   0  10    25  36  10    34  34   0    34   1   1     0   0   0     0   1   1     0   3   3     2   1   5    32  38   4    28  39   1    30   1   0    17   1  36    36  34  36    38  38  38     6   6   4    37  37   3     0   4  38    24  25  36    24  11   2    24  18  28    18  18  26     4   5   8     0   0   0     6   7   6    12  17  18    24   9   0    72  65  65    64  64  96    40   0  12   128 131  64   128 128  65   144   0   4    16 136  96    60  10   0    29 138 101   141   8   0    24 128  38     5 128  26    18   0   1     0 132  16   128  68  32   131   6  96    94  16   2    88  65  41    25  16  36     8  49   1    79  16  36     2  16  32    77  33   8    64  65   0    97   1  68   170  72   0    44  12  48    41 132  32    35 132  26    48 128  18    24   5  10    12   1   2    28 130  11     1 129   0    53 137  96    55 135  96    34 129  35    34   1  35   176  97  16    34  44   4   146   4   0    26  56   0    25  20  32     3   1  21   129  40   0    34   0  20     8   6  64    11   6  48    15   6   0     0   0  52     6  24  17     4   9   2   114  16   0    16   1   8   128   2   8    24  24   0     2  24  38     2  26   0    22  32  16    16  16   0    20  32   2   132  33  90   136  32  66     1  32  77    96  16   0    49   4  13     3  88  33    75  32  57     0  40  32     0  40   8     0  24  10     2   4  34     0  88  11     8  64  65     6  72   1     6  24  65     0  84  66     9  28   1    16   6   0    24  44   1    16  12  20   104  38  21     0  96  33     8   0   8   104 100   0   118 100   1    10   4   0   130 132  17     1 134   0    16 128  96   128 132 110     0   6  50     8  98  32   144 104  33    28   0  36    98  16   3    20  48  41    14  52  36    13  53  44    46  36  80   104 101  44     8  68  64   104  40  96    32  48  32     0  18  64     0   0   6    64  64  64    64  66  64    64  64  64    72  69  64     8  72   4    16   4  48    24  10  48    25   2  10     1  11   8     4   7   0     5   3   0     2   0   2     7   1   2     3  73   0    74  64  66    65  77  72    12   6   6    60  18  54     8   6  11    28  20  18    16  16  16     4  20  12     0  16  14    11   0   2    28  27  28     0   3  29     4  24  32    28   0   0    26  32   2    32   0   4     0   3   1    40  35   0
  2  41   0    48   0  32     0  20   0     0   0  16     0   1  36     1   0  36    33   0  32    17  16  24     3  28  12     2   5   0     2   0   0     2   4   0     8   4   3     2   0   0     0   0   0    16  24   9     8  24   0     0   2  18    19   8  38    12   6  34    10   0  16     4  32  56    38  21  25    52  55  49     2   4   0    30   6  16    19  18   0    27   2   0     1   0   6    41  40  56     0   0   0     1  16  26     2   0   0     3  38  34    34  34   2    32  32   2    36  33  35    39  36  32    34   0  12     8   9   5     2   0   4     0   1   1     0   0   2    33  36  34    32  33  33     2  49   5    40  45   1     1   2   0     3   6   4     7   7   1    34  34  36    32  33  32    32  28   4     1  24   4    25   2   0     9   8  28    10   0   8     0   1   2     1   0   3     0   1   0     8   9  26    16  17  22    34  32   2    17   8  36     0   1  69     4  97  45     0   0  13   144  10  97    16  10   4   152 139   4     3   2  96     0 112 100     2 120   7     4  16  10     0 130   4    10 130   4   147  48  32    43  21  32    46   0  64    20  81   2    24  24  37     8  51   0     8   4  32    20  50  32    84  57   2    16 115  68   184  74  36    32 128  34     6   8   0     3   4   1     3   6  11     1  10  11    32 129  18    32 130   8    16  18   2    19   0   0   128  64  34    10  83   0   130  91  33   148   1  33   144   1   1   112  33   5   100   7   2    10  34   2     1   4   2     9 100   0     0  40  20    34  64  17   103  16   4     0   2  60     0   8  52    13  10  22    98   0  64     0   0   0   132   1   8   152  33  24     0  20   0     1  16   0     1  34   8     4   5  10     4  50   8     9  20  17   128  40  32    13   4  26   129  41  10     2   6  70   126  23   0    38   4   5     6  86   1    90  42  48   112  40  16    64   0  40    20  12  28     5  69  28    34  20  68     2  80  69    34  86  72     0  76   3     0  80  11    43   8  19    16   0   3     9   8  19    16  46   1   104  58  18    64  54  29    10  16  12   104  16   1    10  96  25   140   0  57     2 136  99     0   8  96   137   4  12     2   6  14   115   2  46   120   6   4   112   4   9     0  14  17     0  56  18     6  52   4    20  16  36    28  53   8    40   8  32    64   0 113   106  96  41    32 116   3    16   0  65     0  32  66    18  16  64    80  66  66    72  82  72    64  77  64    72  64  65     8  64   6     4   0   7     0  10  10     8   9   9     0  13   9    20  19  16    12  22  16    20  24   4     7  25  22    21   1  20    28  12  28    12  12   5    12   2  10    28   6  20     0   8   3    17   7  18    16  26  16     5   7   4    28  22   6    21  24  16     4   0   4     0   4  28     4   4  32    27   0  32    13  38   0     1   0   6     0   0   0    40  41   4
 33  34  34    32  34  34    32   1  34    32  33   2    20  17  34     4  16  36    25  20   0    11   8   0    25  28  18     0  24  30     0  28   4     0   6   5    10   4   0     0   0   0    11   1   0    24  25   8    24   8  17    44   0   2     7  10  22    44  37  33     8  32  36    32   0   4     0   3  15    36  39  11    22  23  43    16   4   0     3  16  24    27   0  16    17  16   0    56  58  62    76  79  19     0   2  14    18  19  23    18  23  19    32  35  59    35  32  40    32  33  33    39  36  32    36  37  41     2   1   5     2   1   9     0   3  15     0   0   8     2   1   1     8   9  25     2  32  52     0  40  36    34   0   4     0   0   2     0   2   2     0  38   4    32   1   6     0  28   0    25   0   0     8   0   4    11  10   0    26  24  20     2   0  32    24  26  18     2   2   8     0   0   8    34  33  20     2   1  12    34  32  36    26  16 102    64  38 100   148 130  96   128 114 101     4   8  16     0 129 128    11  10  96    10 104 100    10  14   2     0  16 106     0 112   0     1   0  96   130  32  32     1  48   1    14  16  97    64  72  32    24  16   3    25   0   3     8  50   1     0  54  32    74   9  33   176   1   8    48 130  52     0   3   0     2  11   0    17  12   2    16   0   2     0   0  24    52 130   2     4 113   8    18   3   0     1   0   2   139   0  34    13  86   2   143   2  32   132  98  44   116   1   5     4  33   1   104   2  19     1  34   0     0  99  34     3   0  22     0 104  48    41  72  21   103  10  16     6  26  30     0  10  70     5  14  10    97   6   6     0  36   6   129  40   4    16  16   4    16  17   8    16  16  18     0  36   4     8  14  18     8  45  32     4  12  10   142  45  16    10  13  72     5   4  98   119  20  74   102   0  66    54  92  32    14  24  42     3   8   8     0  32   0     0  56   8     0  64   8     5  17  12     2  16   8     3  89   0     0  28  13     0  76   1     4  76  67    17   4   0    48   4   1    24   4   2    16  34  16     0   4  16    68  52   4   131 126  53    97 116  32   131   1  21   139   0  56   139   6  28   136   8 101   120   2  37   123 100  18    19   0   0    16  32   8     2  32  27    12  28   0    14  25  16     8  25   1     8   0   1     4  16   2     4  40   0    64  80  16   100  64  49    96  90  99    80 112  98    96  64  64    18  16  64     1  18   0    24  24   8     9   8   6     4   8   5     0  13   4     4   8   7    33   3  33     1  20  16    20  29  24     8  12   9    12  10   9    24  10  26    24  28  27    28  22  22    24  14  26    20  12  28     8   4  12     0   0   1     0   0   7     1   3   4    16  18  20     4  14   0     1   1   4     5  10   2     8  12   0     8   8   0     0   1  27     2  25   1     4   0   2    40   0   2     8  10  12    33  34  36
  0  32  36    16   0  20     1  48  53    33  32  36    32  33   0    38   0   0    13   4  32    11  40  36     2   8  34     0  32   3    24   3   2    24   2  25    18  28  24    19  29  24    17  25  24    18  24  16     8   1   1     8  10  34    40  35  39    42  41   1    41  32   0    56  57  57    34  38  50     4   5  41    18  20  56     8  14  50     0   4   0    11  12   0     8  14  18     1   2   2     4   2   2    38  32  32     2   0   4     0   7  11     0   0   0     2   1   9    16  21  57    36  33  17     2   0  32    32  33  41     0   0  12    10   9  13    33  38  42     0   0  16     0   1  25    32   0   0    40  40  36    16  32   4    35  34   0    33   1   1     1   2   3     0  30   0    27   6   0     0   0  32    10  10   0     8   8  22     3   0  10    26  25   6    26  24  24    26  24  24    26  27   4     0   4  28     0   1  36     1  12   7     1   4   5     1  16  92     1  96  17    16   2 113   145 130 100    16 137 129     8 152   5     3 120  97   128  16  14   139 122 108   129  18   8     0  96  96   130   0  32   128  16  33    80  32  97    64   4   5     0  64   6     9   1   3     0  27   3    73  15   1    16  91  67    10  78  22    40 133  16    18   2   0    16  12   0     1   1   6    16   0   5     1  10  20    38 130   0     0 112   0     4   1   2     9   0   6   141  40  32     9 120   5   129  88  36   132  96  40   117   2   8     8   2  22    16  10   2    24  97  20   128   5  18    17 132  51   184   0   0    16  40  17   103  16   0     6  24  72     4  16   0   100   0  78     0  36  10     4   5  14     1   5   0     4  97  24    17 113   0    18  16   1    16  37   0     0  99   8     0  69  40     8 105  42     8  60  14     2   9  26   137   0   8    16  38  10   100  23   2    45  70  74     3  16  34    17  56  11    16  64  48    17  33   0     0   0  48     1   9   8     2   0  40     3  80  32   100  64   4    66   0  64     0  80   4     0  66  72    32  80  85    48  38   1    32  44   0    48  37   2    72  68   4    37  96  92    45 104  40     9 140  84   129 102  86   134  14 100   132 109  32   103   0   4    17  38  22    24  40  16    32   2   0    48   5  11     0   2  25     4  21  16     4  25   0    42  16  64    48  36 112    48   0  80     5  88  43    15  51  35    39  17   3     6   2   4   114 112 100    17  16   6    16  16   6    18  16   8    17  24   2    24  20  18     0  13   5     1  12   0     0   8   2     3   4   3    22   5  19     8   7   9    12  14   0     8   2   8    12   0   2     4   0   4     1  13   6    12   8  13    20  30  25    12  14   3     4   0   0     4   4   4    17  21   0     1  15   6     8   2   4     8  10  13     0   1   4     0   1   5     0   1   3     1  24   0    16  21  35    43  40   0     8   9  11    34  40  44
  0   2   4    33  32  45    32  34  36    37   0   4     0   0   6    13  32   0     8   0   0    32   0   0     5  32   2     3   0  32    31   0  32     4  34   2    33  39  36    34  44  36    35  45  32    16  25  32     0   1   7    32  32   1     0   1   1     0   4   1     0   0   8     0   0   4    34  35   6    34  32   7     6   3  34    11   0  34     4  16  21    32  36   8    22  29   8    32  32   8     0   0  16     0   1   4     0   9   1    64  68  83     8   8  11     1   4   0     8  11   1     8   1  19     6   5   0     4  12  32    34  38  44    40  43  38    36  39  10     0   4   9    32  36  40     8  32   1     2  32  36    19   4   0     2   8   0    30  30   0    31   2   3     2   2   1     5   6   2     1   0  32    10   8  32     8   8   6     3   2  16     8   8  22     2   2  24    18  16  16    18  18  16    10   8  28    19  23  16    26  28   7    25  26  29    19  24   7    32  32   5   129  16   4     1  18   0   128   0   1   131 112 101    50 112  97     2  22  35    36  49   2    68  34  27   136   9   4    16   0   1     6  62  33    66   0  13    16  64  12    25  72   1    11  40   3     1  65  33    67  77   0   128   3  81     2  14  16    48 134  34     0   6   0    16  12   0     0  11   2    20   2   4     0   0   4    40 129   0    12   1   0    26   1  10     4   8   2   141   8  36    11  44   5   136   0  44   151   0  32   112  12   4     3  33  18     1  33  17     1  97  17   160   1   2   155   8   0     1  80  22   118  32   0     6   8   1   101   8  96     5   2   0    97   0  74   145  49   2     0   4  27     0  96  14     0  97  36    24 112   0    24 113  32    16  20  32     0   0   0    32  12   2     0   9   8     0  16  44     0   2   6     3   0   3     3  32   1    98  32   0    16  64   9    19   8  49    17   1  14    17  65  35     0   0  38     0  16  44     2   0   4     6  64   9    92   0  41    92   5   0    88  14   4     6  72   6     2  18  64     0   0  73    40  64  72    96  65   4    17   5   0   132   0   6   161   0  82   128   0  62     1  16 140     7  16   8     5 102 100   104   4   4    16   8  19     9  32   4    16   8  30     8  27   0     0  18   0    32   8   1     4  13   0    44  70  80    14   0   8     8  64  32     3  81  72    12  17  36    13  27   5    41  35  36     4  50   4    36  48   0    18   1   0    18   0   4    18  18   4    16  24   4    17  24  18    17  28   6     0   1  18     1  17  20     0  21  16     4   4   5     4   0   5     8   2   0     1   5   0     4   2   8     4   0   0     0  12   0    12  18   2    26  16  31    12   0   0     0   0   5     0   0   7     4  16   4     9  15  28    28  28   0     8  14  14    16  16   4     9   8  24     0   1  17    24  24  34    26   9  41    40   0   4    40  32  12    32  32  32
 32  33  40    48  49  62    49  48  35    32  32   5    32  32   5    14  33   5    36  33  33     9   2  36    15  32  32     1  32  36     1  32  34    33  35  34     0   2   0     2   0   5     0   4   1    32  36   0     0   0   7    34  34   3     0   0   2     2   0   0    32  33   8     2  32  41     2  24  45    25   2  36     8  10   4     8  16  20    48  49  16    40  37  48     0   1   0    32  32   8     0   1  22     4   0  16    14   8  13     4   0  25     1   4   0     8  12  11    16  21   3     8   9   2     0   0  18    16  19  60    50  49  38    24  25  52    24  19  10     0   8  15     0   0  40    25  28  32    17  24  36     5   4  33     8   6  32     1   0   1    31   0   1    30   2   2     6   6   0     7   0   0     1   2  32    11   8   4     9   8   0    26  24   0    24  25   1    10   9  40    30  30  16    12  13   0    25  24   1    38  44  33     7   8   0    65  65  68    64  65  70    57  49  36     1  96  16     0  16  96   144 112 105    96  16  33    16  42  43   117   2   8    96  51   8     4  18   7   116  34   0    96  40  13    81   2  84     3   0  40     6   4  12     0  36  40     9  17  33     8  66   4   145  49  66    10 105  18    40 134  50     3   0  19    21  11   2     0   1   1     1   1  17     8   2  20    38 134   1    16 122   1     8   0  11    28   0   1    20  20   0    12   4   0   133  52  32     5  36   8   102  26   1    18   8   2    97  45  24     0  38  20     1  96  21   128  12  16    91  88  10   114  32  18     8  16   2   104   2  64     0  18   0    97  10  64   148  48  10    20  20   1     1  96   0    33 128  40    32 129  12    40 117   0    32   4   8    32 116  11    32 105   2     8  96  44     1  16  46     1  18   4    14  16   2   128   0   0    96  33   2    73  50  65    27   1  64    17   0  34    16   0  48    20  64  33    16   0  37     6  72   8     2  72  33     0  32  13    25  32  38    95  18  37    92  68  46     8  66   9     2  24  64     4  72  65    80  76  64    16  33  64   144   4 114     1  12  82    33 120   3     5 148 130   100  27   0    18  94  70   120  33  34     9   2  44     1  40  16    17  35  16    32   9   3    32   3   0     0   5   0    32   6   8     1  94  80    15  26  24     1  52  16     9  64  32     1  49  32    20  41   0    44   2   0    20   8   0    58   0  68    98  81   4    26   4  12    16   8   0     1  20   6    17  20   4     0   4  22     0   5   0     1   1  16    16  16  19     0  10   5     8   0   0     9  11   0     1   9   8     0  24   8     9  25   8     4   0   1    12   6   0    28  12  17    24  16   5     2   0   0     0   0   5    16   2   5     9   1  18    24   0   0     2  28   7     8  24   6     9   0  30    25  16   0    29  24  36    24  23  33    36  33   1    50  51   9     4   0  10
 56  49   8    32  34  38     0   1   6     0   0   0    32  32   7    34  35  35    14  19   3    12  28  32    29  18  32    12  26   0     9  26  24    17  35  24    36  34  33    36   0  35    36  32  37    28  21  39     0   1  39    26  24   0    34  33   0    32  33  32    33  36  41     1  32   1    20  17  34    16  16  36    16  21  12    32  48  58    38  32  40     2   1  12    18  17  40     8  25  36     8   9   0    12   0  34    12   8  32     4   1  24     8  12  10     4   4   8    13   8   1     0  10   4    20  27  16    16  17  26    10   8  56     8   8  34    20  20  16    16  20  10     0   0  32    17  16  51    18  32   4    31  26   1    25  22   1     1   1   1     0   1   0     1   0   0    30   2   1     2   1   1     2   2   2    10   9  33    19  16  34    18  17  35    28  28  42     8   8  34    20  20  16    16  21  16     8  12  12    16  24   5    86  88  77     2   0   0    17  17   7    81  81  64   129   1 116     0  20   4   132  96  28   113   0   2     4   4  11   100   0   1   100  30  19   112  40  20   102   2   0    99  32  21    10  10  61    79   0  21     4   6  20     4  36  35     8  40  37    68   0   3     8  40  97     4 104   3    52 120   1    20 130  17    17   2   1    29   0   9    12   3   1    12   5   4    42 132   0     8   4   8    12   0   1    16  24   8    17   8   0     4  16  38   128  32  38    85  52   6    33  20   7    23   8   2    99  13  10   144  58  14    16  12  44   144  60  50   145  24  12   138   0   2     8   6   2   136   0   0    96   4   0   130  18   2   128  36   2    11   4   2    17 112  36    42 133   2     4 130   0    32 132  16    32 113   2    33 121  11     3  25  33     0   8   8    18   0  32     5  18   4   135   0   0   128   2  21     1   2   1   131  33   5    49   0  85    66   0  64    32   0  70     4  64   4     0  74  35     0  40   8     2   0  37    66  34  29    32  38  40    24  64  34    74  64  69    26   0  67     8   0  65     0  24   1    64  68   8    33   0  40     2 102  48    32 120 100    81  12   0     0 117 103     0  48  35    80  59  32    65  16   1   113  34  35    96   8   3    16  40  16     8   1  19    32   2  80    16  12   0    32   0  72    16  92   4    32  66   2    64   8  32    72  32   0     0  17   0    34  34  17    40   8  17    14  44  17   102  68  64    10   0  73    34  17  72    24   0   8    18   0   8    17   0   0    17  16   0    16  17  16    20  16  22    24  24  25     8   2   0     8  10   4     8   0   4     9  11   8     2   4   0     3   5   0     8  12   9    12   6  10     8   8   0    16   8  21    10   8   4     2  16   1     0   0  13    10   4  10     0   0   7    24   8   8    19  16  14    10   8  26    22  20  18     3  12  36    35  40  40     0   1   1    32  33   9     0   9   3
 60  60  18    48  49  50     8  15   2     8  16  36     2  18   0    10  18  54     2  18   6    27  18  52    25  10  16     9   3  24     0   1   2     8  24   2    24  34   1    30  32   6     0  32  33    24  28  27    24  27  35    24  24  32    16  17  32    16  16  34    17  16  10    24  17  42    12  25  14     0   1   4    26  26   6    48  48  39     8   8  40    36  38  52     0   4  34    20   1   4    24  16  40    12  32  34    14  21  35    32  33   2     0   1  35    25  24  22     1   0  35    17   0  10     0  40   2    40  41  48    16  17   2    56  58  48    19  28  56     3   0   4    22  16  25     1   0  10     3  16  23     9   0   5    13   5  32     2   2   0    30   1   0     0   0   0    30   1   0     2   6   2     1   2   2    10  10  35     3  10   2    10   0  11    24  16  36    20  20   0    23  23  19    16  17  18     5   4  21    16  20   0    67  64  64    67  65  84     0   8  19     1   9  21    64  65  40     0  16   8     0  97  16     5  24  32   101  17  18   102   8   0     2  73  27   132  24  57    21  71  17    96  57  16    10  13  64    85   8  48    21  70  29     0  68  63     4   0   7    92   8   2    29  45   4   138  40   6     7 104  34     0 134  10     1 138  11    11 134   9     2   0   3    14   0   6    34 130   1    32   2   8    24 124   9     1 110  32     0 115  16   128  12   0     5 125  65   101  22   3    32  92  64     6  28   1    97  12   0   141   4  12    23   4  42    27  22  38   145  20   6   138  34  24   136  20  12   139  32   8   147  32   0   137  40  32    27  48  40    27 112   2    37 132   8    40 128   2     2   1   6     0 130  10     0   0   0    32   0   3     0  29  33    16  21   9     8  12   2   141  50  32   137   3 114    12  34  96    20  34  17     0   0  23    57  16   6    64  16   1    43   1   0     1  81  68     3  80  35    65  56   8    82  48  15    65  16  13    65  32  32    21  67  16    13   1  66     0   0  75    22  16  73    36  24   1    64  72   1    32  10   1     0  96  72   132  96  72     1 108 100     0 125 117     0  57  19     0   8   1    96  42  33     9  58  33    11   2  32     8   8   1     4  33  30    52   0  82    48   1   9    34  16   8     0  92   0    96  16   0    80  14  48    16  42   0    18  45  16    52   8  18    22   2  18    70  70  73   106  69   9    31 100  40    11  17 112   145  40   0    16   4   2     1  10   0    17  20  12    25  16  18     0   0   6     0   8   2    24  24  18     8  10   0     8   2   0     5   3   0    12  24   9     1  25   0     1   1   0     1   5   0     8  12   1     0   6  19    16  26   2     0   0   1     8   2   1     0   0   0     0   0   5     8  13  14     0  24   1    19  16  18    16  24  26    35  36  38    33  42  44     0   0   4    56  59   9    52  56  41
  6  12  40     0   2   4    32  35   6     0   1   6     0   1   2    10  32  34    10   0  32    19  18   0     0   6  20     8   0  24     1   0  26    13   0  26    24  32  34     0  32   7     0  35  32    16  17  24    10  10  24     2   3  29     8   1  24     0   0  29     0   0   3     0   0  27     2   1   3     0   1  30    24  25  18     8  10  38     8  10   7    33  42  36    24  16  15     0  16   4     0  10  35     4  33   2     0  33  33     0  33  38     4  32  32     0   3  33    36   0   7    33  32  36    10  32   1    40  41  46    44  46   2    32  34  50    35  32  32     3  34  36     3  34  32    17  32   4    17  18  36     8   8  22     0   1   2     7   5  35    31   2  33    30   6  32    28   4  36    24  26   0    26  26   0    28  24   0    18  26   0    22  16   2    24  16  32    22  19   2    28  28  20     4   4   6     4   4  16    48  52  48    82  80  68    20  24   0     1   8  23     2   9  20    16  16  50   100   0  58   132 112  26     4  40  38     4   8  16    96  32  16   112  96  19    20   1  25   100  64   0   117  33  17    16   5  84    29   0  80    20  68  41     0   0  52     1  56  43     0  64  33    65   8  64    74   0   1   171  48   2    51   4  39    33   2  10     8   6   8     8   2  12     0   0  12     0 128  14    32 130  12    56   7   8     1  66  41    17 103  17   149  17   3    64  84 112   116  27   4    21  89  81     2  14   0   170   0   4   144   0  32     6  52  46    19   6  46     6  34   4     6   1  18    14  32  20     8   0   5    10  18  37     2  50  33    10  96   1     2  12   0    33 132   0    14   5   3     6   4   9     2   1   2     2 129   3    34   0   1     0 112  47    16  29  44     1   0  20   131  42  52     0  34  30    72  32  12   113  35  92     2  36  10    68  32   8    68   0  48    37  17  20    33  83  96     8 112  32     9  18  13     0  32  13     0   2  22     0  65  58    17   0  42     3   0  64     2   8   3     3   0   0    33  88  80     3  64   0    64  88  64    66  73  64     2  25  32   112  13   4   128 105  55   128   0  18   128  91  49     2  16  16    97  42  17    10   0  21     9   0  21    24   0  27   112  32  24    48   4  90     0   4  64     0   4  32    52  24   4    34  33   0    50   8   8     6  17  16    52  40   8     2  21  16    91  68  73     4  36   8    20   4  40   149 116  96     1 156 136     1 157 142   131 157 138    21   1   0     0   8   0     0   0   5     9  10   0    25   7  17     1  21   0     0   4   4     5  12   4     0   9   0     9   1  10     1   1   0     0  10   2     2  22   3     8  12  25    18  12   1     0   4  17    18   0   0     2   0   8    20  27  24     0   2  10    16  17  27    19  16  24     1   0   2    34  32  38    40  32  38     8  10  12    32  33  37     8   1   9
 34  38   4     1   4   2    34  34   4    34  35   6    33  32   6     1   0   2     2  32   2    27  32  32    14  30  32     5  24  32     5  24   0     7  32  32     0   0  34     4  33  34    15   1  32     2   7  24    10  14  26     2   4  28     2   0  30    11   8   4    10  12   6     3   4   4     2   0   2     3   0  28     3   2  12     0   0  44    33  34  10    38  34  38    20  25  28     1  12  26    20  17   0    28   3   0     0  35   6     0   0   0    36   0   7    32  34   7     0  32   2     0   0  14    32   1   0     8   9   3     0   5   4     1   2   6     0   1   6     1   4   0     1   2   4     5   6  32    16  16   5     2   3  18     3   0  24    24  24  32     0   0  34    28  30  33    24  24  32    26  25  33     0   0   0    17  16  32    11   2  16     8   1  16     0  10   0    18  16  32     0   0  32    32  32  32    28  28  16    20  17  16     3   0   0    86  84  66    16   6   6    16  24  20    80   9  12    96   1  24     0  18  60    99  34  12     0  40  21    96   4  13    96   1   8   130  99  41   103   1  48    97  29  48    33   4   4    28  13  84    76  79  16     2  72   0    65  68  48     2  76  32    64   4  18   104   0   2    11   0  28   160  48  13     1  99  32     0   6   8    24   2  20     0   0  12     2   0   4     2 130   1     0   3   4    40 128  45     0   3   5   136   3  17   115  64  34    66  12  69    18   2  88   132   8  16   140  58  13    44  58  12     1  40   2    26   8   2     3  35  24     7   0   0    14   0   8    14  16   4    16  19  37    34  24   8    32 110   8     0 132   9     4   2  11    10   4  17     4   0   9    36 128   0     0 128  14     0   0  14     0  21  32    19   9  12     8  28  44   138 100  46    65   2 100    20  10  10   113  11  89    37  34  24    65  34  32    67  56   1     9   0  16    64 113   0    92  68 102    72   4  37    89  48  36    65   0  22     9  64  61    24   0  73    21   0  73     5   0  74    18   3   0    16  72  66    32   1  16    68  83  80    48  33  32   130 106 104     1 102  96     4 116  16   128  96  16   128  41  49    99  17  20     2  50   4    10  32   0   100   0   1     4  34   8   100  32   0     0   4   0    38   4  72    64  70   0     2   2  16    16  44   1    48  14   0    50   5  16    38   8  24    68  64   1    16  32   8    28  33  41   108  22  44   132 108 116     0  28   0    16   0   4    23   8   4    18   8   0     2   8   8     3   2   5     1  34  13     0  39   0    24  33  17     0   4   0     4   0   3     4  24   2     8   2   0     8  26   8     9   4   0    25  30  24     0   8   8    24   0   1     1   1  16    17   1   4     0   2   6    16  26  30     0  11   3    32  32  35     0   1   1     2   1   1     0   3   1    35  42  44    33  35  33     4   7   9    33  32  33
  2   5   7     2   4   2     2   3   1     1   2   0     0   2   4    33   0   2     0   0   2    24  33   3     4   0  34     6   0  34    31  32   2    29   0   0    29   0   2    25  32   2    25   0  32    24  25  31     2   0  28     1   4   2     1   4   2     1   4   0     1   4   2     1   4   0     1   4   2     3   2   2     3   6  28    17  16  36    45  32  10    41  32  34    20  24  26     1   4  16    20  21  33     0   3   1     1  32   0    32  33   1    33   0   2     0   0   2     0   0   4     0   1   1     4   5   3     8   5   1     4   0   0     2   0   6     2   4   0     4   2   0     0   3   5    32  36   0    32  32   0    25  24   0    25  24   0     3   3   1    32  32  34     1   1   1     0   0   0    35  35  33     1   1   1     1   1  33    16  16  32    25  25   1    32  32  32     3   3   1     2   2   2    57  57  57    48  48  56     8   8   8    58  18  18    82  83  91    80  77  81    64  74  82    34  40  36     4  98  74     0  99 108    98  10  21   129  96  65     6 101  56   114  97  16   130  96   1   112   0  32   128  49  21    72   9   0    12  25  68    72  65   4     1   9  12    80  68  40     2  93  36    64   1  52    25   9   4    19  32   4   131   0   1    20  97  33     0 131  17    16   3   0     0   0  20     4   0   5    12   3  12     0   2  13    40 129  13     1  98  33   128  50   0   145   4  17   136  25  27   128  34  75     4  42  25    32  98  52    36  99  53    32  58  45     3  25   2     1   3  24     5  19  32    30   1  24     0   0   1    32 105  41     0   3   9     6   2  12     6  11  16     0   1  20     2   4  18     0   0   1    35 128   8     3   0  56    16  20   0     2   1  24     2  60  40     2  88  42   138  32   0   130  72  86   112  46   2   114  32  25     1  37  24     1  17  33    35  49   0    73  16  53    52   5  32    76  20  56    10  48 112    12  80  42     2   0  60     9  64  56    13   4  72    29   4  11     0   0   8    19   0   9     0   0  64     4  41   0     4  69  68    43  12   6    81 110  32     1   2   2   128   2   8     0   0  50   132  48  39    96   0   0     2  34  20     2  33  16     3   0   0    48  32  16    64  32   0    32   0  64     0  68  32   100  17   0     0  34   1    46  14   0     6  36   0    52  12   0     1  32   0   115  41 113   104  40   0   107 100  65    24  96  68     1 128 128     5 152 140     5   0  21     6   8  12   138 136 148    34  32   0    16   1  44    16  35  12     0  17  16     9  24   5     2  20   4     2   8   0     3  28   0     5   8   0     9   2   0     9  26   8    16   4  24     9   0   2     0  12  10     0   1   4     4  21  21     4   9  10    16  25  27     0   3   1     0   0  32     0   0   0     2   2   2    10  10  10     6   6   6     8   8   8    35  35  35    33  37  33
  0   4   4     0   0   0     2   0   0     1   2   0     0   3   5     0   1   1    32   0   0     3  32   2     3  32   2     3  32   2     0   0   0     0   0   0     3  32   2     5  28  34     7   4  32     1   0  28     0   2   0     1   4   2     1   4   2     1   4   2     1   4   2     1   4   2     1   4   2     0   2   0     2   6   0     0   3  41    41  34   8    33  32  34    20  24  18     8   1  17    16   0  34    24   0   0     0  34  36     0   3  37    32  34   4     0   0   0     0   0   0     0   0   2     0   1   1     4   1   9     2   0   0     0   0   6     1   0   4     0   5   3     4   6   0    36  37   1     0   3   1     6   6  32    33  33   3    34  34  34     0   0   0    35  35  35     0   0   0    33  33  33     1   1   1    34  34  34    32  32  32     8   8   8    16  16  16    33  33  33     0   0   0    57  57  57     7   7   1    19  16   8     2  19   9     4  51  97    96   9  17    44   8   0     4  75  70     0  99 108     2   1  32   131   4  65     3   2  65   135   6   9     2   2  53   140  20  36   104   0  38     8  16  16    50  33   2     2 101 102     8   5   4     2   1  24     0  68  24     3  76  24    70   0  52     2   3  86     1   1  22     0  24   9     0  96  41     4 128   9    20   3   1     8   1   5     0   0   1     4   3  25    22   0  20     0 138   2    32   0  57    33  50  38   161   7 119   160   6 102    34  46  40    36  79  60     0 106   8    32   0  35     8 106  11    16   0  19    19  35  25    37   7  33     7  21   9     7 112  12     8 105   6     0 133  12    16 130  12     2   2  20    50 130   0     1   4   5    33 128   0     2 140   4     5   8  36     7  44  42   149   8  11    23  56   2     5  96  32   134  64  50     0   0   9   116   8  16   112  52  16   116  52   8    96  50   0    32  16   0    72  16   0    98  12  20    18  32  36    51  40   1     5   8  67     0  17   2     9   4  81    12   4  66    12  20   2    24  20   8     4   1   2    48   7   0     0  33   6    34   5   4     3  36   4    82  36  32    25   6   0   129  24   0   100  16  37     0  56  53    32   0  20    16   2   1     0  18   0    97  51   1    64   4  65     4  18   0     4   6   2    33  65   8    37  17   2    32   0   1    32   4   1    50  14  17    24  13   2   126 120  96   122  32   8    98 113  96   144   1  97   136 133 129   143 130 128    11   4   4    45  34   0    43  42   1   163 162 129     0   1  45    32  33  13     0   3   8    16   1  12    16  10  16    11   8  23    11   0  21     3  16   3     5  26   2     5   2   5    12   2   8    17  18  16    24   9  24     8   6   0     5  23  16    21  16   4     4  12  14    12   0  26     8   0   4    26  26  24     8   8   8    10  10  10    34  34  34    28  28  28     3   3   3    35  35  35    35  37  37
  2   2   6     2   1   1     0   0   0     0   0   4    33   0   0     1   0   2     0  33   3    30   0   2     2  32  32     0   0  34    28  32   2    30   1   1     1  30   0     7   0  32     4   6  28     2   4   2     2   2   0     2   2   0     2   2   0     2   2   0     2   2   0     2   2   0     2   2   0     3   2  24    26  27   1    32  33   5    10   8  10    32  32  32    24  16   2    24  25   3     0   4  34     2   5   1    24  30   0    28  29   1    34  35   1     0   3   1     3   0   0     0   0   0     1   2   0     4   3   9     3   4   0     3   4   2     3   0   6     2   4   6    36  36   2     0  33  35    32  32  32    27  28   6     1   0   2    35  35  35     1   1   1    33  33  33    33  33  33     2   2   2    34  34  34    34  34  34     0   0   0    16  16  16    16  16  16    28  28  28     6   6   6    31  31  31    11  11   9    17  19   9    18   9   0    64  27  87     8  19  18    72  74  70     6   2   6    16 122 108    18 104 100   130  98  17   146 108  97   149   2 104    20  97  96   148  97  66     6  16  43     0  48  32    66   6   1     0  81  68     0   1   6     8  75   6    13  64  26     2  11   9    68  45  61   130  68  81    17   9  32    16 120   1     1 112   9    44 132  16     4   1   0    16  10   1     0  10   9    16   0  27    18   6 104    16   1 104     1   3  38    32  75  37    33 103  39    33  97  48    38 103  35    18   9  24     4 128  17    48   2  18    44  98   3    34   2  38    18  96  20     0   0   0    35  19  43     4 116  10     0   5   6     7   5  16    16   5  28     6 131   4    32 103   1    34 119   2     2  14   0    17 128   8     0 136  16     4  74   8     4   2  17   133  56  10    15  96  32   130  72  42   128 104  38    16  68  36    20  32  17   114   0   0     0  32  23     8  36  26    10  52   4    58   5  12    59  32  41    34   8   0     2   8   8    36   0   8     0  33  30    16   1  64     4  20  28    42  18  64    32  23   8    36   1  10    52   1   2     0   1   2    16  40   0    48  32  32   121   0   1   137  24   1   101  24  52    64   1 117     1   1  21    49   2  85    17   3  17    17   7  17    32   0  80    38  20   0    18  64   1     2  68  34    66   0  41    32  18  11     2  23   2     2  10   1     2  68  98   118  19   1    10 125   1   150  21   1     2  13 129    16  18   9    32   1  16    32   4   8     1   2  28     3   2  36    42  40   0   146 144 163    22  26   9    48  49  14    16  16   2    18  25   4    23  24  19     1  30   5    21   8  16    14  24  17    15   2   1     0   0   6    29   9  20    20  28  18     0   2   7     4   2   5    20  16   0     4   4   4     4   9  24    14  11   1     8   8  24    26  26  26    20  20  20    34  34  34    12  12  12    18  18  18     1   1   1    34  35  39
  0   2   2     0   3   1     2   3   1     0   2   4     0   0   2    30   0   0     1   0   0     0  28  34     0  29  35     1  28  34     2  28  34     2  30   0     2   0   0     0   3  33     5   0  28     2   1   1     0   2   0     0   0   0     0   0   0     0   0   0     0   0   0     0   0   0     0   0   0    24  25  25     0   3  37     3   4   6    11   8  10    33  36  14    19   4  36    26   5   3    32  32  38    34  33   5    24  34  36    24   3  33     6  33   1     0   3   1     2   1   1     0   1   3     0   1   3     8   9  11     4   3   1     0   5   7     2   4   4     2   0   6    32  32  32    26  28  34    27  28  34     0  24   6     1   0   0    32  32  32     0   0   0     0   0   0     0   0   0     0   0   0    32  32  32     1   1   1    33  33  33    17  17  17    20  20  20    16  16  16    28  28  28     9   9   9     5   5   5    18  18  16    66   2   2     6  82  71    65  66  68    98  96  64    33  40   0   132 105  78   132   8   4   128  74  16   132   0  64   132 118 120    64   4   0    12 128   6   131  96  18    10  64  80    66   1   6     0   0   4    15   0   4     6  88  32     5   0   0    21  40  57    16  72  56   162 134  65     4 123  96     0 121   8    16 112   8    30 137   4     4   0  28     0  14   0    16   0  31    18   6  27    18   4   0    19  11   2     0 146  10     1 131  17     1 113   9     0   6  18     0   0  20     2 132   2    17 132  18     0 124   3     8 120   7    32   2  37    48  64  60    39   5  32    39  23  41    33  17   1    52 100   2    33   1  14    49   0  18    32   1   9    32 109  10     0 127  11     6 131  16    30 128  16     2 128  17     0  47  35   136  54  34     1  11  23    28   1  37   128  96  57   132  16   0     4  16  96   128  23   9    32 114  64    98  34  29     2  34   4   106  22   8    41  34   9     0   2  40     0  24  10    17  56  33     0   0   0     0  40  12   118  96  68     4  37   8    74 102  92    32  16  16    57   2  11    28  16  12     6   6   0    34   0  13     2   2  35   120   1   5    10  16  20     5  32  32    64  49  68    32   1  21    16   0  33    16   2  16    16   2  24     4  82  33     4  24   1    14  62   2    68   8   1    13  35  18    32   1  10    32   3  10     8   2   0     6   0  88   140  88 112   130 149 107    16 148 144     0   3   1     0  18   8    32  34  12     0  38  32     8   0  32     8   3  35    42  42   5     6  32  24   130 168 128    40   8  40    32  40  40    17  18   6    21  16   3    19  26   2     6  32   3    16  10   3    17   2   6     8  26  12    14   8   4     0  16   4     4   4   5     0   2   1    16  16   1     6   4   8     2   2   8     4   2   2    16  26  27    26  26  26     2   2   2     0   0   0     2   2   2    16  16  16    32  32  32    32  34  38
  2   0   4     0   1   5     0   2   4     0   1   7    33   0   2     2   0   0    30  32   0    29  30  32     0   3  33     1   2  32     0   2  32     2   1   1     2   0   0     4   3   1     1   4  28     0   0   0     0   0   0     0   3   1     0   3   1     0   3   1     0   3   1     0   3   1     0   3   1    24  26  24    32  32  32     3   2   0    10   8   8    35  36  12    22  18   0    30   0   2    34  36   6    35   4   0    28  32   2    28  34   0    34   3   1     0   7   1     2   5   1     1   4   2     0   2   0     8   9   9     0   1   1     0   0   2     3   2   4     2   0   6    32  32  32     0  32  38     2  32  38    32  33  39    32   0   0     0   0   0     0   0   0     0   0   0     4   4   4    29  29  29    29  29  29    20  20  20     0   0   0     1   1   1    20  20  20     8   8   8    20  20  20    17  17  17    28  28  26     7   5   4    20  18  16    67  68  68    69  84  64    65  70  66   108  96  76    70   2   8     4 104  80    96  59   4   104 115  85    38  76  80    12   1   8     0   0 134   136 133   6     0  69  87    67   1  28     9  21  80     3   1  36     7   9  32     4  96  17    71  32   9   150  64  64     0 131  48     1  19   4    17 122   1    21 112   9    20   6   9    52 135  13     0   0   1    49 130   0     2   8  10    25   4 104     2   6 112     0 139  23     8   0   2     1 131  17     2   2   2     0   4   4    10 132   2    16 132   4     8 124  27     2  10  12     8  26  13    42 104  40    37  16  34    43   0   6    37   4   2    39 101   0     0  96  34     1  96  35     0  24   3    32  96  32    34 126   8     6 131  16    20 133  20    24 131   0     0  99   8   128  35  21   131   5  15     3   1   1     2  49  40   128 112   0     8 145  99     8   3  16    32   0  81     9  96  49     3  98  17    10 115   0    33  48   3    81  32  43    68  52   8    55  32  33    22  16  40     4   9  34    84  64  68    12  32  14    72  96  88    32   7   0    40  17   8    28  18   8    56   4   4    42  32  36    25   0  36    97   8  16     0  24  49     4   1  37    70  28  12     0   0  25     0   4   0     0   0   4     0  80  44     0  34  40    68  56  32    28  32  33     8   0   1     2   6   1     2  20   3     2   0   6   130   0   0   128 132  80     0 140 148    12 132 156     6  10  28    32  10   8    32   8   1     2  34  24     0   2  13     8   3  34     8   3  37    40  43  37    50   1  26    51  40  35    62  12  33    20  29   0    50  53  18     2  19   2     0   2   9     4  32  25    16   8  18    25  32   8    25  29  12     4  16   0    16  18  18     4   4   4     1   5   3     0   4  27     0   4   8     4  14   3    12   9   2    18  27  26    16  16  16    34  34  34     0   0   0     2   2   2    34  34  34     2   2   2    34  34  32
  1   2   0     4   3   1     0   0   0     0   0   0     0   0   0    36   0   2    38   0   6     1  36   2     0   4  34    28  28  34     0  31   1     2   3   1     4   2  32     0   7  25    11   4   4    12   9   7     0  24  28     4  25  31     4  25  31     4  25  31     4  25  31     4  25  31     4  25  31    24  33  39     3  32  36     1   0   6     0   0  14    45  44  10    21   4  42    28   5  39     4   6   0    39   0   0     6   0   2    39   0   2    34   0   2     3   0   4     4   0   6     0   0   6     0   1   1     0   0   0     5   0   0     0   1   1     0   1   1     0   1   7     1   0   6    33  32  40    34  32  40    37   4   0     0   0   0     0   0   0     0   0   0     2   2   2    32  32  32    28  28  28    29  29  29    17  17  17    33  33  33    16  16  16     1   1   1    25  25  25    16  16  16    17  17  17    12  12   8    13  15  12     8  16   0    89  90  70    34  40  42    34  34  10    96 106  78   100  98  72    68  72  76    98  66  69   110  78  69   134  15   0   140 133 116     4   0 144   132 132  86    32  28  86     8  13   4    40  26   0     9  71  32     6  80  32    67  70  57    17   5  96    20 130  16    20  14   0     2 147   1    18 131  97    16 112   7    16 130  11    20   7   7     0   4   1    33 132   0     3   4   3     1   6 104    11   6 112     0   9 104     9   3 118     1 139  24     0 128  28     0 128  18    40   4  21    56 128  20     1 113  17     8 136  16     0  18   4    32 106  52     1  10  34    13 104  48    28   0  33     0 104  49    24   8  34    16   8  34     2   0   8    25  99  56    31 121   8    16 128   0    20   1   8   156  70  33     0  20  45     0  33  21     0   5   6   106   4  16   104 104  48    12   0  16   128  21   1   128  16   0    33   2  32     0  96   1   139  96  49   136 115  56   137 112  51    32  48   8    64  24  28     3  40  13    11   0   1     0   8   4   120  52  96    72  13  22    44   4  72    44   5   2     6  18   8    24  19   8    62   1   0    16  36   8    30   0   0   124   0  24    36  37  16    84  26  92     0  22  52    20   8  53     0   0  49    16   0   0    12   1  24    69  32   8    76  24  32    14  36   0    32  38   2     0   3  22    12   2  22   150 128   7     3   4 136     9   4 132     3   4  20    42   4  20     0   7  16    35  34  32    34   8  40     1   4   8     0   3   0     8   7   1     8   0   2     0   3  34    50   9  53    49  18  49     4   8   1   129 140 164   128 132 136     2  18  26     6  18  26     0  17   2    32  35  18    32  32   6     0  32  26    20  16  12    20  20  16     6   4  21     1   5   2     0   0  31     0   0  26    18  24  14     6   8  10    11   9   8     1   1   1    32  32  32     1   1   1    32  32  32     2   2   2    35  35  35    32  40  32
 38  42  32     7   4   8     7   4   2     2   6   4     0   6   4     4   5   5     0   3   1     0   0   4    32  34   4    29   6   0    28   0   0     0   1  33     6   3   1    12   5  27    26  24  28    26  25   1    14  17   1     0   1  33    28  32  32    28  32  36    28  36  32    24  32  36    24  33  43    36  36  34    32   1   7     0   0   0     5   0   2    36  33   1    36  44   4    33  38   4    32  33   1     0   0   0    36   1   1    32   0   2     4   5   3     1   4   4     4   0   6     0   4   8     1   6   0     1   2   4     1  10   0     1   0   4     1   8  10     0   0   6     2   0   2     0   0  10     0   3   9     0   2   0     2   2   0     2   2   2     2   2   2     0   0   0    36  36  36    37  37  37     4   4   4     0   0   0     2   2   2    34  34  34     3   3   3     2   2   2    11  11  11     0   0   0    12  12   8    12  14  12    52  50  52    41  41  48    78  68  66     4   8  20    38  43  24     7   2   1     0   0  21   111  72  65    98  66  12   132 131  84     4   5 134    18   5 134   128 133  67   112  68  72    48   1  76   104  64   0     9  67  56    71  35  48     1  25  17   132  12  97    16 130 100     0   0 116    12 128   0    22 128   1     6 105 111     4  17  10     4   2  33     1 135   4    17  34  48    58   0 112    34 133  18    42   5  16    34 136  12    16   3  24     9 137 108     0   8   4    32   0  16    40 112  20     2  96  28    56 104  29     0   0  28    35 105  10    34   2   4    16   2   4     8  96  20    12  32  22     0 105  48    24   0  34    17   9   8    22  40   6    29  73  48    29   1  28    19 128   0    20  24  12   146  91  41    16  34  44   114  67  22   144  70   2     5   2  36    15   0  48   142 129   0    28   5   0   132 129   2     0 112  34   129   0  49   136   0 112   136   0  16   153 112  99    68  48  48    65  60  19    96  44  16   113  16  43   112  25   0    33   0  35    32  10  18     9   6   9     0   1  18    40   1  24     8  14   4    12  25  16     6  52  20     0  44   4    98  16  56    32  32  12     0  26 124     4  22  12    14   2   7    20   6  55    14   2  21     8   8  42     0  32  40    36  16   8    44  19   8    12   7  16     1   7   4   134  12   0     7   8 128     1  16   4    32   8   6    41  32  20    11   0  36    33   6  18    18   2  33     0   0  32     1   4  56     6   4  49    18  16   0     2   0   1     1  19   5    18  32  20     4  49  19     2   0   6     1   5  38   152 153 176     0   2   8     2  11  22    26  19  16    34  43   8    32  32   8    33  33   3     0   0  16     0   4   2     1   0  81     0   1  76    18  17  30     0   1  12     2   2  26     0   0   8     0   0   0    24  24  24     9   9   9    33  33  33     0   0   0    40  40  40    35  35  35     3  10   8
 40  32  32     3   8   2     2   1   1     0   2   0     2   6   8     0   1   9     6   5   7     0   1   5     0   0   6    35   0   0    32   0   2    28   1   3    28  24  34    16   1   1    16   1  33    22  33  33    29   0   0    31   0   0    30   0   2    35   0   0    35   0   6    36   0   2    35   4   0    37   4   0    39   4   2     2   4   4     5   4   4     1   0   4    34  37  35    32  32  32    32  34   4     0   0   4     0   5   5     4   4   4     0   1   1     3   0   4     5   4   4     4   4   8     5   4   4     0   2   0     1   2   0     8  10  12     9   8  12     8   8  14     3   0   2     7   8   0     3   4   0     4   6   8     0   2   0     2   2   2     6   6   6     6   6   6     6   6   6    36  36  36    33  33  33     2   2   2    35  35  35    34  34  34     0   0   0    24  24  24    24  24  24    16  16  16     0   0   0    29  29  24    24  30  24    82  80  82   102  96 102     2   9   2    36  34  12    85  72  64    49  16   1    10   8   1     3   0  65     9 132 132     6 133 151     0  28  20   162 144 130    96  88  81    40  11  64    32  98  41    96  65  40    13  27  48     6  30  23   145  20  49     4   2 112    12 130 100    14  16 132    30   0 129    12  16   0     9  20   0     0 118  96     0  23   4    33 128  64    33   2  98     1 129   0    48   7  98    10   1 100    32 152  96    24 112   0    32  20  45     9 121   1     9  49  37     2  96   4    24  64  56    50 114   8     3 107  32    16   9  12    16 105   1     0   9  16     0  92  36     1   9  48     2  42   0     1  42   0    17  68  58    25  40  40   140   1  56     4 112   8   134  24  40   130  57  40     2 105  16    16   2  16   144   2  36   132 132  34     6   4 115   138 133  16    30   5  96    96 112  96   112  20   0     1  96  65     1  24  81     9   8 113    25  24   1     8  48  32    96   0   8    97  56   3     8  16  42    98  33  32    80  19   0     0   0   0     8   3   0     0  16   0    24   5  12    46  12  20     2   9   4     0   0  16     2  28   0    58  32  12    48   5  80    12  64  14    16   2  34    24  74  30    20   6  54    24   4   8    81   5  56     4  32  40    57   4  16    28   1   2     4   1  12   148   1   4     4 144 148     0  26   1     2   2  16     0  37   0     8   0  36    17   8   0    48   0  11    16  20   8    19  16   9     4  20  16    14  12   0     6   0  16    18  16   8    49  32   6    42   2  60    36   8  44    35  33  36    33  45  38    12  12  40    44  44   8   188 188 130    56  57  18    26  27   8     0   1  16     2   2   8     0   0  16     0   4   0    84  85  66    82  82  86    16  19  30    50  51  16    34  34  18    18  18  12     1   2   9     5   5   5     1   1   1    13  13  13    32  32  32    40  40  40    42  42  42    11   8  10
  9   0   6     3  12   4     2   1   9     4   4   0     6   1   9     4   4   0     4   1   9     2   5   7     1   4   6     1   6   4    36  32   0    36  33  39     4  37  33    32  32   2     0  33   1    30  33   1    31  32   2    30   0   0    33   0   2     0   1   3     0   0   0     0   2   0     0   4   4     0   4   4     0   5   5     0   5   3     0   4   2     2   0   0     2   4   2     2   0   0     0   2   0     1   2   4     0   2   4     0   1   7     0   0   4     0   1   7     4   6   0     4   4   0     4   4   2     0   8   4     8  11   9     1   2   0     0   0   4     8   0   0     7   8   0     0   7   1     5   6   0     4   6   8     5   4   0     2   2   2     7   7   7     5   5   5     1   1   1     1   1   1     3   3   3    33  33  33    34  34  34     0   0   0    36  36  36    37  37  37    40  40  40    40  40  40     1   1   1    18  20  17     0   5   0    19   0  16    86  81  68    16   0   0    22  16   4    83  86  65    81  82  69    59  50  32     0  16  19    10   0  12   130 129 140     5  20  13   132 140 134    18  73  65    66  33  64   100  25   0    32 121  52     4  49  52   129  17  84     3 128   0    24   0   4     0 128   4     5   0  16     6   1 140     2   9 132     3 152   0     8 128  64     9 133 100    16 133  68    25 144 102     9 144  96     9 115  42     0 118  46    16 118  34    28 112  44    20 112   4    12  96  52   156  16  20    24  16   1    24  50  43     2 122   3     0   2   7    18  40  32     0  64   0     1  40  48    34  73   0     7  40  32     1  20  50   128 113  22     5   1  21     6   0  33   140   4   4    16 100  12   128  96  36   148 112  35    16   2  16   148  68  37    16   2   4    12 132  21    10   2   1   130 133 100   146  20  96   144   5  96   128   0  32     0   8  66     0  16   2     0  24   0   177   8   1   113 120  97   117  96  67    17   8  35    21 100  99    16  55  36    50  34   0    32  17  10     2   3   8    26   1   8     1   2   1    42  16  16     0  24   4     0  57   7     0  49   3    34  16   9    41   4  73     0  68   8     8  84  34    12  40   2    23  66   0    87   0  18     0  34  36    32  54  10    32  53  24     4   3  10   144  17   5    16 128 130    20  17   4     0  16   0    42  36  20     4  45  36     2   0   6    16   0   4     0  16  11     2   0   1     1   0  16     6   4   0     0   0   0    48  49  24     0   2  52     0  66  12    67   1  24    83   1  90     3  81   0     5   9   0    20  20  16    44  40  32    16  20  20   160 162 169    35  38  33     3   3   1     7   4   0     6   4  16     2   4   0    67  68  64    98  68  70    18  19  16     2   3   0    48  51   6    34  36  28    16  16  17    17  17  17    33  33  33    32  32  32     5   5   5    36  36  36    13  13  13    40  45  41
  9  10  12     8   8   0     4   2   0     2   4   0     6   0   2     6   9   3     0   9   1     0   0   8     7   4  10     5   4   0     1   4   0     1   0   2    32   0   0     0  33   3    24   1  33    30   1  33     7   0   2    30  33   3    30  33   1    32  33   1    34  35   1    32  38   4    38  35   1    34  33   1    32  36   4    33   4   4     0   4   4     1   4   4     0   4   6     2   3   5     3   2   4     2   2   4     0   0   2     0   1   3    34   1   3    33   0   2    35   0   0     0   0   2     0   0  10     8  12  10     1   0  12     0   2   4     8   0   0     8   8   0     4   2   0     0   6   0     1   0   0     0   3   9     1   0   0     5   5   5     2   2   2     0   0   0     2   2   2     1   1   1     1   1   1     0   0   0     2   2   2    32  32  32    34  34  34    28  28  28     2   2   2    33  33  33    32  32  33     2   0   0     0  20   0    18  17  18    85  73  66     2   1   4    67  64  68    21  22   1     1   2  65    90  80  16    49  32  96     0   8  80   167 136 115     6   0 132   130  25  67     0  96  65     2   5   3    68 104 120   100  11  40     4  11  16   129   2  68    16 138   1    25 128   4     9   6 144     1   2 153    11   4   9    18   5 128    14   0 129     9 134   0     1 135   4     9  22  98     4   0   2     1  18 110     5   3   6     0  98  56    16  27  46    16  28  42   140  32  44     8  96   5   139  33   0    18  32   8    18  18  11    16  36  99    18  54 104   144  50  98     3  81  10    13   1  32     1  96  20   132  40 102     1  49  48   128  72 111    10   4  76     2   0   7   128 100  68     0  96   2   144   2  50    16  96  50     0 142  98   144  96  96    16   8  18   130 136  96     0   0   9     0 153   0   128 147 104   128   1   6    17 128  99     1  24   2     0 146  20     0 154 116   161 138  83    91  64  73   113  98  65    56  33  32     1  72  65    96  38  38    32  23   0     4  17   8    30  19   8     2  18   0     1  18  17    52  14   4     3  26   4    96  33   0    97  48   0    26   0   1    20   0   8     4  64  58    16  72  24    70  50   0    81  32   2    84  34  40    64  50  40    33  49  24     5  59   0   128  25   2    20 158 134    16  17   4    20   1   4    40   1   0    12  45  32     0   4   0    16   7   0     5   0   1     5   0   7     0   0  16     9   8   4     8   8   4    56  56   4     4   6  56    68  70   7     0   0  72     1   1   0     3   1   8     0   0   0    66  64  65    36  32  41    36  32  44    12   0  13     8  50  55     0   2   1   192 141 132     2   0  28     2  31   9     0  75  66     0  64  66    12   0   0    20  15  16    16  48  28    48  33  19    32  35  29     2   2   7    10  10   0     0   0   0    32  32  32    40  40  40    36  36  36     0   0   0     8  14  12
  1   8  14     0   8   0     6   5   1     0   6   0     6   6   0     4   8   2     8   1   3     1   0   2     4   2   0     5   6   8     6   3   1    36  37   1     2   1  39    24  29   5     4   1   3     0   1   3     7  28   0     6  29  33    28  28  32    28  28  34    28  29  37    28  31  33    28  30  32    24  25   1    24   3   1    33  34  36    35   0   0     3   0   2     2   0  12     1   0   2    32   2   0     0   0   4    33   0   0     0   0   2     0   1   3    33   0   2     0   0   2    39   0   2     2   8  12    12   0  10     2   5   1     0   3  13    10   0   2     0   0   0     3   0   0     1   6   0     4   6   0     4   5   9     5   7   5     0   0   0     3   3   3     0   0   0     0   0   0     0   0   0     0   0   0     0   0   0     0   0   0    32  32  32     4   4   4     1   1   1     0   0   0     0   0   0    32  32  32     3   1   0    16  17  16     1  17   2    16   1   2    69  80  78    65  64  64     0   6   1     0   2  33    22  28  17    66  64  16    74  88  97    28   8  40     6 155 131   128 137   3   144  89  66    83  36  36   118  85  64    65  72  64    96   8   0   134   2  28     3   2 132    27   0 140    24   0   0    16  18 152    40   0  26     0   6 128    13  19   0    25   7   0    20   3 128     1   5   2     5 101 104     9  96   8     1   8  32     5 106  14   148   9   6   157  10  36    28  25  14    12   0   8   128  48   8     0  16  41   128   2  34    16  98  66    16   0  36   130 114  98     0 112  34   129  67  18   133   0  82    17  40 114   137   0  82   145   8  68     2 130 101     2 136   7     2  14  64     0  98   2   128  98  16    16 130  96    16 146  98   144   4 100     0   8 100   184 142   0     0   2 130     0 144 129     0  10  97     1 129  18    16   1 114     1 136  23     0   8 130     2 152   8   147 138   1    80  74  64     2  32  80    72  64  96     0   8  16   114  68  36    36  20  12    18   7  12    18  18   8    16  10   0    33   2   1    32  34   0     3  10  16     0   1  36     0   0   5    73   1  64     0   0  58    16  72  26     2  56  10    66  50   2    68  48  34    36  50  36    32  32   0     0  40  16   128   9   0    18 155 132    22  19   7    16   1  14    32  33  12     8   1  36     8   5   4     2   1   0     6  21   0     4   0  16    12   3   1     0   0   1     1   1   1    57  58   8    64  64  55     0   4  76     0   4   0     0   8   4     0   2   4     1   8  18    16  16  16     2   0   0    66  64  68    68   0  68     4  54  61    72   2  13    64  38  61     0  42  60    56  57 129   130 184  36    18  26  22     2  34  34    12  14   2    36   8   0    44  31   2    16   9  17    16  20  22    26  17  18     0   0  42     0   0   0     0   0   0     1   1   1    36  36  36    38  38  38     6   7   7
  6   0   8     7  10   0     0   2   0     3   6   0     2   7   1     5   8   2     0   8   0     8   0   2     2  11   1     1   0   8    34  35   9    32  33  33    24  29   5     4   4  30     4   1  31     4   0  30     6   0  30     0   0  30     6   1  31     0   0  30     0   0   0     0   3  33     0   1   1     4   0  32     2  26   0     0  32  32    37   8   0     3  12   0     1   0   0     0   0  12    39   0   0     2   1   1    32   0   2     0   1   3    33   0   0     6   0   2     3   0   2    32   0   0     0   0   8    11   4   8     3   0   0     1   6  12     0   0   4     9   8   4     1   8   0     1   8   0     1   8   0     4   6  12     4   7   5     5   5   5     4   4   4     1   1   1     0   0   0     1   1   1     0   0   0     4   4   4     4   4   4     7   7   7    37  37  37    22  22  22    20  20  20     0   0   0     0   0   1     0   1   1    16  17  16    12   0   3     4   0   7     5   9   3     1   0   7     9   8   1     0   6   1    24  30   5    67  64  16     7   0  80   140 128   1     8 130   9   128   8 119    64 104  66    66  36  36    21   5  12    17  88  73     2  27  24     0 140   0   128 151 132    16  16 141    28   8   5     8   0   1    12   4   2     0   2 154     9  21 146    25 151  10    20   4   2    28  22  72   128 113  76   132  25  40   136   8  56   131   2  12     0   0  28     5  34  56    97   8   0     5  24   1    97  17   0     6  48  96     0  49  13    68 100  34    68  16  96     4  84  32   137  19   0   132  34   0   128   1 116   133   9  48   136  65  18    16 129 119     8 152 128    16 148   2     1   0 128     2 101  96   145  96  32    17  23  72   128 138 128   136 136 128     8   8 128   144 154   1    16   0 138   128 130   1    17 131 107   139   5   1     0 136 116     5 128   7    17 138 131    20  10  28   144 130   2    76  65  26    32   8   0    78  68   8    42   0   0    70  64  24     0  23  64     4   1   0    18  65   8    80  65   0    16   0  32   102  96  36    98   1  36     4  97   0    13  16  38    72   0  96    20   8  56     0  10  34    68   0  34     7  26   2   103  50   0     0  24  14     1   0 126   129   0  64     0 138   0     0  11   0     2   0   1    32  37  10     1   5   1     9  12  34     0   8   4    18   7   2     2   1   0     1   0   0     1  10   3     1   2   1    57  57  14    65  68  53     0   0  64     0   4   2     0   4   3     5   1   2     0   2   2     4   0   3     0   6  16     6   0   0     2  82   0    72   8  72    72   6  77     0  66  71     0  23   8     0  30  31    64  32  62     8  17  21    40 130 130   170 167 162    10   4   0    62  43  32    16   4   0     8  23  24    20  17  28    16  27  26    32  32  24    32  32  32     1   1   1     0   0   0     2   2   2     2   2   2     2   2   2
  4   3   9     7   8   0     6   2   0     4   6   0     2   0   0     4   6   0     5   8   0     8   2   0     5   8   0     1   0  12    32  38   0    26   1   5     0   0   0     0   0  28     5   2   0     4   0   0     1   0  30     4   0  30     0   1  31     4  29  29    28  29   7    28  28   2    28  30  32    28  31  37     6   4  32    32  46   0     8  13   9     8   0   0     8   0   0     1   8  10    32   0   2     0   0   0    36   0   2     0   0   0     0   0   6     0   0   0     2   0   2     2   0   2     2   0   6     2  12   8    10   0   2    10   1   3     0   0   6     0   3   5     9   2   4     9   2   4     1   2   4     8  10  12     0   0   0     5   5   5     0   0   0     1   1   1     0   0   0     0   0   0     1   1   1     4   4   4     5   5   5     3   3   3     3   3   3     2   2   2    36  36  36     4   4   4    17  21  16     9  25   8     1  10   0    44   1  40    12  45  10     8  32   1    13  32   5     1   0  33     0   4   0    26  22  16    21  22   0    26  18  32   156 138 131    20   8   3   176 160 129     3  68   4    83  12 100    22   0  68     1  15   1     5  25  24     0   3 152     0 144  28     8   5   4    20  16   4    12   0   0    16   0  16     8 176 146     4  20 144    24 150  26     9   0  24   134 129  80   132  97  76   148   3  60    25   0  16    28 105  48     8  96  24    21  66  24   104   0   4   101   1   3   108  21  74    68  88   8     8  64  44     2  64   0     8  32   0    77  67  72    79  96  75   137  34  11    24  32   2   144  52   1     0  41 112     4 146 100    32  16 144     2   4 129     0   8 129     4  32 112   148 106  96   149 101  96   129 143 128   144 147 132     8  10   0   168 144 138     9   8 129   145 136   8   128   8  24    20  96  52     0 112   0     4   8 108    17 154 142    20   2 136   146 137  16    74  64  64     0   1 120    38   4 116    74   4 124    13   4  69     2  17   8    18   7 100    90 116  44    26  32  32   120  97   8    74  97  48     0   2  32    72  96  48    32  32  82    64  64 113    76  66  22    72  35  16     6  42  40     3  19   0   100 120   0     4  80  96   128   0  36     4 130  64     0   8 129    16   9   0     0   0   8     1   0  16     1   8   3     3   8   2    20   1   0     0  20   0     0   1  20    11   8   0     0   8   4    56  57  13    67  69  61     0   2  69     1   1   2     1   5   2     0   0   1    68   8   0    64  76   3    76  77   0    82  84   0    16   0   4    16  80   0     1   0   0     8   8   8    17   0  16    16  16  16    80  80  67    72   8   3     5  24   2    56  56  38    36  41  54    30  29  16   166 181 176    32  36   0     2  56  32    32  37   0    44  37  32    45  45  41    32  32  32     3   3   3     3   3   3     0   0   0     0   0   0     6   2   8
  2   3  11     6  10   0     8   8   0     6  10   0     4   2   0     1   8   0     8   8   8     9   8   0     5   4   8     5   0   8    33   2   8    32  33  33    24   0  36    24  26  32     4   7  33     0   1   1     4   0  32     0  28   0    24   0  32     0   5  39     5  36  34    36  32   0    32  32   0    32  32   0    38  36   0     4   0   8     4   8  10     0   9   9     0  13   9     0   0  10     0   0  10     1   2   8     0   0   4     5   6   8     1  12   8     0   3   1     0   1   3     0   0   0     1   2   0     2   4  12     3  12  14     2  12  14     9  10   0     0   1   5     1   0   0     1   0   0     0   0   0     1   0   4     0   0   1     3   3   3     0   0   0     0   0   0     5   5   5     5   5   5     5   5   5    35  35  35    39  39  39     1   1   1    32  32  32    42  42  42    12  12  12    12  12  12    17  65  64    21  19   4     9  10   0     9   9  12    64  67  79    73  68  75    73  68  64    16   0  81     8   0  16   133 148  16   132 132 135   195 192 198     5   8  10     8   8  18   129 164 148    41   0   0     3   4   0    21   9   4    70  71  70     4  10   0     2 150  24     0  26  52     8   0   4     1   4   0    12   9   0    25  16   4     4 144 144    12  20 128    15 148 152     2   5   2   135   1  12   134  96   0   145  96  62    17   1  12    18   2   0   152  96  32   140  68  64    96  76   3    64  67  69     1  17   3    74  91  64     2  82  47    34   1  68     2   2  36     0   2   0    44  42  74   108  40   6    96   0   0   140  98  49     2 128 117     8  12  28    36   2   1     0  22   1     2   0   0     3 135   4   149   4  96    17  16  66   128 139 128    16 145 133     0  16   5     1 128 138     1  24 140   145 136   5     1  96  52   112   0  56   128 112   2     0 128  96     1 139  50     0   2 130     0   7  28   120  81  80    22  29   2     6  21 120    26   0  12     0   4  92    16   7  68    16   2  16    32  38   4    76  36  28     8   2  24    72  32  16    32  32  20    80  18  32    24   6  24   104 102   0    88  70  16    89  37   0    27   2  16    97   3  65    32  72   0     4  96  48     1  14   8     0 130 112     0   0 136     0   0  16    32  33  24     2   0  16     2   3  44    17   4   2     0  21   2     0   2  20     9  10   4     0   2   4    58  56   0     2   2  48     2   4  64     1   5   0     0   0   3     1   1   0     1   0   0    69   1   0     0   0   0    68   0   6    65  68   0     4   1   0     8   2   8     0   0   0     9   0  10    24   0  16     0  11  20     0   8  16    20  16  12    16  81  94    84  57  12    56  40   0    63  40  56    40  56  16   145 176 145    72  44   4    23  20  40    28  29  40    21  21  21    16  16  16    41  41  41     0   0   0    12  12  12     4   4   4     1   4   8
  8   8   8     8   4   5     0   0   5     2   8   0     0  11   0     4  10   0    12   8   8     1   4   0     4   4   0    37   2   0     5   2   0    24  34  32     0  24  33     0   0  32     4  30  32     4  29   1     0   0  32    28   5   3    22  32   2    34   0   0     1   0   2     1   0   6     0   0   0     0   3   1     2   2   8     0   3   1     0   0   6     0   0  10     4   1   3     0   9   3     1  10   0     4   2   0     0   7   3     0   4   3     2  10   3     1   6  11     0   1  11     0   5   1     4   5   9     7   4   8     1   4   0     6  12   2    12   0   8     8  10   0     0   0   5     0   0   5     0   2   5     0   2   0     9  10  12     2   2   2     0   0   6     4   4   2    12  12   8     1   1   1    33  33  41    35  35   1    34  34  24    35  35  35    34  34  34    34  34  34   194 194 192   192 192 196   134 128 128   131 137 132   131 138 136   136 128 132   129 142 132   144 138 130   141 132 130   128 132 130    68  68 132    87  70  76    65  86  69    87  80  76    89  81  68    64  89  64    32  24   1    66  64  12    82  64  74    22   4  28    71  67  18     0  82  84    10  16  18    26  18   0     8   4   0    12  32  20     4   8   1     6   8   4    20 128 132    12 144   0     6 148 128     4 145 120   129 161  12   128 113  53   151   3  78   144  96  50     0   1  86    21 139  80   158 128  19   104  72   0    72  68  70     0  28  13   105  73   5     2  88  44     0  16   4    10  92   6    42  26  71    58  42  86   124  42  26    26  12  25     0   2  17     8 104 117     8 150  17    12   2 149     8   6   1     4   0   8     5 145 132   149 100  96   144  32 102   144 132   4     0   8 134    16  26   0    33  16 132    17  12 136   129 132  81    24  96   9   112  16  32     8  96  11     8 144 104    11 146  72   137 158  20    96  92  16    32  48  32    62   0   8    12  20  64    18  16   2     3   2  69    33  34   5    48  45  20    48  49   6    24  18   2    12   3   0    30   2   4    78  32  80    90 112   0    72  96  48     8  76   1   108  66  16    70   1   0   104  98  65     1  10  40   137  96  16   132 104  48     9   0 112     1   0 128    28   4 152     8  12  16    32  33   2    38  36  16     2   2  42    20  22   0     0   0  16     1   0   0     8   8   0    58  58  54    64  66   0    64  64  72     0   0   0     1   3   2     0   6   2     4   4   4     5   6   0    65   0   0    65  66   0    65  65   0    73  69   0     0   0   0     0   8   0     8   4   8    16   0   4     0  20  16     0   0   5     0   0   0     4   0  19     0   0   6     4   0   5    89  72  67    73  72   4    65  16  21    17  40  37    33  40   0   133 132 148    33  33  48    49  49  49    25  25  25    17  17  17    32  32  32     8   8   8    12  12  12     0   8   1
  1   0   8     1   0   0     1   0   0     0   0   0     0   0   1     6   0   3     8   0   3     0   4   9     1   4   4     4   0   0     4  32   0    24  37   0    24  28   7    24  28  33     4   1  32    30   8   1     1  32   2     6   0   2    32   0   2     2   0   2     0   1   7     0   5   7     0   5   5     0   1   1     0   4   4     4   4   2     1   0   6     0   6   8     0   0   8     0   2   8     0   1   9     4   0   9     5   6   3     0   2   1     5   0   1     1   0   2     4   6   2     5   6  11     5   6   8     5   2   8     0   0   2     4   0   4     4   7   9     0  10   1     8   0   5    10   2  13     0  10   4     2  26   9     0  10   5     0   0   2     0   0   6     0   0   2    40  40  40     0   0   0    15  15  21    16  16  10    24  24  16   208 208 200   224 224 208    64  64  74    64  64  72    10  10   0     5   9   0    67   9  12    64  10  12    64  12   8     1  14  13    25  28  10     5   3  10    13   6  26    10   6  82     5   4  92    27  20  64    85  80  72    86  80   2    70  88   0    72   9   4   192 196 204    68  81   8    18  17  14    69  67  20    68  66  17   132 132  52     5 158 130     1   2   4    37   8   0     1   4   1     1 137 129     0   8   1    16 129 128     2   8   0    26 168 132    32  41  12    12  19   7     6  49 120     1  91   2    18 136  18    24 129 114    44   8  67    97  73   0     0  32   6     0   0  28    33  73  94    26  10  67    10  88  35    26  18   3    32  12  22    34   6   0    24   8   0    18   0  16   136 104  37    10 128 112     8  12 101    24  16  12    27   4   0    11   7   5    15   0 130     7  17  16     5  16 133    16 128 145     8  16   6    16   0 128     0  24 132     8  12 136   136 128  89     8 128  61    16   1  16   136 129   3   161 129 120   130 131  24    96  74  80    35   9  18    22  56  18     6   0  11    45   0   8    32  16   1    33   9  17     0  30   4     0  28  20    49   4  24    32   1  64     0  67  64    18  65  68    16  66  64    24  15   0    72   5  64    96  72  67   118  99  65     2  36   6   122  36  36     1 100  33   128 130   8     0 130 113     0   0 120     8   1 128    16  20   2    24  20  18    36  36  16    38  37  32    16  18   0     6   6  18     2   2   2     0   0   2    57  56  48     1   6   4    70  66  64     0   0   6     2   0   2     5   1   3     6   4   4     1   1   0     6   4   0     4   0   0     1   2   2     1   0   2     5   4  12    12   8   0     4   8   4    12  12  12     8  12  14    16   2  18     0   3  17     1  16   0     1   0   0     4   2   4     4  16  21    16  16  22    16  22  22     4   0  81    82  84   6    76  76   2    53  52  52    48  48  60   137 137 137    33  33  33    25  25  25    41  41  41     1   1   1     4   4   4    32  37  33
 32  32  32     0   0   8     0   8   1     4   8   1     0   0   1     0   0   0     4   0   1     0   8  13     0   4   0    32   4   5    25  37   4     0   4  34     1   1   0     0  28  32     3   7  32     6   0   3    39   0   2     1   0   2     0   0   2     2   2   0    34  41   1    34  33   1    32  32   4     0   1   5     0   0   6     0   5   5     4   6   4     2   0   8     0   2   8     4   5   9     0   0   4     0   6  14     4   6  11     0   3   1     1   2   1     1   0   1     1   0   0     0   2   3     0   4   1     0   5   1     0   6   8    36  39   9    33  35   8    44   9  34     4   4   9    10   0   0    14   0   5     8  16  16    12   0   8     2   2   0     4   4   0     4   4   0     2   2   0    10  10   8     2   2  88   210 210 152    82  82  72    64  64  80     1   1  11    17  17   3     8   8   8     8   8   0    12   8   0     0   8  12     3  25   0     0   6  12     0   5  25     1  12  11     1   1  72     0   7  64     8   4  68     9   6   2    82  70   2   146 129 130   136 128 133   120  81  71    10  16   0   152 209 204    17  89  30    17  17  14    33   0  75    64  64   7   155 144   9    17  20 128    11  20   8     0  28  17     2   8  17    34 160 130     0  24   3    16   1   0    16  18   0    16 151 128    12  17  17    12 128 155     4   8  18    16   8 144    28   2 130   141 128   5   152   0  64    96  40  32    16   8  28     0  24  29    48   4  80    27   9  22    18   0  47    16   0  95     8  12  69    62  34  30     2  10  25     2  12  49   129 105  48     0   0   0     8   1 148     0  20  16    11  19   4    18  18  12    20  22  12   135 135 132   159 147 135    20  20 152    20  18   5     0   8 128     2   2 128     0  12  48     8   9 124     8 128  30     8 128  28     0 128 111   130 128  10    32  80  69     3  14  22    53   8   5    30  41   0    23  48   0     7   0  17     3  10  17     5  16  17    17  25  21    33  23  17     1  19  80   112  82   4    17  17   4    67  75  68     2  88  68     0  67  72    41 108  64    38  44   0     6  36   5    30   6  33   116  18  13     5 116   4     0   0  28     8   3   0     4   9 136    17   6   0     1  20   9    24  21  17    44  37   4     4   0   4    20  17   1     4   0  17     1   1   3    52  52  50     5   5   5     6   6   4     6   6   6     2   2   2     2   2   2     4   4   4     4   4   4     0   0   0     6   6   6     5   5   4     4   6   6     1   1   0     8   8   8     4   4   4     0   0   0     2   0   0     2   2   3     0  14  14    16  16  16     0   0   0     1   1   0     4   0   0     6   2   7     2   1   7     2   3   7     0   3   7    16  22  16    74  74  68    10  10   8    88  88  88    16  16  16    72  72  72   168 168 168   129 129 129     8   8   8    16  16  16    32   0   0
  0  36  35    37   1  10     1   1   8     1   1   2     0   0   1     0   0   1     0   0   1     0   8   8     0   4   0     0   0   0     0   4   6    25  37   0     0   0  34     1  33  34    25  37   4    38   2   1    34   6   4    34  36   0    32  39   1    36  38   0    32  35  33    28  31   1     8  32  32    33  32   6     0   1   7     4   5   7     0   3   1     0   2   0     0   2   0     1   2   0     0   1   5     0   0   1     5   0  10     5   0   3     0   2   0     0   2   1     0   0   0     1   6   3     5   2   2     4   4  14     4   0   0     4   4   0     0   1   0    40   4  43     1   4  12     6   4   4     8   6   6    14  16   2     4   8   6    34  34   4    32  32  38     1   1   1     2   2   0   210 210 192    19  19  17     0   0  18    17  17  11     0   0   8     0   0   2     0   0  10     8   8  12     1   1  13    24  24  20     0  16   8    13  16  16     0  19  20    24  21   0     0  12   8     6   4   2     0   1  74     8   1  28    64  66  38   136 128 164    10   0  20   144 128  48   132 128  32     2  16 176     2  80   4     4 127   3    66  43  39    22  40  82    99  32  13   129  12  69    32 146 143    34  16   1     2   4   0     0   8  17     2 130 144     0   1   0     0 144 129    16   1   0     3  29   0    18   5   9    28  16  26     4 140 136    36 144 128     0  19 150   136 131  24     0 130 117    96  66  48    76  74   8    56  16  24     5  13  18    48   8  19     8   4  67    58   2   0    40  18  13    60   2   2    15   5   8     7  15  16   135   5  80     6 156 100     5   9 148     9  11  16    17  17   0     8   4  11    25  18  15    24  10   5    30  17   0    16  20   9    24  17   9    16   4 133    16   0 140     0   8 112     8   0 108    12 128  53   136 137  61   128   3   3   112  67  86    97   1  10    48   2   2     2   8  16    53   1   0     7   8  29     2  18   0     4  26   0     6  21  16    44  16   3     9  19  66     8  82  48     0  64  43     8  16   8    82  74   0     8  97  72    40   5  10    36  32   0    12  32   4     0   8  32     1   2   8   115   6   8   136 116  17     2 128 120    12   1   0    16   3   9    16  22   1    16   4  17     0   5  23     4   1  45     0   1  13     1   1  13     2   1  21     1   1   1     0   0   0    68  68  68     0   0   0     6   6   6     5   5   5     1   1   1     1   1   1     6   6   6     1   1   1     0   0   0     4   4   4     7   7   7     2   2   2    12  12  12     4   4   4     0   0   0     2   2   2     0   0   0    14  14  14    17  17  17     0   0   0     1   1   1     1   1   1     7   7   7     4   4   4     6   6   6     0   0   0    18  18  18    16  16  16    26  26  26    80  80  80    72  72  72    84  84  84    73  73  73     8   8   8     1   1   1   129 129 129     2   2   0
 36  32  35    38   2   2     0   8   8     4   0   0     0   0   0     0   0   1     0   0   1     4   0   8     1   1   4     0   0   0    33   5   0     1   5   2     7  35   0    26  34   1     2   6   2    32   4   0    33   0   2    34   0   0     1   0   2    33  42   0    32  41  33    25  24   0     1  32   2     1  36   6     2   0   0     0   0   4     0   6   8     0   5   1     0   2   0     3   4   8     4   1   5     5   0   8     0   0   8     0   0   0     0   0   0     0   3   0     2   6   3     6   9   5     0   0   0     5   8   4     1   0   8     0   3   2    32  32  34    32  32  42     6  12   4     0  12   0     6  12   5    36  32  36    24  24  24    32  32  12    40  40  40   193 193 225     2   2   0    18  18   0     0   0   0     2   2  16     2   2  16     2   2   0    17  17  17     4   4   4    13  13  13    17  17   3    12   2  12     9  19  12     4   6  16     9  31  16     7   4  18     2   1  74     0   5  60     0   4  74    24   5   4   211 196 128    26   3  12    10  64   4    11  18  64   144 136 125    16   8 116    18 130 124   140 120  77     6  63  39     3  56  38     0  61  40   129  16  73     1 144 131    34  16  16     2   6   0     2   0   0     0  27   1    32  41  25    32  25  17    40  21  16    29  20  16    28  13   2    28  24  24     4   2  16    32   2   0     1   0   0    12   2 132     9 132 113   128   2  25    10  18  50   100  80  10    36  23   2    36   8   1    33  28   3    24   0   1    32  54   2    96   0  52     2   0  60   131 100  18   161  37  20     7  13 148    38  25  16     6  10   2    35  11  16    35  35  28    50  35   4     5   0   1    12   3  14     5  20  12    24   3   9    26   1  12     2   1   8    20   2  24   128 128  65    28   1   1     0  64   0    68  66  18    72   3  86     8  16  17    37   0   1    60   0   7     6  32   4     7   8  29     4   2   0     6   8  64    44  65  96     8  82   0    13  87  16     0   0  48    80  66  48   112 110  32     1  67  80    43  32  24     0   2   0     0   0  24    11   0  32    27   0   0     8  21   9     0   1   1   136   2  16     0 129 112     0   1 140    25  18   0    29  20  17     1   4  25    44  35   6     0   1  43    20  16   0     0   1  12    49  49  36     0   0   0    64  64  64     3   3   3     4   4   4     7   7   7     5   5   5     1   1   1     0   0   0     6   6   6     1   1   1     0   0   0     0   0   0     5   5   5    10  10  10     5   5   5     6   6   6     2   2   2     0   0   0     0   0   0    14  14  14    14  14  14    17  17  17    20  20  20     5   5   5     7   7   7     0   0   0    16  16  16     0   0   0    14  14  14    24  24  24    26  26  26    16  16  16    19  19  19    12  12  12    10  10  10     0   0   0    10  10  10    16  16  16   132 128 128
 32  32  33     6  10  10     4   0   0     3   3   0     4   0   1     5   9   0     0   0   0    37   1   8     4   0   1    32   4   2    33   5   0     0   0   6    29   1   4    28   0   4    34   6   5    32   4   0     2  32   0    28   0   0     4  45   3    35  40   2    41  40  10    33  40  42    32  32  32    32   0   2     4   5   3     4   4   4     4   0  14     6   0   0     2   4   0     3   4   8     4   0   4     5   0   8     4   0  10     5   0   2     0   3   0     2   6   2     6   1   0     0   0   4     0   0   0     9   0   6     0   8   6     0   8   1     0   0   2     0  12   0    42  40  40     0  12   0    53  61  48    48  48  48    24  28  16   136 136  72    68  68 194    11  11   9     0   0   4    18  18   4     6   6  16    16  16   8    16  16   0    16  16   4    17  17   7    21  21   1    17  17  13     0   0  12     0   2  12     9   3   8    13   5   0     8  29  24    12  21  16     0  12   2     6   5   0     0  13  66   209 196 130   129  40   0    34  16   4    15  16   4   129   0   4    20 130  96    16 130  16    12   6  12     4 114   5     6   8  11   132  16  47   128  16  58     1   5 101     1 145  18    32   1  16     0  10   0     6   3  20     4  25  16     0  32  16     0   3  16     4  20   0     5  17  16    24   8   0    24  16  16    32  16   4     0  32   0    34   4  20     3   0  12     3   4 116     0   0 113   138 128  81     4   3  16    68  18  16    33  58  18    97  34  50   114  24   0    98  52  37   148 116 100   132 100 100     4   1  88   167 133   8     0  13 144    14   2   4    34  42   6     8  38   0     4   2   2    36  32   0    27   3  12    21   3   2     4   3   8    29  17   0     0   0 137     0  16 141   128 144   1   129   2   8    65  66  64    64  49  24    45  23  20    33   3  18     4  18   6    13  16   6    72  80  20     7  72 116    99  41  97    99  72  37     0  41   4    22  65  35    72   0  34     5  89   0     0  26   0     1   7  98    51  15  96    48  32   4     9   2  16     8   2   8     9   0   0    24   1  33     1   4   4     8   0  12   116   4   0   128 116   9     0 129 113    16   5 153     1  20  10    29  22  18    41  34   3     8  10  32     2   2  14    16  17   3    49  48  45     1   1  33    67  67  67     0   0   0     0   0   0     5   5   5     0   0   0     1   1   1     8   8   8    10  10  10     4   4   4     5   5   5     2   2   2     4   4   4     7   7   7     1   1   1     4   4   4     3   3   3     0   0   0     0   0   0     1   1   1     1   1   1    15  15  15    15  15  15    23  23  23    20  20  20     4   4   4     4   4   4    20  20  20     0   0   0     2   2   2     0   0   0     9   9   9    10  10  10    25  25  25    24  24  24    25  25  25    25  25  25    72  72  72    24  24  24   134 134 135
 38  34  35     4   8   9     4   0   1     6  10   1     0   4   9     2   2   8     4   8   0    38   2   9     0   0   1     0   0   5    32   4   0    32   4   0    30   2   4    30   2   4    32   4   5    32  32   5    29   6   2    26   4   0    35   0   2     2   9  15     1  10   0     1   0   8     1   4   8     0   4   4     4   4   2     4   4   4    12   9   9     4   8   0     4   1   9     0   0   8     0   0   4     1   0  10     0   4   8     1   4   2     3   4   2     0   8   0     6   8   0     6   0   0     8   0   4     0   0   0     1   8   2     1   0   0    48  51  50    32  46  38     0  12   0    10   8   1     2   4   1    48  50  48   208 208 208    82  82  88    12  12   4    10  10  12    10  10   4    18  18  24    22  22  16    16  16   8     0   0   8    18  18   8     1   1   7    20  20  20     0   0   2    19  19  13     1   1   8     1  15   8     4  21  16    12  28  16    14   4   2     0  12   2    12   3  64    16   5  66    20   4  16    51  65  72     7  17   8   170   2   8    11 121  33     0 139  97     1 130   1     4 138  20     8 128  20     4 112   4    10   0  14     9   8   1    10  96   2     0  17  97     8 128 146    12  18  18     1  16   2     5   2   0    37  32   8    12   0   0     8  44   0     6   1   0    28   7   8    24  26  16     0   2  16     0   2  20     4  34  16     0   4 156     5  18  20     0   1   9     2 141   4     8   1  80    34  70  34    97  42  48     4 100  51   132 125  51   128  92  97     0  25  97    18 132   5     6   0   2    24  21 136    26  18  14    32   8  18     4  24   0     4   0  16     0   2  24     2  40  20    37   1  16     4   2   0    24   0   0    25   2   1   153 128 136   128   2  17   102  64  24    83  90  96    18   0   0     6  41   0     0  17   8    37   9  18    45  17  96    25  32  71    13  80  17     8  41  20    97  23  21    64   9   4    16   0   4     9   1  37    96  80  28     5   3  64    36  12   2     4  14   2     0  60   0    16   4  32     0   0  32     8   2   0    13  14  36    16   8   1     3   0   8    10   1   9     6 112  20   132 128   4     2   0   2    24  16 144    17  16   0    16  16  20     5   0  34     4   0   0     8   8   4    32  32  14    64  64   0     1   0  65     1   1   1     2   2   2     0   0   0     1   1   1     1   1   1     5   5   5     8   8   8    10  10  10     2   2   2     4   4   4     2   2   2     5   5   5    12  12  12     4   4   4     0   0   0     2   2   2     1   1   1     1   1   1     0   0   0     0   0   0     1   1   1     1   1   1    13  13  13    16  16  16     7   7   7     5   5   5     1   1   1    16  16  16     8   8   8     8   8   8     8   8   8     0   0   0     2   2   2     0   0   0     1   1   1    10  10  10     9   9   9    94  94  94   160 164 164
  6  42  41     4   0   5     0   0  12     0   0   1     0   4   4     0   4   8     0   4   8    36   8   9    30   2   1    29   1   0    29   1   4    31   3   0    30   2   5    30   2   1    34   6   7    32  32   4    40   4   1    44  36   2    34   8   2    10  13   7    11  14   8    10  14  12     1   6  12     1   6   0    12   2  16     8   3   5     2   0  10     0  11   1     4   0   8     4   4   8     1   4   6     1   0   8     1   0   4     4   8   5     6   8   5     1   8   0     1   0   0     7   0   2     7   0   2     6   0   2     5   0   0     6   9   2     0   4   0     0   6   3    17  19  16    32  32  40     0  14   0   128 136 128     4   0   9    12  12   8    10  10  12     6   6   4    20  20  20    24  24  24    26  26  24    10  10   8     4   4   8    11  11   5     9   9  13    21  21  11    16  16   0    16  16   2    17  17  14     2   0  20    16  21   0    20  21  12     4   1  72    12   7   0    12   0  66   201 219 130   196 138 130   128   1   0   165 168  24    46 144   0     6   0 131    38  16   1     1 138  97     0 129 101    16   4   4     8 112   4     2 120   8     8  25   8    10  12   0     0  20   1     0  25   0     8 150 133    28  18   0    19   6   8    12   0  10     4   0   0    13  34  32    40  12   0     0   8   0    24  16  20     0   0  16     4   0  12    32   0  24    32  16  20    33   6  16    16   1   5     0   0   6   168 132   0   128  13 101   128  96 114   134   8   2     0 118 116     0 136   0     0 129   5    16   4 136    24   1 131    26  21 139     0   1 154     8   8 144    44  10  18    38   6  10     2   4   0    18   8   0    17   0   0    28 130 130   156 136 129    56   1   9    22  18   9    69  83  64   101   2   8    35  16  64    33  16  64     9  90  98     9  18  72     5   9  96    68   0  70    81  72  66     4  32  18    12  56  20     8  10  20     0  56  32     8   0   5   105  97  12    33  33  84     1   1  20     0  28   0     0  12   3     5  61   1     0   8  34    16   8  36     0  12  32     0   1   0     0   5   1     0   4  10    10  16   9     6 112   1   141 136 113     0   0 145    26   5   0     0   0   0    36  33  36     0   1   4    20  16  10    34  32  26     0   0  58    64  64  12    65  65   3    66  66  66     3   3   3     2   2   2     0   0   0     9   9   9     1   1   1     8   8   8     0   0   0     6   6   6     6   6   6     7   7   7     0   0   0     4   4   4     0   0   0     2   2   2     3   3   3     0   0   0     0   0   0     0   0   0     1   1   1     1   1   1     0   0   0    12  12  12    18  18  18     6   6   6     4   4   4     4   4   4     0   0   0     0   0   0     1   1   1    10  10  10    11  11  11     2   2   2     1   1   1     1   1   1     9   9   9     1   1   1     9   9   9   195 195 193
 32  40  40     0   8   9     4   8   0     0   0   9     0   4   7     0  12  14     0   8  10    36   0   9    40   8   8     4   0   1    32   0   0     2   2   4    30   2   2    30   2   3     0   0   1    32   4   0    34   0   2    32   8  10     3   8   8    10   0   0    10  10   0     8  11   1     8   8   4     1   0  12     8   2  20     2   0  18    10   8  10     0   8   0     4   8   2     0   2  12     0   9  15     8   8   4     0   8   4     0   0   0     2   8   4     6   0   4     0   0   2     4   0   0     7   0   2     3   0   2     1   8   8    33  35  32    24   2  24     5   7   2     1  19   8     0   2   3   201 193 192    10   8   8     0   0   8     0   0  10    20  20   4    20  20   4    16  16  18     4   4   2    10  10   8    10  10   4     3   3   5    19  19   9     5   5   3     0   0   2     1   1   1     0   0  22     1   1   5     3   0  22    20  18   2     5  16   6     4   5  68    17   4   4    74  67   0   224 144 200     7 132 140   136 148   8    13  20 142     4  22   0    44 152   0    32 140  24    40 129  16     8  12  12     0 132   4    12   9   0     1   8   8     9  96  14     3   0   0     0   8   2     8 112  97    16 152 128     0   0   9    16   2   3     4   0  24    37  32   0    40  32  16    10   1   8     4   0  17     4  13  24    16  17   4     0   2  24     0   1   4    16   8   5    32  15  17     0  10   4     0  11  17   138 136   4    34   8 102    74  73 113   132 137 113     6 146   8     1  26 128     0 139  17     2   1   1    18   8 138    16   4   6     2  14  14     0   4   8     0  20 146    36  30   0   178 154 128   144 136 129   132  43   0    12  41  17    40  74  17   106  65  12     0  67  11     1  67  39     8   3  52     6   3  44     0  65  32     1  96  40     0   2  49     9  80  34   108  32   1    85  32   1    69  32  53    72  40  20    72   2   4    72  34  16     0  66  88    42  32  16     8  32  24     2  12  20     2   4   0     1   3   3    20  12  32    20  12  32    16  12   0    12   0   0     0   0   4    16   4   0     0  12   2   116  97   8    24  16  96    10   1 144    24  24   1    28  24  18    16  19   4    33  35  54    16  17  27    48  48  16     0   0   4    56  58  58    64  64  60    65  65  64     0   0   0     3   3   3     0   0   0     8   8   8     2   2   2     2   2   2     8   8   8     0   0   0     1   1   1     8   8   8     8   8   8    12  12  12     8   8   8    12  12  12    14  14  14     1   1   1    15  15  15    15  15  15    15  15  15    14  14  14     2   2   2     2   2   2    12  12  12    16  16  16     4   4   4     4   4   4     0   0   0     0   0   0     0   0   0    17  17  17     3   3   3    14  14  14    10  10  10     3   3   3     8   8   8     0   0   0     9   9   9    11  11  11   203 203 200
  0  40  41     4   8   9     4   8   8     4   8  13     0  12   8     0  12  12     8   0   0     8   4   0    40   0   8    36   8   8    33   1   2     4   0   0    30   2   6    30   2   0    32   4   1     0   0   1     0   0  11     6   9   3     6   1  11     2   1   3     0   2   0    10  10  12     8  10   0     8   0   6     5  12  16     9   8  18     7   4   8     8   0   2     4   8   0    10   0   6     2   0   6     3   0   0     0   0   8     1   0   8    13   8  40     3   0   0     1   8  10     2   8   8     1   8   8     3   0   8    40  32  40    35  45  36     8  10  12    17  23   0   207 193 218    64  10  72    72  12  68     4   4   0    12   8   2    13  13  11    20  20   2     4   4  22    20  20  18     8   8   8     1   1   9     8   8  12     3   3   1     6   6   0    16  16   0     4   4  18     0   0  18     0   0  22     1   1  23     7   0   4    17  18   6     4   4   2     0   6  76    83  76   5    11  67   0    35  25   0    12 137 143     8  16 136     3  20  98     8  16 122     8  12 114    10  13 120    34   4  24    32  15  20    32 136  16     8 135  20     8   1  16    25  24   6     0  17  14    17   0   7    16 121  99     0   5 119     8 136   7    28 133 132    12   3  24     4   0 152     5   0  32    32  38   0     2   2   0     4   6  24     6  11   0    16  19   4    20  24   0     1   8   4     0  10   0     0   6   4     0  10  24   128 134   0    25   8  22    22 142  16   139  16 112     2 131  21     3 128   4     3 130 120     6  10  20    16   8 128    24   9 140    18   1 102     0 129  97   134 136  76    23   5   1    19  15   1    84   2   2    85  67  18    69  64  38     0  12  96     0  73   7     0  80   5     3   2  44     8   2  44     1   3  40     8   0  40     1  32   2     0  32   1     9  68  32    25  64   6    81   0   5     0  32   2    76   2  12   106  96  84    14  32  76     2   0   0    14   0  12    10   0  24    18  12   0    16  12  32    17  13  33    19   9  33     2  10   2     1   8  32    17   8  32     0   8   0    16   9   5   112 108   7   128 128  96   144 128 130    26   1  16    30  29  16    30  28  16    60  61  32    36  33  20     0  25  10    48   3  10    61   1   6    60   0  62    61  65  62    53   5   2    78  78  78    10  10  10    10  10  10     2   2   2     2   2   2    10  10  10     0   0   0     8   8   8     8   8   8    10  10  10    10  10  10     9   9   9     8   8   8    13  13  13    14  14  14     1   1   1    14  14  14    15  15  15    16  16  16    14  14  14    14  14  14     0   0   0     8   8   8    16  16  16     0   0   0     0   0   0     0   0   0     4   4   4     1   1   1    23  23  23     2   2   2    10  10  10    10  10  10    10  10  10     8   8   8     0   0   0     0   0   0     0   0   0   202 194 193
 36  32  33     0   0   0     4   0   0     4   0   2     8   4   4     8   4   5     8   4   5     4   0   1     4   0   2     0   0   3     4   8  11     0   0   2    32   0   6    32   4   6    32   0   5     2   0   1     6   8   9     3   0   8     5   0  10     0   0   4     2   1   9    10  10   8     8  11   5     1   8  12     5   2  16    12   8  18     9  10  16    11   8   8     8  10   8     2   6   8     0   0   8     3   4   8    11  12   8     0   8   8     4  16  34    11   0   2     2  16  16     2   0   0    17  18  16    32  34  32    17  25  24     8  10   0     1   3  10   217 217 196     3  17   0     2   5   2    14   5   4     5  14   0     8  16   0    17  17  11     0   0  16     4   4  18     0   0  10    14  14   0    13  13   5     8   8  12     2   2  16    18  18  16     1   1   3     1   1   3     1   1   3     3   3   1     6   6  16    19  20   2    16  18  10    17   4   0    17   0  72     0   8  64    17   1 164    33  19 128    37  12 140     1   2   0     9  18  13     1   2   2     8  12   2     8   6   0     2   7   8     0  12  12    34   4   2    16 132  22    24 128  17     1 120  11     1   9  15     1   0  15    16 120  14    16   0 100     6   4 101     0  18  96     5   5 124     5 148 140     8   2 136    10   2   0    32  34 136   164 174 145   162 160 144    36  32   5    12   0   2    21  16   1    33   8  18     0  14  16    13   2 136     1 136 112   133 136  98   162  48   2   162 155   1     0   0   0    19 128 132     2   0 144     4   3   5     0 137 157     2 128 131   146  24  43     2   0  43    19   9  45    53   5   3    65  45  33     1 105  33     1 105  32    16  76  48    83  64  38    69   5  38    72  40  32    64  59  53    65  22  37    65  23  56     1  49   0     1  32   8     0   0  36     0   5  34   106  84  71    66 108  66    32  64  84    42  32  28     2   0   8     2   2   8    15   1   0    14   8   4     0   0  24     0   4  32    16   4  32     1   5   1     9   1  28     9   1  28     9  12   9    10   8   5    19   0   4   114  97   6   124 104  96   128 128   0     0   1   0    26  16   0    26  17   0    44  45  44    19  23  16    61  32   9     4   0   2     1  65  62    57  65  52    56   4   4    64  68  64    65   9   8     9   9   9     0   0   0     0   0   0     6   6   6     0   0   0     2   2   2    10  10  10     8   8   8     0   0   0     2   2   2     2   2   2     9   9   9    16  16  16    16  16  16    14  14  14     0   0   0     0   0   0    16  16  16     0   0   0    16  16  16     0   0   0     1   1   1     8   8   8    16  16  16     0   0   0     0   0   0     4   4   4     0   0   0     0   0   0     7   7   7     3   3   3     8   8   8     0   0   0     0   0   0     0   0   0     0   0   0     4   4   4     4   4   4   200 192 192
 32  32  34     4   0   0     6   2   2    11   7   4     8   4   0     8   4   5     8   0   5     4   0   2     5   1   2     1   1   0     4   8   2     1   5   0     0   4   4     1   1   0     0   4   4     0   4  14     6   8   2     2   8  14     2   1   9     2   1   5     0   2   8     3  10  12    12  12   8     0   8  12     0  15   1     0  10  16     8   8  16     1   0  20     8   8  16     7  12  16    12  14  16     8  10   8    10  12   0     9  26   0     0  16  50    18  16  18     2   0   2     2   4   0    33  37  32    37  35  36    13   3   4   133 155 128    73  91  20     0  16  78     1   1  76    23   1  10     0  12   8    12  15   2    16  16   1    17  17  11     0   0   2    21  21   3     4   4  12    15  15   1     2   2  12    18  18   8     0   0  16    18  18  16     0   0   0     0   0   2     0   0  16     2   2   0    20  20   2    17  16   4     0   0  10    20   2   2    81  64  64    16   4   0    33  24   4    48  24  16    10  24 149     9   0   4    11   0 132     1  20   0     8   0 123     9   4   1     4   2   8     4   9   0     2   6   0     0 128   6    17   4  18     0  12   6     5   1  13     1   0  14    17   8   9    16  24   3     0  20   1     0  23   1     0 101   8     8   4 104     8 130  96    25   0 128    16 128 128    10   2  40     2  39 160    50  38 160    12   6   0    29   0  11     5   0   0     1 136 136     1  18 144     3 102 114     2 154  18     2  23  16     2  25 113     0 133   0     0 136 102     0   1 140    22  12 130     2 132  28   130 130   3     2  18  39     1   0  34    43  45  35    83   1  38    11   0   3    72  58   0    66  18  48     5  41  46    19  40   2    39  41  38    47  32   2    40  48  19    32  25   5    69  49  57    65   1  50     4  36  34     0  20  70     1  80  64    32   0   4    48   4  16    10  38  28     2  38   8    12   0  12    14   4   9    12   0   1     8   6   2    10   8  24    16   2  26     2   0   0     2   4   0    10  10  24    11   5  25     0   5  21    99  98  44    98  96  40   130 129 106   130 128 130     0   9 128    10   9   1     0  25  16     8   0  49     2   5  32    36  37  32     1  65  48    65  65   0    65   1   0    71   1  64    67   1  68    67   1   4    13   9   8     0   0   0     4   4   4    12  12  12     8   8   8     1   1   1    18  18  18     2   2   2     8   8   8     2   2   2     2   2   2     2   2   2     0   0   0    16  16  16    17  17  17    16  16  16     0   0   0    17  17  17     0   0   0     0   0   0     0   0   0     2   2   2    12  12  12    10  10  10    21  21  21     0   0   0     6   6   6     4   4   4     7   7   7     0   0   0     1   1   1    16  16  16     0   0   0     2   2   2     0   0   0     0   0   0     1   1   1     4   4   4     0   0   0   200 192 192
 34  34  36     4   0   2     9   5  12     1   1   2     0   0  12     8   4   0     0   0   1     0   0   0     6  10   1     0   0   3     6  10   0     0   0   3     0   0   5     0   0   1     0   4   4     2  10  13     0   0   0     8   0   4     3   8   8     0   9  11     2  10  12     9  10   0    12  14  16     6   0  16    12  15   1    10   3  17     1  16   0    15  16   0    13   2   0     8   6   0     0  10   0     8   2  17    18  26   9     0  16  18     2   4   6    16   0   0     1  16  16     0  16  16    33  33  32     1   7   0   137 139 128    80  88  72     1  17  64    25   8   0     0  17   4     2  16   8     4  18   8     0   8   2     0   1   8     0   0   2     1   1  13    19  19  13    15  15   1    12  12   0     4   4   0     2   2  16     0   0   0    16  16  20     0   0  12    16  16  14     0   0  22     4   4  16     4   4   4     0   2  14     0   0   3     2   2   0    84  80  66    24   1  16     0  21  20     0   7   0    11  22  24     0  16   4     5   2   1     4   6 132     4  16 129     9   0 123     5   2 114     8   2 114    32   0 114    40   4  22     1   0   6    16 120   9     0   0   5     0   1  12    20   9   9     0  18   0     4   4  38   128   0  32     0  17   5   128  38   8     2  64  64   145 130  72   144 130  24   150   0 113   134 137   0     2   0 144     4   4 128    12 148 138     0 128 140   160 102  66    33  82  72   128  48  36     2 105 115   128  74  16   128  80  65     0  12 130     0 137 115     0   5   0   128 136  91    36  22  22     1  24   1     4  55  49     0  50   5    48  43   2    48  10   2    16  36  32    36  50  32     9  17  26    51  33  10    20  32  24     1   9  19    29  32  22    44   2  21    56   4   4    68  14  14   100  86   6     5  80  18    35  17  64     0  29   4     3  36  16     8  36   8     2   4   0    10   6   8     2   0   0     4   0   1     5   5   0     0   6   2     8   8   0     8  10  26     0   0   0     5   3   6    20   8  32     4   2  44   100  98  57     6 100  58   129 128 123   146 132  48     8   8 151    24   0  38    32  33  36    58  57  21     2  11  25    48  49  21     1   1   4    68  64  68    64   6  64     1   7   4     2   4   4     2   1   4     3  12   8     8   5   4     6   6   6    10  10  10     0   0   0    16  16  16    17  17  17     0   0   0    16  16  16    10  10  10     2   2   2     2   2   2     8   8   8    16  16  16     1   1   1     1   1   1    16  16  16    17  17  17     0   0   0     1   1   1     2   2   2     1   1   1    16  16  16     0   0   0     7   7   7    19  19  19     0   0   0     4   4   4     4   4   4     3   3   3     0   0   0     0   0   0     4   4   4    16  16  16     8   8   8     1   1   1     0   0   0     0   0   0     6   6   6     0   0   0   201 197 198
 33  33  34     5   1   4    10   6  12     2   2   0     2   2   2     8   4   7     0   4   0     2  10   2     6  10   1     3   3   0     0   4   8     0   4   0     0   0   1     0   0   4     1   5   8     0   6   0     5   0   0     9   2   4     9   0   6    12   1   7    12   4   6     4   5   5     0   2   0     8   9  17     0   3  17    18  17   5    16  19   1     0  16   0    12  16   0     4  23   1    18   1   1     0   1  13     8   9   9    24   0   1    18   0   0    16   2   2     0  20  17    33  37  32     1   1   0   193 193 218    10  12  75    28   0  84     3  17  20     1  19  14     0   1  16    22  26   0     2  11   2    20  25   2    16  16   2     1   1   3     0   0  12     3   3   1    14  14   0     2   2  12    17  17   1     1   1   1     2   2   0    16  16   0     2   2  12    16  16   0     0   0  18    20  20   2     1   1   5     8   8   6     1   1   3    10   6  16    88  82  65    26  12   3    40  57   2    18   2  16    12   2   0     6  16  12    12   2   4     6   2  11     6   0 128     5  16 132     4  16 133     9   0 132    10   4   2    11   6 112    35 142   8    32 130   8    20 113   9    18 113   2     6 113   1     0   4  33   136  17  38     8  36   2   106  21   1   112   4  24   113  10  16     0  64   8    28  75  16   156  25  89   134   3   0   128 134  64   136  25   0   129  48  96    56 113  77    32 116  68    96  51   1    96  37   5    80  35  82    80  13  22    20  37  98   144 109  66   132  69   2   128  26   8     0  12 102     8   1  16     2  16   6    32  39   1    16  32   9    56  44   1    50  40   8    34  18   2    42  16  12    33  27   4    48   0  14    37  32   0    51  45  27     3   2   4    33   6  19   110  68  20    64  70  10    34  35  82     4   1  10     0  32  20     1   6  28     9  37   8     8   4  12     8   2   8     9   3   4     8   0   8     9   5   8     0   0   0     3   1   1     5   1   1     5   9   5     4   2   6    20   8  38     4   8   4   116 112   1   128 130  28     3 128 123     3   0 139    18   7   8    56  32  18    40  49  48     3   1   1    18  16   8    60  56  11    64  67   1    69  67  64     0   0   0     1   1   0     0   2   5     0   8   0     6   8   1     2   0  12     3   4   4    12  12  12     2   2   2     0   0   0     0   0   0     1   1   1     0   0   0     1   1   1     8   8   8     0   0   0     9   9   9    16  16  16     1   1   1     1   1   1     1   1   1     0   0   0     0   0   0     0   0   0     2   2   2     2   2   2     2   2   2     2   2   2    16  16  16     3   3   3    17  17  17     3   3   3     4   4   4     4   4   4    11  11  11    10  10  10     0   0   0     0   0   0     2   2   2     6   6   6    10  10  10     4   4   4     7   7   7     2   2   2     0   0   0   202 198 196
 34  34  32     6   2   6     9   5   0     1   1  14     0   0  14     2   2   7    10   6   5     2  10   1     2  10   1     0   0   1     0   0   8     0   4   1     2   2   0     0   0   4     0   0   4     5  10   0     5   0   0     1   0   4     1   0   6     0   4   2     4   1   1     0   1  15     0   0  12    12  11  21     1   2  20    16   0   0     0   0   0    12   0   0    14   0   2    16  16   0     0   1   1     4   7   4    24  24  28    20  16  21     0  16  23     0   2   0    35  49  48     1   3   0   195 197 216    18   4  88    27  17  10    17  16  90    18  16  12     3  16   2    19  25   0     0  24   0     0  11   0     0   1   0    16  19  16     0   0  18    16  16  10     0   0   2    12  12   0     4   4  12     4   4  18     4   4   0     6   6  16     0   0   4    18  18  12    16  16   0     0   0  18     0   0   2    12  12  12     0   0  14     2  12   0    28  22   5    24  80  66    10   1   2     8  40  18     7  33   0     4  34  10    20   0   0     0   0   6    14   0   9     6   0   0     1   1   3     4   0   1     4  18   1     8  10 130     1  11  16     0   6   4    32 130   5    36 132   0     0   5   0    16   4   5   153   3  33     8  48   2    15  32  24    11   0   0    23   0   8     1   8  16     6   2   4   122  64   0    96  65  30   102  84  80   108  80  80    70  72 112    88  12  68    73  25  96     9   5  65     9  17  69    33   5  65    20   8  21    48  74  58    84  98   6    32  44   4     4  20   3    33  19   0    32  12   1     1   7   0     4  40  20    32  12  24     0  16  25    32   4   1    24  20  24    40   4   0    40  14   0    41  21   0     4  30  10    69  26  12    69  29   6    85  92  15    21   8  12     7   6  66     1   6   4    36  32   2     4  32   0     0   0  29     1   3   8     3   3   8     1   1   8     9  33   0    10  34   0    11   1   1     3   1   9     1   1   9     9   1  25     9   7  26    10  10  10     4  10  36   112   2   0    21 113   4   156   8 109    16 130  33     0   2 162    34  33  32    19   0  32     1  16   2     8   8  18     9   8   0    50  51  49    56  56  56    65  75  64    65  75  64     1   1   0     5   9   4     0  14   5     0   8   5    12   0   3    10   1   4     2  14  12    14  14  14     0   0   0     0   0   0     2   2   2     1   1   1    16  16  16     0   0   0     4   4   4     9   9   9     5   5   5     1   1   1     0   0   0     2   2   2     1   1   1     3   3   3     2   2   2     2   2   2     3   3   3     1   1   1     1   1   1     1   1   1     0   0   0     2   2   2     2   2   2     2   2   2     3   3   3     0   0   0    11  11  11    10  10  10     0   0   0     5   5   5     1   1   1    20  20  20    16  16  16     8   8   8     9   9   9    15  15  15     3   3   3   202 198 196
 34  34  32     6   2   4     2   2   0     0   0   2     0   0   3     0   0  14     2   6  15     2  14  11     4   8  10     2   2   0     3   3   0     2   6   9     0   4   1     0   4   9     0   8  12     5   8   0     5   1   2    12   0   0     1   4   4     0   4   2     4   1   1     4   4  14     8   9  13    16  19  17    17  16  16    16   0   0     0  16   0     4  16   0    22  20   2     4   4   0     0   5   3    20   6   5    32  35  36     0   2   8    36  58  49    36  48  32   136 142 140    80  86  65    83  21  88    18   4   2    19  17  84    16  16  69     3   0  16     2  24  17     5  24   1     7  16   3     4   8   0     6   9  22    16  16  16     0   0  22     0   0  10    14  14   0    12  12   6    20  20  12     0   0  22     4   4   0    18  18   0    18  18   8    20  20  12    18  18  16    20  20  18     0   0  10     8   8   0     5   5   3     0  13  13    30  18   7    24  21  22    80   2  27    16   1   3    49   1  24     4   2   2    21   2   2     4   0   2    18  16   8    14   4   6     6   0   4     2  16   5    13   2 129    33   6   4    41 138 108    32 134   0    34 129   6    34 128   2     4   1  43     2 102  49   140   5  25     8  34   0    12   0   0    12  17   8     1   0  80    23   8  70    22   8  70     0  12   4     8  20  20     9  20  16    24  29   8    19   1  32    65 101  97   105  99  37   104  32   4     1  67  21    33   3  13     4   2  20     0  42  12    50  42  12    48  22   0     1  19   0    41  25   4    33  13   4    40  12  20    37   9  16    33  41  21    52  32  16    56   4   9    34   0   1    56   4   9    92   4   8    89  67  32     9  73   1     0  82  66    32   9  78     6  14  73    38   2  20    46   0  21     2   2   4     9   0  18     1   2   0     1   0   0     1   0   0     9   1   4    11   3   4     1   1   2     0   0   0     8   0   0     9   1   0     9   5  25     9   5  17    17   1  44    18   0  43   100 104   0    24   8  15   132 144  98     0  10  36     9   7 161    39  33  45    18   1  41    18  17  11     4  12   0     0   0  14    54  52  56     8   8  48    68  70  66    64  72  66     4   8   0     2   0   8     2   0   9     0   8  10     4   0   6     4  16  19     9   1   0     3  15  14     1   1   1     2   2   2    20  20  20     4   4   4     4   4   4     0   0   0     8   8   8     5   5   5     9   9   9    20  20  20     0   0   0     2   2   2     0   0   0     0   0   0     0   0   0     1   1   1     0   0   0     5   5   5     0   0   0     0   0   0     2   2   2     1   1   1     2   2   2     3   3   3     2   2   2     1   1   1     0   0   0     2   2   2     2   2   2     2   2   2     4   4   4     5   5   5     0   0   0    16  16  16    18  18  18    16  16  16    13  13  13    13  13  13   200 196 197
 34  40  36     6   2   4     8   1  12     1   4   0     0   0  14     0   3  18     2   6  12     8   1   8     8   9   9     4   0   9     4   9   8     2   4   8     0   4  10     0   2  15     0   8   5     0  10   9     4   8   1     9   0  10     1   4   2     1   0   2     4   1   2     4   0   1     4   1   9     0   1   4    16  16  22    22  16   1     6   0   0    10   0  23     2   0  18    16   0  16    18  16  21    20  20  18    34  32  36    12   0  12     1   9   0   136 144 137    72  90  72     8  10  10    18   0  10    24   8  16     4  16  20     1   1   4     3   5  20    19  16   3    18  16   0    20  24   1    18  20  20     1   1   4    22  18  22    20  20   2     9   9   9    14  14   0     4   4  12    16  16  20     4   4  16     4   4  16    20  20  20    18  18  12    17  17  17     2   2  16    20  20  18    16  16  16     2   2   2    13  13   3    18  17  17     4   0  28    16  16  21    18  80  95    16   5  16     8  48   8     9   2  16     3   0   2     6   8  16     6   8   2     2   0   0     0  18   0     8   4 132    13   8   5     1   3  28    36  10  21    32 131  10    28 121   2     0   1   3    24 121   8     0   2  41    20   2  24   132   3  26     3  32  24    14  11  26    22  11  88   112  35  20     7   4   0     0   4  16     1  16   0    96  13  24   101   5  24    84  72  24    20  66   1    24  18   1    37  21   1    15  17   0    36   0  23    35   1  12    40  12  10    27   3   1    41  23   1    46  16   1     1   3   1    41  17   1    33  39  17    35   1   0    34  30   0    16  16  24    64   4   1    96  80   5     8  84  14     4  20  74     8  20   2     4  10   2     0  11   3     2   0  20     0  21   1    46  44   4    55  46  10    52  14   4     1   2  18     1  10   0     1  38   0     1   2   0     1  32   0     0  34   0     1  28   0     4   4   6     4  36   2     0   0  22    25   1  32    17   1  41     5  25   4   112 112  15    40  82   4     8 136 123     9  43 176     4   3   0    56  51  10    36  33  33     0   1   2     0   1  12     4   5  31    51  50  20     0   0   0     0   0  66     0   2   0     0   8   0     0   9   2    14   0   0     6   8   2    10   8   1     2  16   4     9   0   1     1  16   0    13  16   0    14  14  14    22  22  22    18  18  18     4   4   4    20  20  20     0   0   0     8   8   8     8   8   8    17  17  17    16  16  16     0   0   0     4   4   4     2   2   2     0   0   0     0   0   0     2   2   2     4   4   4     0   0   0     0   0   0     4   4   4     4   4   4     0   0   0     0   0   0     0   0   0     1   1   1     0   0   0     1   1   1     0   0   0     1   1   1    11  11  11     0   0   0     2   2   2     0   0   0     0   0   0     0   0   0     0   0   0    17  17  17    17  17  17   196 200 201
 32  42  40     6   9   8     2   1  12     0   7  16     4   1  17     0   5   2     0   1  16     0   3  16     8   0   8     8   2   9     1   8   2     0   1   2     5   0   0     0   8   1     4   8   5     8   2  14    12   1   6     1   0   4     7   4   0     7  12   2     6  13  12    12   5  17     0   3   0    16  19  16     0   2   5     6  22  20     6  24  18    12  16  16     8  17  27    28   0  11    10  48   8    31   8  29    56  56  47    60  58  56   140 136 137    72  74  73     8  10   0     8  10  10     8   2   1    24  24  16     3   1   4     0   4   0     1   5   0     1   1  16    18  16   0    17  17  16     1   5  17     1   1   7     0   4  23    16  16  16    13  13  11    13  13  13    16  16   0     4   4  20     0   0   0    20  20  22     0   0  16    18  18  12     0   0  16     3   3   1     0   0   2    16  16  18    18  18  18     1   3   3     2   0   0     1   1  23    16  16  27     2   0   3    81  17   0    16  18  16    25  24  22     9  36   1    15   4   2    13  20  25    10  10   6    10  19   0     0  31 128     0   0   1    33  11  28    16 141  18    11 141  10    10  12   9    17   1  12    24 101  34    22  98   3     8 102  24     7  99  26   134 106   8   142  40  18   132  43  12     0  13  72     5   4  64     0  14  68    97   0  68     1  87  66    16  92  74    88  32  32    24  10   8    35  31   0     8  22  16     1  33  20     9  33   6    20   0   4    33  35   4     0   2   3     3  19   4    27  17   0    39   1   0    37   9   1    15   1   5   103  17   5    79  72   8    33  93   0    34   0  68    33   5   5     0   4  15    32  20  72    36  30  83    42   2  17    12   3  16     0   2   0     9  32   8    10   0   0     7  39   1     7  42   1     3  42   5     2  32   4     5  10   0     6  32   2     5  13  16     0   0  20     0   4  16     0   0   0     0   4   0     0   6   2    20  12  34    20  20  42    80  84 106   165 164 108   129 128  56     1   2 184    40  34  16    45  40   8     0   6   4    28  17   1    24  20  17    24  29  17    61  56  52    65  65   1    64  64  70     0   0   0     0   0   0    12  13   8    12   5  10     8   5   2    10   9   1     6  17   2     0   0  10    17   0  12    16   0  12    18  18  14    20  20   2    22  22  22     0   0   0     4   4   4    16  16  16     8   8   8     9   9   9    11  11  11    18  18  18     5   5   5     5   5   5     4   4   4     2   2   2     2   2   2     2   2   2     0   0   0     0   0   0     0   0   0     0   0   0     0   0   0     4   4   4     4   4   4     0   0   0     0   0   0     0   0   0     5   5   5     1   1   1     9   9   9     1   1   1    14  14  14     2   2   2     2   2   2     5   5   5     0   0   0     0   0   0     1   1   1     1   1   1    20  20  20   194 194 206
 36  40  46     2   9   8    12   1  16     4   7   0     0   0   2     4   7   0     0   0  16     2   1   0     0   0  13     0   2  13     8  13  10     0   4   2     0   4   0     0   8   5     4   8   4     8   8  11     4   1   8     9   1  12     3   1   6     4   4   4     8   8   5     8   0   4    16  22  16    18  20  20     0   0   7    16  16  17     4   8   5     8   2  26     4  18   4     0   8  18    62  24  48     6  42   1    46  42  45   167 167 167     1   1   1    64  64  64     0   0   0     0   0   0     0   0   0     0   0   0     0   0   0     0   0   0     2   2   0     0   0  16     1   1  17     1   1  17     5   5   1     5   5   1    21  21  23     1   1   1     1   1   1    20  20  20     5   5   5     4   4   4     5   5   5     6   6   6    17  17  17    19  19  19     0   0   0     0   0   0     2   2   2     0   0   0     0   0   0     0   2   2     2   0   2     2   0   0     3   0   8     1   0   0    64  65  64    64  80  80    57   0   4    43   8  20    10  16   0    10  24  15    10   0   4     8   3   3     2  27   0     4   9 139    21   8  19     0   1 124    35 130  22     2 141  19     7 138   0    29 133   0    21 130   4     4 128  42     0 142  34     1   6  48     1  12  40    20 106  41   152  50  12   117  38   0     1   6   4    57  11  64    97  15  24    64  11  42    68  11  42    64   2   0    32  50   8     1   5  18    11  37  20     6  32  20    45   1   6    13   3   2     0   2   3    64   0   4    66  16   0    80  68  21    68  90  81    32  94  65    42  16  72     0   2   8     3  22   8     0  16   0     1  20   6     0  18   0     0  16   6     8   2  18    12  38   4     0  38   2     2   2   5     9  33   0     0  40  20     5   1  16     5  23  18     3  12   1     2  36   0     6   4   0     4   4   2     5  42  17     1  38   7     0  55   0    17  53   2    17  33  32   112 100   2   112 100   2    56  36  96    23  16  40   168 160 128     0   0 169    32  34   1     1   2   1    52  54  32    20  20  16     8  10  18     0   0  20    49  49  49     8   8   0    65  65  65     8   8   0     6   6   0     8   8  10     2   0   0     0   0   0     0  13   2    12  17   1     0  17   0    17   0   5     1   0   0     0   2   0     0   3   2     0   0  20     4   4   4     0   0   0     6   6   6    16  16  16     8   8   8     8   8   8    19  19  19     0   0   0     5   5   5     0   0   0     0   0   0     5   5   5     0   0   0     0   0   0     4   4   4     0   0   0     0   0   0     0   0   0     0   0   0     0   0   0     0   0   0     5   5   5     0   0   0     5   5   5     0   0   0     4   4   4     9   9   9     1   1   1     8   8   8     0   0   0     2   2   2     0   0   0     5   5   5     4   4   4     1   1   1     1   1   1     2   2   2   210 210 216
 40  40  36    11   0   9     0   1  18     4   5   2     0   1   0     0   5   0     0   1  18    10   3  12     1   0  15     9   2  13     9  10  11     0   4   2     1   4   3     1   8   7     5   8   6     0   1  10     8   8   1     3   7   8     3   1   2     1   9   2     8   0   3    18   0  17     1   1   0    19   5   0    22   4   0    18   0   1    24  16  26    28  30  25    52  30  37    62  56  42    26  56  24    49  57  59   167 161 170    66  66  66    76  76  76    24  24  24    24  24  24    10  10  10     0   0   0    16  16  16     0   0   0     0   0   0     4   4   4    16  16  16     1   1   1    21  21  21     4   4   4     4   4   4    17  17  17    16  16  16    18  18  18     0   0   0     0   0   0     3   3   3    21  21  21    13  13  13     0   0   0    17  17  17     0   0   0     0   0   0     2   2   2     1   1   1     2   2   2     4   0   3     7   0   6     6  12  12     6  12   8     9   7   4     1   2   0    81  82  68    66  64  10    18  32  24    42   0   8    42  16  11     8  10  16     4  14   4     2   5   5     4   1   0    48   4 131    40   4 123    37  12 112     4   4 114     6   0 114    37   2  96     2   0  96    44   4 108     4   6  96     4   7 112     4 134  50     4  96  56   139 100   0   108  36   0     0  11  80    37  11   2    20  79  23     1  72  19     0  44  10    85   9  44    41  21   8    18   0   8    17  33  16    50   0   4    58   4   1     2  64  34    88  66  69    48  64  80    48  32  88     0   2   9     8   2   9     8  24  12    34  24  24    42   1  28     4  10  24    10  34  22     8  38  22    10  38  23    14  33  20     8  32   6     4   4   1     0   0   6     1   1   0     0   0   2     0   0   0     1  24   4     2   2   0     5  30   1     3   0   5    12  32   0     6   0   8     9   0  27     8  10  16    23   0  36    16  21  38   115 113   0    48  36  96   160 160  34   128 130 136    33  36   0    32  36  16     5   0   1     0   8  41    32  36  56    60  60  16    49  49  17    52  52  60     1   1   1    73  73  73     9   9   9     0   0   0    12  12  12     8   8   8     8   9   0     8   9   0    12   1   0     0   1   0    16  19   2     0   1   0     0   3   5     3   2   0     2   0   2     0   2   6     0   0  16     4   4   4     0   0   0     1   1   1    20  20  20     8   8   8    12  12  12    16  16  16     4   4   4     0   0   0     0   0   0     0   0   0     0   0   0     4   4   4     0   0   0     4   4   4     1   1   1     1   1   1     1   1   1     1   1   1     1   1   1     1   1   1     5   5   5     1   1   1     5   5   5     1   1   1     1   1   1     9   9   9     0   0   0    10  10  10     6   6   6     2   2   2     5   5   5     5   5   5     4   4   4     0   0   0     8   8   8     8   8   8   208 220 218
 32  32  60     0   0  16     0   5  18     4   1   2     4   1   2     0   4   0     2   2  16     8   3   0     2   2  12    10   0   0     8   8  10     8   8   2     0   8   2     9   8  11     8   9   9     0   1   1     8   5   1    14   9   8     1   9   0    13   3  10    17  17  18    20   2  17     2   0   1     3   1   0     0   0   0     3   1   2    32  38  35    37  37  36    40  48  42    49  59  60    19  33  16   131 137 130    96 104  96    66  66  66    84  84  84    30  30  30     8   8   8     2   2   2     2   2   2    16  16  16     0   0   0     3   3   3    20  20  20     2   2   2    16  16  16    16  16  16     1   1   1    16  16  16     5   5   5     0   0   0    16  16  16     0   0   0     0   0   0    20  20  20    14  14  14     6   6   6     8   8   8    17  17  17     0   0   0     0   0   0     5   5   5     3   3   3     7   7   7     2   4   4     0   0  13     6   8   4     3   8   8     0   1  12     2   0  24     0  17  24     2   0  28     6   0  80    98  76   8     2   0  22    32  28  21    32   2   6    32  16   6     0  48  11    22   4   0     4  20  10     0  28 131     0   0   1    33  16 128    33   0   0     4  16 128     5  28 136     0   4   0     0  10 122     1   6 113     0 132  96    13   4  48     9  32  36     9  25  14    68  17  36    64   0   0    65  64  28    65   9  21     2   0  12    17  13  25     0   8   4    49  45  17    28  96 113    84  44  65    44  32  33    32   0  16     0   0   1     0   8  19     0   0  20    24  46  16    16  40  29     2   0  29     2  37  24     3   0   8     3   2   2     6   2   2     6   2   0     4   2   6     4   4   7     0   0   1     0   0   7     2   2   7     0   0   2     8  32   7     0  25   4     0  24   5     0  28   0     8   0   0    10   0   8     8   0   8    13   2   1   108 110   8   100  96  22    20   2  72   129 129   0     8   0  12    10   0 148    32  32   8    50  56  16     0   0  48     8  25   3     8   0  17     8  16  16     4   5   8     0   0  56    12  13  52    73  73  73    14  14  14    12  12  12     4   4   4     4   4   6     8   8   6     2   3   4    16  17   6    16  17   4    18   1   6     2   0   7     1   0   0     3   0   2     1   0   2     1   0  14     2   1   2     3   3   5     0   0   0     5   5   5     5   5   5     4   4   4     9   9   9     5   5   5    20  20  20     1   1   1     1   1   1     2   2   2     2   2   2     1   1   1     1   1   1     1   1   1     1   1   1     1   1   1     1   1   1     1   1   1     1   1   1     1   1   1     1   1   1     0   0   0     7   7   7     0   0   0     6   6   6     0   0   0    14  14  14     4   4   4    10  10  10     6   6   6     6   6   6     2   2   2     0   0   0    12  12  12     5   5   5     5   5   5     5   5   5   209 208 213
 36  32  60     0   5  18     4   1   0     4   1   2     0   0   0     2   5   0     0   2   0     8   3   0     0   2  16    11   0   1     1   0   3     9  10  11     9   8   9     0   0   2     1   0   9     8  14   0     4   5   7    14   9  11     9   1   8     0  16  14    17   1  18     0   6   6    19   1   0    18   0   0     4   0  17    21   1  16    20  52  50    20  22  21    32  22  32    38  36  33   164 128 178     1   1   0    64  64  75     0   0   0     0   0   0     0   0   0    16  16  16    16  16  16     0   0   0     4   4   4     0   0   0    21  21  21     7   7   7    14  14  14     0   0   0     0   0   0     1   1   1     0   0   0     9   9   9     8   8   8    16  16  16     0   0   0    18  18  18    10  10  10     0   0   0     3   3   3     8   8   8    22  22  22     0   0   0     7   7   7     6   6   6     7   7   7     4   4   4     4  12   4     4  12  14     0   0   5     6   4  13     2   0   2     4   0   0     0  21  12    32  25  12     2  21   6    18   9   6    16  16  84    98  94  86    65  10   0    36   4   1     8   0  16    26   4  19     6  20   0     5  24   0    36   1   4    33  16   0    34  16   1    32  20   2    36  20   1     0   4   1    32  16   4     0   4 128     2  16   0     8 180  48   200  64 116   136   0  48   132   8  16   140   0   2   193  64   0   128   8  53   149 129  60   152 132  17   128 136  32   147   9  49   131   5  25    16 104   1    22 112   2   120   8  13   112   2  13    96   2   8    96  48   0   104  42   8    16  40   8     5  11  13     6   8   0    21   8   8     4   6  12    15   8   8    14   7   8     0   4   9     2   2   9     0   0   4     4   4   2     1   1   2     5   5  10     0   0   6     9  32   4     8  32   0    11  20   1    11   4  25   106  32  30    98  96  24     9  10  11    37   6  81   164 144   4   165 151  22    32  18 148    32   0  28    32  32  16     0   0   8    50  53  53    36  36  56    36  53  43    28  25   9    56  56   0     8   8   8    64  64   8     8   8  64    12  12  12     8   8   8     8   8   8     8   8   8     1   1  13    17  17   1     0   0  12     0   1   0     0   0  12     0   1  12     0   1  12     0   5   0     2   5   3     2   0   3     2   4   2     4   0  20     4   4   6     0   0   0     4   4   4    20  20  20    16  16  16     2   2   2    18  18  18     4   4   4     2   2   2     2   2   2     6   6   6     6   6   6     2   2   2     2   2   2     0   0   0     0   0   0     2   2   2     2   2   2     2   2   2     2   2   2     2   2   2     2   2   2     0   0   0     4   4   4     8   8   8     8   8   8     1   1   1     3   3   3     4   4   4     8   8   8     4   4   4     3   3   3    10  10  10     0   0   0     0   0   0     0   0   0     1   1   1     0   0   0   212 213 204
 36  32  32     4   1   0     4   1   2     4   1   2     0   0   0     0   4   0     0   3   0     8   3  16     3   2  17    10   4   0     0   0   0     0   1  16     0   2   0     0   5   2     0   4  19     0   1   0     0   9   0     4   0   3    12   2  12     8  22  10    20  22  20    16  20  20     0  16   9     4   2   0     6   0  16     2   0   0     6   0  23    53  39  36    32  44  39   161 165 160    66  64  72     2   0   1    10   0  11    16  16  16     6   6   6    14  14  14     4   4   4    16  16  16    16  16  16    18  18  18    17  17  17     0   0   0    14  14  14     6   6   6    16  16  16     0   0   0    17  17  17    10  10  10     9   9   9     0   0   0    17  17  17    16  16  16     0   0   0     4   4   4     0   0   0     7   7   7     2   2   2    16  16  16     5   5   5     5   5   5     4   4   4     1   1   1     5   5   5    13  12   8    13  11   9     4   4   2    13  13   9    14  12   0     4   2  24     0  16  24    38  28  16    32  32  16     2   8  16     0  32  24    32  16  23     1  24   6    16  64  84    88  68  64    94  80  66    68  70  88   100  65   0    98  66   1    64   0   0    64  80   1    72   0   8    72  64   0    72  84   8    72  12  15    80  24   2    86   4   0    89  80 192    76 208 162    76 130 224    12 128 128     8 226 128    24 131 138    17   0 149     3   3 153    17   9 129    19  15 147    17   9  17    19 135 115   152   8   0    20  96   4   148 104  52    16  96  56     4   0  44   112  16   0     4  16   4     5   1  37     6   0  12     7   2  25     1   1  24    16   8  24    19   0   0     4  10   0     2   8   1    14   6  15    12   4  11    12   4  14    12   4   8    12   4  26     5   5  16     4   4  21    10  48  21    98  13  20     2  89  80    24   5  72   145  22  67   140 146   4     8  18   6    24  24 132     4  26  10    33  27  18     0   0  21    43  33  21    32  32   0    10   8  48    18  20  23    10  13   7    56  57   1     8   9  60    64  64  12    13  13  69     8   8  12     9   9   9     0   0   0     0   0   0    20  20  20    16  16  18     0   0  18     2   2  16     4   5  18     4   4  16     6   7  18     4   0   2     4   0   0     4   0  14     4   0   0     4   0  19     4   1   0     5   5   3     0   0   0     4   4   4     1   1   1     1   1   1     5   5   5     4   4   4     5   5   5     3   3   3     5   5   5     0   0   0     0   0   0     5   5   5     3   3   3     2   2   2     0   0   0     0   0   0     0   0   0     0   0   0     0   0   0     0   0   0     0   0   0     6   6   6     0   0   0     1   1   1     1   1   1     0   0   0     2   2   2     7   7   7     9   9   9    13  13  13     0   0   0     2   2   2     2   2   2     2   2   2     4   4   4     1   1   1     0   0   0   208 209 204
 32  33  32     0   0   2     0   1   0     4   0   2     3   0   1     1   4   1     0   3   0     8  11  16     0   0   0    11  12   1     0   0  12     0   3  16     1   2   1     0   6   2     4   4  19     5   4   0     8   1  12    12   9  14     9  19   2    13  19   4    13   7   4     1   7   4     4   2   6    20   2   2     0   0  26    11  33  56    12  56  34    51  45  44     4   4  15    66  72  74    27   1   0     1  17  18    10  18  18     6   6   6     4   4   4    16  16  16    17  17  17     0   0   0     0   0   0     0   0   0    16  16  16     6   6   6    14  14  14     0   0   0     2   2   2    22  22  22     5   5   5    15  15  15     0   0   0    16  16  16     0   0   0    18  18  18    12  12  12     3   3   3     7   7   7    11  11  11    16  16  16     3   3   3     1   1   1     0   0   0     8   8   8    10  10  10     3   3   1     0   2   0     0   2  12     7   2   0     4   5   3     8   9  11    14  12   8    14  12   8     3  25   8     9  25   8    27   9   2    18  24   0    26   4  10    16  28   9     5   4  16     0  12  16    13   4   1    14   2   0     5   8   4     2   2  92     1  33  68     8   0  68     8  22  66    16  16  84    16  16  78    28  24  78    21  77  77    18  64  72    16  64  64     0  16  64     4   2   0     4   2  38     8   0   2    64  64   1     0   8  32    33  41  21    58  10  18    49   5 145    16   0 136     0   4  16    16   0   0    22   2 118     8 128   0     0 112   0     8 116   0     0   4   8   132   0   4     3   3  11   114  24  32   119  24  41     5  17  40     1   2   6     0   8  24     0   8  26    20  11  24    18   2  25    30   6  24     8   0  29   108   4  27   104  96  27   108 100  65   112  96  65     0 100  64     2   2   4   146   1   4    26 145 136    14  17 128    12  17 136     8  24  14    40  24  14     0  12  18     1  20  20     0  40  20    32  40  16     0   1  24    65   4  24     3   4  19     1   4  51    64  64   0    72  72   4     8  10  72     8   8   0     8   8   8     1   1   1    20  20  20     7   7   7     0   0   0     4   4   0     6   6   0     2   4   0     2   4   0     2   5   2     0   1   0     0   2   0     0   3  16     0   2  16     1   2  16     1   0   0     0   0   0     4   4   2     0   0   0    20  20  20     0   0   0     0   0   0    20  20  20     2   2   2     1   1   1     6   6   6     1   1   1     0   0   0     0   0   0     1   1   1     6   6   6     1   1   1     0   0   0     1   1   1     1   1   1     1   1   1     1   1   1     1   1   1     1   1   1     7   7   7    10  10  10     0   0   0     2   2   2     2   2   2     3   3   3     4   4   4     8   8   8     4   4   4    11  11  11     0   0   0     0   0   0     0   0   0     4   4   4     4   4   4    28  28  28   236 236 244
  1  15   1    40  42  34    40  43  34    44  40  32    44  40  33    43  44  32    42  35  32    34  42  48    40  40  33    33  38  40    40  40  33    40  40  33    40  46  51    40  46  33    36  44  48    32  44  49    40  40  32    33  39  56    33  49  48    37  33  32    32  46  33    36  46  45    32  34  32    56  50  52    48  16  60    42  16  32     1   1  28    41  45  10    28  18  10   153 149 154   209 193 192   202 210 216   202 202 192   222 210 218   213 217 214   209 201 208   203 209 202   192 192 194   192 196 212   192 192 192   208 214 216   222 222 214   218 222 207   214 208 194   196 196 213   210 212 208   208 212 213   197 203 206   209 211 198   192 194 198   193 195 210   208 210 203   208 212 204   206 200 205   196 192 193   197 195 192   213 209 208   209 209 208   193 197 221   193 193 216   203 201 211   202 200 208   211 201 210   212 202 208   213 202 194   200 202 192   204 200 192   212 204 200   196 194 216   204 210 194   192 210 192   208 213 208   194 210 193   202 212 204   204 212 217   218 212 213   196 204 192   204 196 192   192 192 208   220 208 208   210 192 196   212 216 192   208 208 212   202 200 210   200 197 193   200 193 192   201 193 199   204 193 194   200 192 197   194 195 196   192 197 200   193 194 192   212 208 132   145 146 143   144 132 140   129 130 167   128 131 144   134 128 149   148 146 130   164 132 146   146 146 146   130 144   0   132  18   0   130  16  14   132  16  20   132  16  96     0  16 112    16  98  97     5  97 100     1  99 103     0  98  99     1  99  99     4  96  97   105 112  64   116 105  64   112 108  68    98 110  64    96  96  68    96 108  77    16 105  65     0   0  69     0  17   0     0   0   0     0  20   4     0   4   4     2   3   4   130  16   0   138 136 129   129 140 136   133 136 129   128 130 136   128 131 148   128 154 128   138 144 128   128 162 135   136 144 135   128 128 143   130 144 158   145 148 151   147 144 133   144 144 146   204 194 128   200 198 196   192 202 204   218 209 208   194 194 208   194 195 210   194 198 210   196 196 212   196 192 192   196 199 192   198 198 208   196 193 214   196 197 208   198 198 210   194 192 192   192 192 192   193 192 192   192 192 208   193 198 209   193 198 195   193 197 192   192 196 192   212 208 208   208 220 208   213 217 212   208 208 208   192 196 213   199 199 208   192 194 222   192 192 217   201 201 200   201 201 200   192 196 193   196 198 194   195 192 196   195 193 199   195 192 199   193 192 197   193 192 197   198 197 194   198 197 194   196 193 192   194 199 198   194 200 198   200 192 200   203 200 203   205 202 201   200 192 200   196 192 204   204 205 192   193 193 197   202 200 194   200 202 200   200 200 200   202 200 202   200 192 200   202 192 194   201 196 197    16  22   0
